; *************************************************
; *************************************************
; ******* File generated by Extruder Turtle *******
; ******* written by Leah Buechley and  ***********
; ******* and Franklin Pezutti-Dyer ***************
; **** Hand and Machine Lab, UNM, 2021-present ****
; *************************************************
; *************************************************
; ********** Default printer parameters ***********
; Printer: ender
; Nozzle size: 0.2
; Extrude width: 0.4
; Layer height: 0.2
; Extrude rate: 0.05
; Speed: 1000
; Mix Factor: 0.9
; *************** Ender initialization **************
G92 E0 ; Reset Extruder 
G28 ; Home all axes
G90 ; Absolute coordinates for X,Y,Z   
M190 S60 ; Set bed temperature and wait 
M109 S205 ; Set extruder temperature and wait 
G1 Z2.0 F3000 ; Move Z to 2mm above bed 
G1 X0.1 Y20 Z0.3 F5000.0 ; Move to start position
G1 X0.1 Y200.0 Z0.3 F1500.0 E15 ; Draw the first line
G1 X0.4 Y200.0 Z0.3 F5000.0 ; Move to side a little
G1 X0.4 Y20 Z0.3 F1500.0 E30 ; Draw the second line
G92 E0 ; Reset Extruder
G1 Z2.0 F3000 ; Move Z Axis up little to prevent scratching of Heat Bed 
G1 X5 Y20 Z0.3 F5000.0 ; Move over to prevent blob squish 
G92 E0 ; Reset extruder position to zero 
G1 F300 E-3 
G1 F2000
G1 0 0 .3               ; Lift nozzle above bed a little
G1 X100 Y100 Z.1        ; Go to the starting position 
F300 E3                 ; Extrude to get ready
M83 					; Relative extrustion
G91                     ; Relative coordinates for X,Y,Z axes
G1 F1000
; ********** End printer initialization ***********
; *************************************************

; *************** Begin print *********************
G1 X0.2 Y0.0 Z0.0 E0.01
G1 X0.0 Y2.0 Z0.0 E0.1
G1 X-0.0 Y-2.0 Z-0.0 E0.1
G1 X0.2 Y-0.0035 Z0.0 E0.01
G1 X0.1999 Y-0.007 Z0.0 E0.01
G1 X0.1997 Y-0.0105 Z0.0 E0.01
G1 X0.1995 Y-0.014 Z0.0 E0.01
G1 X0.1992 Y-0.0174 Z0.0 E0.01
G1 X0.1989 Y-0.0209 Z0.0 E0.01
G1 X0.1985 Y-0.0244 Z0.0 E0.01
G1 X0.1981 Y-0.0278 Z0.0 E0.01
G1 X0.1975 Y-0.0313 Z0.0 E0.01
G1 X0.3129 Y1.9754 Z0.0 E0.1
G1 X-0.3129 Y-1.9754 Z-0.0 E0.1
G1 X0.197 Y-0.0347 Z0.0 E0.01
G1 X0.1963 Y-0.0382 Z0.0 E0.01
G1 X0.1956 Y-0.0416 Z0.0 E0.01
G1 X0.1949 Y-0.045 Z0.0 E0.01
G1 X0.1941 Y-0.0484 Z0.0 E0.01
G1 X0.1932 Y-0.0518 Z0.0 E0.01
G1 X0.1923 Y-0.0551 Z0.0 E0.01
G1 X0.1913 Y-0.0585 Z0.0 E0.01
G1 X0.1902 Y-0.0618 Z0.0 E0.01
G1 X0.618 Y1.9021 Z0.0 E0.1
G1 X-0.618 Y-1.9021 Z-0.0 E0.1
G1 X0.1891 Y-0.0651 Z0.0 E0.01
G1 X0.1879 Y-0.0684 Z0.0 E0.01
G1 X0.1867 Y-0.0717 Z0.0 E0.01
G1 X0.1854 Y-0.0749 Z0.0 E0.01
G1 X0.1841 Y-0.0781 Z0.0 E0.01
G1 X0.1827 Y-0.0813 Z0.0 E0.01
G1 X0.1813 Y-0.0845 Z0.0 E0.01
G1 X0.1798 Y-0.0877 Z0.0 E0.01
G1 X0.1782 Y-0.0908 Z0.0 E0.01
G1 X0.908 Y1.782 Z0.0 E0.1
G1 X-0.908 Y-1.782 Z-0.0 E0.1
G1 X0.1766 Y-0.0939 Z0.0 E0.01
G1 X0.1749 Y-0.097 Z0.0 E0.01
G1 X0.1732 Y-0.1 Z0.0 E0.01
G1 X0.1714 Y-0.103 Z0.0 E0.01
G1 X0.1696 Y-0.106 Z0.0 E0.01
G1 X0.1677 Y-0.1089 Z0.0 E0.01
G1 X0.1658 Y-0.1118 Z0.0 E0.01
G1 X0.1638 Y-0.1147 Z0.0 E0.01
G1 X0.1618 Y-0.1176 Z0.0 E0.01
G1 X1.1756 Y1.618 Z0.0 E0.1
G1 X-1.1756 Y-1.618 Z-0.0 E0.1
G1 X0.1597 Y-0.1204 Z0.0 E0.01
G1 X0.1576 Y-0.1231 Z0.0 E0.01
G1 X0.1554 Y-0.1259 Z0.0 E0.01
G1 X0.1532 Y-0.1286 Z0.0 E0.01
G1 X0.1509 Y-0.1312 Z0.0 E0.01
G1 X0.1486 Y-0.1338 Z0.0 E0.01
G1 X0.1463 Y-0.1364 Z0.0 E0.01
G1 X0.1439 Y-0.1389 Z0.0 E0.01
G1 X0.1414 Y-0.1414 Z0.0 E0.01
G1 X1.4142 Y1.4142 Z0.0 E0.1
G1 X-1.4142 Y-1.4142 Z-0.0 E0.1
G1 X0.1389 Y-0.1439 Z0.0 E0.01
G1 X0.1364 Y-0.1463 Z0.0 E0.01
G1 X0.1338 Y-0.1486 Z0.0 E0.01
G1 X0.1312 Y-0.1509 Z0.0 E0.01
G1 X0.1286 Y-0.1532 Z0.0 E0.01
G1 X0.1259 Y-0.1554 Z0.0 E0.01
G1 X0.1231 Y-0.1576 Z0.0 E0.01
G1 X0.1204 Y-0.1597 Z0.0 E0.01
G1 X0.1176 Y-0.1618 Z0.0 E0.01
G1 X1.618 Y1.1756 Z0.0 E0.1
G1 X-1.618 Y-1.1756 Z-0.0 E0.1
G1 X0.1147 Y-0.1638 Z0.0 E0.01
G1 X0.1118 Y-0.1658 Z0.0 E0.01
G1 X0.1089 Y-0.1677 Z0.0 E0.01
G1 X0.106 Y-0.1696 Z0.0 E0.01
G1 X0.103 Y-0.1714 Z0.0 E0.01
G1 X0.1 Y-0.1732 Z0.0 E0.01
G1 X0.097 Y-0.1749 Z0.0 E0.01
G1 X0.0939 Y-0.1766 Z0.0 E0.01
G1 X0.0908 Y-0.1782 Z0.0 E0.01
G1 X1.782 Y0.908 Z0.0 E0.1
G1 X-1.782 Y-0.908 Z-0.0 E0.1
G1 X0.0877 Y-0.1798 Z0.0 E0.01
G1 X0.0845 Y-0.1813 Z0.0 E0.01
G1 X0.0813 Y-0.1827 Z0.0 E0.01
G1 X0.0781 Y-0.1841 Z0.0 E0.01
G1 X0.0749 Y-0.1854 Z0.0 E0.01
G1 X0.0717 Y-0.1867 Z0.0 E0.01
G1 X0.0684 Y-0.1879 Z0.0 E0.01
G1 X0.0651 Y-0.1891 Z0.0 E0.01
G1 X0.0618 Y-0.1902 Z0.0 E0.01
G1 X1.9021 Y0.618 Z0.0 E0.1
G1 X-1.9021 Y-0.618 Z-0.0 E0.1
G1 X0.0585 Y-0.1913 Z0.0 E0.01
G1 X0.0551 Y-0.1923 Z0.0 E0.01
G1 X0.0518 Y-0.1932 Z0.0 E0.01
G1 X0.0484 Y-0.1941 Z0.0 E0.01
G1 X0.045 Y-0.1949 Z0.0 E0.01
G1 X0.0416 Y-0.1956 Z0.0 E0.01
G1 X0.0382 Y-0.1963 Z0.0 E0.01
G1 X0.0347 Y-0.197 Z0.0 E0.01
G1 X0.0313 Y-0.1975 Z0.0 E0.01
G1 X1.9754 Y0.3129 Z0.0 E0.1
G1 X-1.9754 Y-0.3129 Z-0.0 E0.1
G1 X0.0278 Y-0.1981 Z0.0 E0.01
G1 X0.0244 Y-0.1985 Z0.0 E0.01
G1 X0.0209 Y-0.1989 Z0.0 E0.01
G1 X0.0174 Y-0.1992 Z0.0 E0.01
G1 X0.014 Y-0.1995 Z0.0 E0.01
G1 X0.0105 Y-0.1997 Z0.0 E0.01
G1 X0.007 Y-0.1999 Z0.0 E0.01
G1 X0.0035 Y-0.2 Z0.0 E0.01
G1 X0.0 Y-0.2 Z0.0 E0.01
G1 X2.0 Y0.0 Z0.0 E0.1
G1 X-2.0 Y-0.0 Z-0.0 E0.1
G1 X-0.0035 Y-0.2 Z0.0 E0.01
G1 X-0.007 Y-0.1999 Z0.0 E0.01
G1 X-0.0105 Y-0.1997 Z0.0 E0.01
G1 X-0.014 Y-0.1995 Z0.0 E0.01
G1 X-0.0174 Y-0.1992 Z0.0 E0.01
G1 X-0.0209 Y-0.1989 Z0.0 E0.01
G1 X-0.0244 Y-0.1985 Z0.0 E0.01
G1 X-0.0278 Y-0.1981 Z0.0 E0.01
G1 X-0.0313 Y-0.1975 Z0.0 E0.01
G1 X1.9754 Y-0.3129 Z0.0 E0.1
G1 X-1.9754 Y0.3129 Z-0.0 E0.1
G1 X-0.0347 Y-0.197 Z0.0 E0.01
G1 X-0.0382 Y-0.1963 Z0.0 E0.01
G1 X-0.0416 Y-0.1956 Z0.0 E0.01
G1 X-0.045 Y-0.1949 Z0.0 E0.01
G1 X-0.0484 Y-0.1941 Z0.0 E0.01
G1 X-0.0518 Y-0.1932 Z0.0 E0.01
G1 X-0.0551 Y-0.1923 Z0.0 E0.01
G1 X-0.0585 Y-0.1913 Z0.0 E0.01
G1 X-0.0618 Y-0.1902 Z0.0 E0.01
G1 X1.9021 Y-0.618 Z0.0 E0.1
G1 X-1.9021 Y0.618 Z-0.0 E0.1
G1 X-0.0651 Y-0.1891 Z0.0 E0.01
G1 X-0.0684 Y-0.1879 Z0.0 E0.01
G1 X-0.0717 Y-0.1867 Z0.0 E0.01
G1 X-0.0749 Y-0.1854 Z0.0 E0.01
G1 X-0.0781 Y-0.1841 Z0.0 E0.01
G1 X-0.0813 Y-0.1827 Z0.0 E0.01
G1 X-0.0845 Y-0.1813 Z0.0 E0.01
G1 X-0.0877 Y-0.1798 Z0.0 E0.01
G1 X-0.0908 Y-0.1782 Z0.0 E0.01
G1 X1.782 Y-0.908 Z0.0 E0.1
G1 X-1.782 Y0.908 Z-0.0 E0.1
G1 X-0.0939 Y-0.1766 Z0.0 E0.01
G1 X-0.097 Y-0.1749 Z0.0 E0.01
G1 X-0.1 Y-0.1732 Z0.0 E0.01
G1 X-0.103 Y-0.1714 Z0.0 E0.01
G1 X-0.106 Y-0.1696 Z0.0 E0.01
G1 X-0.1089 Y-0.1677 Z0.0 E0.01
G1 X-0.1118 Y-0.1658 Z0.0 E0.01
G1 X-0.1147 Y-0.1638 Z0.0 E0.01
G1 X-0.1176 Y-0.1618 Z0.0 E0.01
G1 X1.618 Y-1.1756 Z0.0 E0.1
G1 X-1.618 Y1.1756 Z-0.0 E0.1
G1 X-0.1204 Y-0.1597 Z0.0 E0.01
G1 X-0.1231 Y-0.1576 Z0.0 E0.01
G1 X-0.1259 Y-0.1554 Z0.0 E0.01
G1 X-0.1286 Y-0.1532 Z0.0 E0.01
G1 X-0.1312 Y-0.1509 Z0.0 E0.01
G1 X-0.1338 Y-0.1486 Z0.0 E0.01
G1 X-0.1364 Y-0.1463 Z0.0 E0.01
G1 X-0.1389 Y-0.1439 Z0.0 E0.01
G1 X-0.1414 Y-0.1414 Z0.0 E0.01
G1 X1.4142 Y-1.4142 Z0.0 E0.1
G1 X-1.4142 Y1.4142 Z-0.0 E0.1
G1 X-0.1439 Y-0.1389 Z0.0 E0.01
G1 X-0.1463 Y-0.1364 Z0.0 E0.01
G1 X-0.1486 Y-0.1338 Z0.0 E0.01
G1 X-0.1509 Y-0.1312 Z0.0 E0.01
G1 X-0.1532 Y-0.1286 Z0.0 E0.01
G1 X-0.1554 Y-0.1259 Z0.0 E0.01
G1 X-0.1576 Y-0.1231 Z0.0 E0.01
G1 X-0.1597 Y-0.1204 Z0.0 E0.01
G1 X-0.1618 Y-0.1176 Z0.0 E0.01
G1 X1.1756 Y-1.618 Z0.0 E0.1
G1 X-1.1756 Y1.618 Z-0.0 E0.1
G1 X-0.1638 Y-0.1147 Z0.0 E0.01
G1 X-0.1658 Y-0.1118 Z0.0 E0.01
G1 X-0.1677 Y-0.1089 Z0.0 E0.01
G1 X-0.1696 Y-0.106 Z0.0 E0.01
G1 X-0.1714 Y-0.103 Z0.0 E0.01
G1 X-0.1732 Y-0.1 Z0.0 E0.01
G1 X-0.1749 Y-0.097 Z0.0 E0.01
G1 X-0.1766 Y-0.0939 Z0.0 E0.01
G1 X-0.1782 Y-0.0908 Z0.0 E0.01
G1 X0.908 Y-1.782 Z0.0 E0.1
G1 X-0.908 Y1.782 Z-0.0 E0.1
G1 X-0.1798 Y-0.0877 Z0.0 E0.01
G1 X-0.1813 Y-0.0845 Z0.0 E0.01
G1 X-0.1827 Y-0.0813 Z0.0 E0.01
G1 X-0.1841 Y-0.0781 Z0.0 E0.01
G1 X-0.1854 Y-0.0749 Z0.0 E0.01
G1 X-0.1867 Y-0.0717 Z0.0 E0.01
G1 X-0.1879 Y-0.0684 Z0.0 E0.01
G1 X-0.1891 Y-0.0651 Z0.0 E0.01
G1 X-0.1902 Y-0.0618 Z0.0 E0.01
G1 X0.618 Y-1.9021 Z0.0 E0.1
G1 X-0.618 Y1.9021 Z-0.0 E0.1
G1 X-0.1913 Y-0.0585 Z0.0 E0.01
G1 X-0.1923 Y-0.0551 Z0.0 E0.01
G1 X-0.1932 Y-0.0518 Z0.0 E0.01
G1 X-0.1941 Y-0.0484 Z0.0 E0.01
G1 X-0.1949 Y-0.045 Z0.0 E0.01
G1 X-0.1956 Y-0.0416 Z0.0 E0.01
G1 X-0.1963 Y-0.0382 Z0.0 E0.01
G1 X-0.197 Y-0.0347 Z0.0 E0.01
G1 X-0.1975 Y-0.0313 Z0.0 E0.01
G1 X0.3129 Y-1.9754 Z0.0 E0.1
G1 X-0.3129 Y1.9754 Z-0.0 E0.1
G1 X-0.1981 Y-0.0278 Z0.0 E0.01
G1 X-0.1985 Y-0.0244 Z0.0 E0.01
G1 X-0.1989 Y-0.0209 Z0.0 E0.01
G1 X-0.1992 Y-0.0174 Z0.0 E0.01
G1 X-0.1995 Y-0.014 Z0.0 E0.01
G1 X-0.1997 Y-0.0105 Z0.0 E0.01
G1 X-0.1999 Y-0.007 Z0.0 E0.01
G1 X-0.2 Y-0.0035 Z0.0 E0.01
G1 X-0.0 Y0.2 Z0.0 E0.01
G1 X-0.0035 Y0.2 Z0.0 E0.01
G1 X-0.007 Y0.1999 Z0.0 E0.01
G1 X-0.0105 Y0.1997 Z0.0 E0.01
G1 X-0.014 Y0.1995 Z0.0 E0.01
G1 X-0.0174 Y0.1992 Z0.0 E0.01
G1 X-0.0209 Y0.1989 Z0.0 E0.01
G1 X-0.0244 Y0.1985 Z0.0 E0.01
G1 X-0.0278 Y0.1981 Z0.0 E0.01
G1 X-0.0313 Y0.1975 Z0.0 E0.01
G1 X-0.0347 Y0.197 Z0.0 E0.01
G1 X-0.0382 Y0.1963 Z0.0 E0.01
G1 X-0.0416 Y0.1956 Z0.0 E0.01
G1 X-0.045 Y0.1949 Z0.0 E0.01
G1 X-0.0484 Y0.1941 Z0.0 E0.01
G1 X-0.0518 Y0.1932 Z0.0 E0.01
G1 X-0.0551 Y0.1923 Z0.0 E0.01
G1 X-0.0585 Y0.1913 Z0.0 E0.01
G1 X-0.0618 Y0.1902 Z0.0 E0.01
G1 X-0.0651 Y0.1891 Z0.0 E0.01
G1 X-0.0684 Y0.1879 Z0.0 E0.01
G1 X-0.0717 Y0.1867 Z0.0 E0.01
G1 X-0.0749 Y0.1854 Z0.0 E0.01
G1 X-0.0781 Y0.1841 Z0.0 E0.01
G1 X-0.0813 Y0.1827 Z0.0 E0.01
G1 X-0.0845 Y0.1813 Z0.0 E0.01
G1 X-0.0877 Y0.1798 Z0.0 E0.01
G1 X-0.0908 Y0.1782 Z0.0 E0.01
G1 X-0.0939 Y0.1766 Z0.0 E0.01
G1 X-0.097 Y0.1749 Z0.0 E0.01
G1 X-0.1 Y0.1732 Z0.0 E0.01
G1 X-0.103 Y0.1714 Z0.0 E0.01
G1 X-0.106 Y0.1696 Z0.0 E0.01
G1 X-0.1089 Y0.1677 Z0.0 E0.01
G1 X-0.1118 Y0.1658 Z0.0 E0.01
G1 X-0.1147 Y0.1638 Z0.0 E0.01
G1 X-0.1176 Y0.1618 Z0.0 E0.01
G1 X-0.1204 Y0.1597 Z0.0 E0.01
G1 X-0.1231 Y0.1576 Z0.0 E0.01
G1 X-0.1259 Y0.1554 Z0.0 E0.01
G1 X-0.1286 Y0.1532 Z0.0 E0.01
G1 X-0.1312 Y0.1509 Z0.0 E0.01
G1 X-0.1338 Y0.1486 Z0.0 E0.01
G1 X-0.1364 Y0.1463 Z0.0 E0.01
G1 X-0.1389 Y0.1439 Z0.0 E0.01
G1 X-0.1414 Y0.1414 Z0.0 E0.01
G1 X-0.1439 Y0.1389 Z0.0 E0.01
G1 X-0.1463 Y0.1364 Z0.0 E0.01
G1 X-0.1486 Y0.1338 Z0.0 E0.01
G1 X-0.1509 Y0.1312 Z0.0 E0.01
G1 X-0.1532 Y0.1286 Z0.0 E0.01
G1 X-0.1554 Y0.1259 Z0.0 E0.01
G1 X-0.1576 Y0.1231 Z0.0 E0.01
G1 X-0.1597 Y0.1204 Z0.0 E0.01
G1 X-0.1618 Y0.1176 Z0.0 E0.01
G1 X-0.1638 Y0.1147 Z0.0 E0.01
G1 X-0.1658 Y0.1118 Z0.0 E0.01
G1 X-0.1677 Y0.1089 Z0.0 E0.01
G1 X-0.1696 Y0.106 Z0.0 E0.01
G1 X-0.1714 Y0.103 Z0.0 E0.01
G1 X-0.1732 Y0.1 Z0.0 E0.01
G1 X-0.1749 Y0.097 Z0.0 E0.01
G1 X-0.1766 Y0.0939 Z0.0 E0.01
G1 X-0.1782 Y0.0908 Z0.0 E0.01
G1 X-0.1798 Y0.0877 Z0.0 E0.01
G1 X-0.1813 Y0.0845 Z0.0 E0.01
G1 X-0.1827 Y0.0813 Z0.0 E0.01
G1 X-0.1841 Y0.0781 Z0.0 E0.01
G1 X-0.1854 Y0.0749 Z0.0 E0.01
G1 X-0.1867 Y0.0717 Z0.0 E0.01
G1 X-0.1879 Y0.0684 Z0.0 E0.01
G1 X-0.1891 Y0.0651 Z0.0 E0.01
G1 X-0.1902 Y0.0618 Z0.0 E0.01
G1 X-0.1913 Y0.0585 Z0.0 E0.01
G1 X-0.1923 Y0.0551 Z0.0 E0.01
G1 X-0.1932 Y0.0518 Z0.0 E0.01
G1 X-0.1941 Y0.0484 Z0.0 E0.01
G1 X-0.1949 Y0.045 Z0.0 E0.01
G1 X-0.1956 Y0.0416 Z0.0 E0.01
G1 X-0.1963 Y0.0382 Z0.0 E0.01
G1 X-0.197 Y0.0347 Z0.0 E0.01
G1 X-0.1975 Y0.0313 Z0.0 E0.01
G1 X-0.1981 Y0.0278 Z0.0 E0.01
G1 X-0.1985 Y0.0244 Z0.0 E0.01
G1 X-0.1989 Y0.0209 Z0.0 E0.01
G1 X-0.1992 Y0.0174 Z0.0 E0.01
G1 X-0.1995 Y0.014 Z0.0 E0.01
G1 X-0.1997 Y0.0105 Z0.0 E0.01
G1 X-0.1999 Y0.007 Z0.0 E0.01
G1 X-0.2 Y0.0035 Z0.0 E0.01
G1 X-0.2 Y-0.0 Z0.0 E0.01
G1 X-0.2 Y-0.0035 Z0.0 E0.01
G1 X-0.1999 Y-0.007 Z0.0 E0.01
G1 X-0.1997 Y-0.0105 Z0.0 E0.01
G1 X-0.1995 Y-0.014 Z0.0 E0.01
G1 X-0.1992 Y-0.0174 Z0.0 E0.01
G1 X-0.1989 Y-0.0209 Z0.0 E0.01
G1 X-0.1985 Y-0.0244 Z0.0 E0.01
G1 X-0.1981 Y-0.0278 Z0.0 E0.01
G1 X-0.1975 Y-0.0313 Z0.0 E0.01
G1 X-0.197 Y-0.0347 Z0.0 E0.01
G1 X-0.1963 Y-0.0382 Z0.0 E0.01
G1 X-0.1956 Y-0.0416 Z0.0 E0.01
G1 X-0.1949 Y-0.045 Z0.0 E0.01
G1 X-0.1941 Y-0.0484 Z0.0 E0.01
G1 X-0.1932 Y-0.0518 Z0.0 E0.01
G1 X-0.1923 Y-0.0551 Z0.0 E0.01
G1 X-0.1913 Y-0.0585 Z0.0 E0.01
G1 X-0.1902 Y-0.0618 Z0.0 E0.01
G1 X-0.1891 Y-0.0651 Z0.0 E0.01
G1 X-0.1879 Y-0.0684 Z0.0 E0.01
G1 X-0.1867 Y-0.0717 Z0.0 E0.01
G1 X-0.1854 Y-0.0749 Z0.0 E0.01
G1 X-0.1841 Y-0.0781 Z0.0 E0.01
G1 X-0.1827 Y-0.0813 Z0.0 E0.01
G1 X-0.1813 Y-0.0845 Z0.0 E0.01
G1 X-0.1798 Y-0.0877 Z0.0 E0.01
G1 X-0.1782 Y-0.0908 Z0.0 E0.01
G1 X-0.1766 Y-0.0939 Z0.0 E0.01
G1 X-0.1749 Y-0.097 Z0.0 E0.01
G1 X-0.1732 Y-0.1 Z0.0 E0.01
G1 X-0.1714 Y-0.103 Z0.0 E0.01
G1 X-0.1696 Y-0.106 Z0.0 E0.01
G1 X-0.1677 Y-0.1089 Z0.0 E0.01
G1 X-0.1658 Y-0.1118 Z0.0 E0.01
G1 X-0.1638 Y-0.1147 Z0.0 E0.01
G1 X-0.1618 Y-0.1176 Z0.0 E0.01
G1 X-0.1597 Y-0.1204 Z0.0 E0.01
G1 X-0.1576 Y-0.1231 Z0.0 E0.01
G1 X-0.1554 Y-0.1259 Z0.0 E0.01
G1 X-0.1532 Y-0.1286 Z0.0 E0.01
G1 X-0.1509 Y-0.1312 Z0.0 E0.01
G1 X-0.1486 Y-0.1338 Z0.0 E0.01
G1 X-0.1463 Y-0.1364 Z0.0 E0.01
G1 X-0.1439 Y-0.1389 Z0.0 E0.01
G1 X-0.1414 Y-0.1414 Z0.0 E0.01
G1 X-0.1389 Y-0.1439 Z0.0 E0.01
G1 X-0.1364 Y-0.1463 Z0.0 E0.01
G1 X-0.1338 Y-0.1486 Z0.0 E0.01
G1 X-0.1312 Y-0.1509 Z0.0 E0.01
G1 X-0.1286 Y-0.1532 Z0.0 E0.01
G1 X-0.1259 Y-0.1554 Z0.0 E0.01
G1 X-0.1231 Y-0.1576 Z0.0 E0.01
G1 X-0.1204 Y-0.1597 Z0.0 E0.01
G1 X-0.1176 Y-0.1618 Z0.0 E0.01
G1 X-0.1147 Y-0.1638 Z0.0 E0.01
G1 X-0.1118 Y-0.1658 Z0.0 E0.01
G1 X-0.1089 Y-0.1677 Z0.0 E0.01
G1 X-0.106 Y-0.1696 Z0.0 E0.01
G1 X-0.103 Y-0.1714 Z0.0 E0.01
G1 X-0.1 Y-0.1732 Z0.0 E0.01
G1 X-0.097 Y-0.1749 Z0.0 E0.01
G1 X-0.0939 Y-0.1766 Z0.0 E0.01
G1 X-0.0908 Y-0.1782 Z0.0 E0.01
G1 X-0.0877 Y-0.1798 Z0.0 E0.01
G1 X-0.0845 Y-0.1813 Z0.0 E0.01
G1 X-0.0813 Y-0.1827 Z0.0 E0.01
G1 X-0.0781 Y-0.1841 Z0.0 E0.01
G1 X-0.0749 Y-0.1854 Z0.0 E0.01
G1 X-0.0717 Y-0.1867 Z0.0 E0.01
G1 X-0.0684 Y-0.1879 Z0.0 E0.01
G1 X-0.0651 Y-0.1891 Z0.0 E0.01
G1 X-0.0618 Y-0.1902 Z0.0 E0.01
G1 X-0.0585 Y-0.1913 Z0.0 E0.01
G1 X-0.0551 Y-0.1923 Z0.0 E0.01
G1 X-0.0518 Y-0.1932 Z0.0 E0.01
G1 X-0.0484 Y-0.1941 Z0.0 E0.01
G1 X-0.045 Y-0.1949 Z0.0 E0.01
G1 X-0.0416 Y-0.1956 Z0.0 E0.01
G1 X-0.0382 Y-0.1963 Z0.0 E0.01
G1 X-0.0347 Y-0.197 Z0.0 E0.01
G1 X-0.0313 Y-0.1975 Z0.0 E0.01
G1 X-0.0278 Y-0.1981 Z0.0 E0.01
G1 X-0.0244 Y-0.1985 Z0.0 E0.01
G1 X-0.0209 Y-0.1989 Z0.0 E0.01
G1 X-0.0174 Y-0.1992 Z0.0 E0.01
G1 X-0.014 Y-0.1995 Z0.0 E0.01
G1 X-0.0105 Y-0.1997 Z0.0 E0.01
G1 X-0.007 Y-0.1999 Z0.0 E0.01
G1 X-0.0035 Y-0.2 Z0.0 E0.01
G1 X-0.0 Y-0.2 Z0.0 E0.01
G1 X2.0 Y-0.0 Z0.0 E0.1
G1 X-2.0 Y0.0 Z-0.0 E0.1
G1 X-0.0035 Y-0.2 Z0.0 E0.01
G1 X-0.007 Y-0.1999 Z0.0 E0.01
G1 X-0.0105 Y-0.1997 Z0.0 E0.01
G1 X-0.014 Y-0.1995 Z0.0 E0.01
G1 X-0.0174 Y-0.1992 Z0.0 E0.01
G1 X-0.0209 Y-0.1989 Z0.0 E0.01
G1 X1.989 Y-0.2091 Z0.0 E0.1
G1 X-1.989 Y0.2091 Z-0.0 E0.1
G1 X-0.0244 Y-0.1985 Z0.0 E0.01
G1 X-0.0278 Y-0.1981 Z0.0 E0.01
G1 X-0.0313 Y-0.1975 Z0.0 E0.01
G1 X-0.0347 Y-0.197 Z0.0 E0.01
G1 X-0.0382 Y-0.1963 Z0.0 E0.01
G1 X-0.0416 Y-0.1956 Z0.0 E0.01
G1 X1.9563 Y-0.4158 Z0.0 E0.1
G1 X-1.9563 Y0.4158 Z-0.0 E0.1
G1 X-0.045 Y-0.1949 Z0.0 E0.01
G1 X-0.0484 Y-0.1941 Z0.0 E0.01
G1 X-0.0518 Y-0.1932 Z0.0 E0.01
G1 X-0.0551 Y-0.1923 Z0.0 E0.01
G1 X-0.0585 Y-0.1913 Z0.0 E0.01
G1 X-0.0618 Y-0.1902 Z0.0 E0.01
G1 X1.9021 Y-0.618 Z0.0 E0.1
G1 X-1.9021 Y0.618 Z-0.0 E0.1
G1 X-0.0651 Y-0.1891 Z0.0 E0.01
G1 X-0.0684 Y-0.1879 Z0.0 E0.01
G1 X-0.0717 Y-0.1867 Z0.0 E0.01
G1 X-0.0749 Y-0.1854 Z0.0 E0.01
G1 X-0.0781 Y-0.1841 Z0.0 E0.01
G1 X-0.0813 Y-0.1827 Z0.0 E0.01
G1 X1.8271 Y-0.8135 Z0.0 E0.1
G1 X-1.8271 Y0.8135 Z-0.0 E0.1
G1 X-0.0845 Y-0.1813 Z0.0 E0.01
G1 X-0.0877 Y-0.1798 Z0.0 E0.01
G1 X-0.0908 Y-0.1782 Z0.0 E0.01
G1 X-0.0939 Y-0.1766 Z0.0 E0.01
G1 X-0.097 Y-0.1749 Z0.0 E0.01
G1 X-0.1 Y-0.1732 Z0.0 E0.01
G1 X1.7321 Y-1.0 Z0.0 E0.1
G1 X-1.7321 Y1.0 Z-0.0 E0.1
G1 X-0.103 Y-0.1714 Z0.0 E0.01
G1 X-0.106 Y-0.1696 Z0.0 E0.01
G1 X-0.1089 Y-0.1677 Z0.0 E0.01
G1 X-0.1118 Y-0.1658 Z0.0 E0.01
G1 X-0.1147 Y-0.1638 Z0.0 E0.01
G1 X-0.1176 Y-0.1618 Z0.0 E0.01
G1 X1.618 Y-1.1756 Z0.0 E0.1
G1 X-1.618 Y1.1756 Z-0.0 E0.1
G1 X-0.1204 Y-0.1597 Z0.0 E0.01
G1 X-0.1231 Y-0.1576 Z0.0 E0.01
G1 X-0.1259 Y-0.1554 Z0.0 E0.01
G1 X-0.1286 Y-0.1532 Z0.0 E0.01
G1 X-0.1312 Y-0.1509 Z0.0 E0.01
G1 X-0.1338 Y-0.1486 Z0.0 E0.01
G1 X1.4863 Y-1.3383 Z0.0 E0.1
G1 X-1.4863 Y1.3383 Z-0.0 E0.1
G1 X-0.1364 Y-0.1463 Z0.0 E0.01
G1 X-0.1389 Y-0.1439 Z0.0 E0.01
G1 X-0.1414 Y-0.1414 Z0.0 E0.01
G1 X-0.1439 Y-0.1389 Z0.0 E0.01
G1 X-0.1463 Y-0.1364 Z0.0 E0.01
G1 X-0.1486 Y-0.1338 Z0.0 E0.01
G1 X1.3383 Y-1.4863 Z0.0 E0.1
G1 X-1.3383 Y1.4863 Z-0.0 E0.1
G1 X-0.1509 Y-0.1312 Z0.0 E0.01
G1 X-0.1532 Y-0.1286 Z0.0 E0.01
G1 X-0.1554 Y-0.1259 Z0.0 E0.01
G1 X-0.1576 Y-0.1231 Z0.0 E0.01
G1 X-0.1597 Y-0.1204 Z0.0 E0.01
G1 X-0.1618 Y-0.1176 Z0.0 E0.01
G1 X1.1756 Y-1.618 Z0.0 E0.1
G1 X-1.1756 Y1.618 Z-0.0 E0.1
G1 X-0.1638 Y-0.1147 Z0.0 E0.01
G1 X-0.1658 Y-0.1118 Z0.0 E0.01
G1 X-0.1677 Y-0.1089 Z0.0 E0.01
G1 X-0.1696 Y-0.106 Z0.0 E0.01
G1 X-0.1714 Y-0.103 Z0.0 E0.01
G1 X-0.1732 Y-0.1 Z0.0 E0.01
G1 X1.0 Y-1.7321 Z0.0 E0.1
G1 X-1.0 Y1.7321 Z-0.0 E0.1
G1 X-0.1749 Y-0.097 Z0.0 E0.01
G1 X-0.1766 Y-0.0939 Z0.0 E0.01
G1 X-0.1782 Y-0.0908 Z0.0 E0.01
G1 X-0.1798 Y-0.0877 Z0.0 E0.01
G1 X-0.1813 Y-0.0845 Z0.0 E0.01
G1 X-0.1827 Y-0.0813 Z0.0 E0.01
G1 X0.8135 Y-1.8271 Z0.0 E0.1
G1 X-0.8135 Y1.8271 Z-0.0 E0.1
G1 X-0.1841 Y-0.0781 Z0.0 E0.01
G1 X-0.1854 Y-0.0749 Z0.0 E0.01
G1 X-0.1867 Y-0.0717 Z0.0 E0.01
G1 X-0.1879 Y-0.0684 Z0.0 E0.01
G1 X-0.1891 Y-0.0651 Z0.0 E0.01
G1 X-0.1902 Y-0.0618 Z0.0 E0.01
G1 X0.618 Y-1.9021 Z0.0 E0.1
G1 X-0.618 Y1.9021 Z-0.0 E0.1
G1 X-0.1913 Y-0.0585 Z0.0 E0.01
G1 X-0.1923 Y-0.0551 Z0.0 E0.01
G1 X-0.1932 Y-0.0518 Z0.0 E0.01
G1 X-0.1941 Y-0.0484 Z0.0 E0.01
G1 X-0.1949 Y-0.045 Z0.0 E0.01
G1 X-0.1956 Y-0.0416 Z0.0 E0.01
G1 X0.4158 Y-1.9563 Z0.0 E0.1
G1 X-0.4158 Y1.9563 Z-0.0 E0.1
G1 X-0.1963 Y-0.0382 Z0.0 E0.01
G1 X-0.197 Y-0.0347 Z0.0 E0.01
G1 X-0.1975 Y-0.0313 Z0.0 E0.01
G1 X-0.1981 Y-0.0278 Z0.0 E0.01
G1 X-0.1985 Y-0.0244 Z0.0 E0.01
G1 X-0.1989 Y-0.0209 Z0.0 E0.01
G1 X0.2091 Y-1.989 Z0.0 E0.1
G1 X-0.2091 Y1.989 Z-0.0 E0.1
G1 X-0.1992 Y-0.0174 Z0.0 E0.01
G1 X-0.1995 Y-0.014 Z0.0 E0.01
G1 X-0.1997 Y-0.0105 Z0.0 E0.01
G1 X-0.1999 Y-0.007 Z0.0 E0.01
G1 X-0.2 Y-0.0035 Z0.0 E0.01
G1 X-0.2 Y-0.0 Z0.0 E0.01
G1 X0.0 Y-2.0 Z0.0 E0.1
G1 X-0.0 Y2.0 Z-0.0 E0.1
G1 X-0.2 Y0.0035 Z0.0 E0.01
G1 X-0.1999 Y0.007 Z0.0 E0.01
G1 X-0.1997 Y0.0105 Z0.0 E0.01
G1 X-0.1995 Y0.014 Z0.0 E0.01
G1 X-0.1992 Y0.0174 Z0.0 E0.01
G1 X-0.1989 Y0.0209 Z0.0 E0.01
G1 X-0.2091 Y-1.989 Z0.0 E0.1
G1 X0.2091 Y1.989 Z-0.0 E0.1
G1 X-0.1985 Y0.0244 Z0.0 E0.01
G1 X-0.1981 Y0.0278 Z0.0 E0.01
G1 X-0.1975 Y0.0313 Z0.0 E0.01
G1 X-0.197 Y0.0347 Z0.0 E0.01
G1 X-0.1963 Y0.0382 Z0.0 E0.01
G1 X-0.1956 Y0.0416 Z0.0 E0.01
G1 X-0.4158 Y-1.9563 Z0.0 E0.1
G1 X0.4158 Y1.9563 Z-0.0 E0.1
G1 X-0.1949 Y0.045 Z0.0 E0.01
G1 X-0.1941 Y0.0484 Z0.0 E0.01
G1 X-0.1932 Y0.0518 Z0.0 E0.01
G1 X-0.1923 Y0.0551 Z0.0 E0.01
G1 X-0.1913 Y0.0585 Z0.0 E0.01
G1 X-0.1902 Y0.0618 Z0.0 E0.01
G1 X-0.618 Y-1.9021 Z0.0 E0.1
G1 X0.618 Y1.9021 Z-0.0 E0.1
G1 X-0.1891 Y0.0651 Z0.0 E0.01
G1 X-0.1879 Y0.0684 Z0.0 E0.01
G1 X-0.1867 Y0.0717 Z0.0 E0.01
G1 X-0.1854 Y0.0749 Z0.0 E0.01
G1 X-0.1841 Y0.0781 Z0.0 E0.01
G1 X-0.1827 Y0.0813 Z0.0 E0.01
G1 X-0.8135 Y-1.8271 Z0.0 E0.1
G1 X0.8135 Y1.8271 Z-0.0 E0.1
G1 X-0.1813 Y0.0845 Z0.0 E0.01
G1 X-0.1798 Y0.0877 Z0.0 E0.01
G1 X-0.1782 Y0.0908 Z0.0 E0.01
G1 X-0.1766 Y0.0939 Z0.0 E0.01
G1 X-0.1749 Y0.097 Z0.0 E0.01
G1 X-0.1732 Y0.1 Z0.0 E0.01
G1 X-1.0 Y-1.7321 Z0.0 E0.1
G1 X1.0 Y1.7321 Z-0.0 E0.1
G1 X-0.1714 Y0.103 Z0.0 E0.01
G1 X-0.1696 Y0.106 Z0.0 E0.01
G1 X-0.1677 Y0.1089 Z0.0 E0.01
G1 X-0.1658 Y0.1118 Z0.0 E0.01
G1 X-0.1638 Y0.1147 Z0.0 E0.01
G1 X-0.1618 Y0.1176 Z0.0 E0.01
G1 X-1.1756 Y-1.618 Z0.0 E0.1
G1 X1.1756 Y1.618 Z-0.0 E0.1
G1 X-0.1597 Y0.1204 Z0.0 E0.01
G1 X-0.1576 Y0.1231 Z0.0 E0.01
G1 X-0.1554 Y0.1259 Z0.0 E0.01
G1 X-0.1532 Y0.1286 Z0.0 E0.01
G1 X-0.1509 Y0.1312 Z0.0 E0.01
G1 X-0.1486 Y0.1338 Z0.0 E0.01
G1 X-1.3383 Y-1.4863 Z0.0 E0.1
G1 X1.3383 Y1.4863 Z-0.0 E0.1
G1 X-0.1463 Y0.1364 Z0.0 E0.01
G1 X-0.1439 Y0.1389 Z0.0 E0.01
G1 X-0.1414 Y0.1414 Z0.0 E0.01
G1 X-0.1389 Y0.1439 Z0.0 E0.01
G1 X-0.1364 Y0.1463 Z0.0 E0.01
G1 X-0.1338 Y0.1486 Z0.0 E0.01
G1 X-1.4863 Y-1.3383 Z0.0 E0.1
G1 X1.4863 Y1.3383 Z-0.0 E0.1
G1 X-0.1312 Y0.1509 Z0.0 E0.01
G1 X-0.1286 Y0.1532 Z0.0 E0.01
G1 X-0.1259 Y0.1554 Z0.0 E0.01
G1 X-0.1231 Y0.1576 Z0.0 E0.01
G1 X-0.1204 Y0.1597 Z0.0 E0.01
G1 X-0.1176 Y0.1618 Z0.0 E0.01
G1 X-1.618 Y-1.1756 Z0.0 E0.1
G1 X1.618 Y1.1756 Z-0.0 E0.1
G1 X-0.1147 Y0.1638 Z0.0 E0.01
G1 X-0.1118 Y0.1658 Z0.0 E0.01
G1 X-0.1089 Y0.1677 Z0.0 E0.01
G1 X-0.106 Y0.1696 Z0.0 E0.01
G1 X-0.103 Y0.1714 Z0.0 E0.01
G1 X-0.1 Y0.1732 Z0.0 E0.01
G1 X-1.7321 Y-1.0 Z0.0 E0.1
G1 X1.7321 Y1.0 Z-0.0 E0.1
G1 X-0.097 Y0.1749 Z0.0 E0.01
G1 X-0.0939 Y0.1766 Z0.0 E0.01
G1 X-0.0908 Y0.1782 Z0.0 E0.01
G1 X-0.0877 Y0.1798 Z0.0 E0.01
G1 X-0.0845 Y0.1813 Z0.0 E0.01
G1 X-0.0813 Y0.1827 Z0.0 E0.01
G1 X-1.8271 Y-0.8135 Z0.0 E0.1
G1 X1.8271 Y0.8135 Z-0.0 E0.1
G1 X-0.0781 Y0.1841 Z0.0 E0.01
G1 X-0.0749 Y0.1854 Z0.0 E0.01
G1 X-0.0717 Y0.1867 Z0.0 E0.01
G1 X-0.0684 Y0.1879 Z0.0 E0.01
G1 X-0.0651 Y0.1891 Z0.0 E0.01
G1 X-0.0618 Y0.1902 Z0.0 E0.01
G1 X-1.9021 Y-0.618 Z0.0 E0.1
G1 X1.9021 Y0.618 Z-0.0 E0.1
G1 X-0.0585 Y0.1913 Z0.0 E0.01
G1 X-0.0551 Y0.1923 Z0.0 E0.01
G1 X-0.0518 Y0.1932 Z0.0 E0.01
G1 X-0.0484 Y0.1941 Z0.0 E0.01
G1 X-0.045 Y0.1949 Z0.0 E0.01
G1 X-0.0416 Y0.1956 Z0.0 E0.01
G1 X-1.9563 Y-0.4158 Z0.0 E0.1
G1 X1.9563 Y0.4158 Z-0.0 E0.1
G1 X-0.0382 Y0.1963 Z0.0 E0.01
G1 X-0.0347 Y0.197 Z0.0 E0.01
G1 X-0.0313 Y0.1975 Z0.0 E0.01
G1 X-0.0278 Y0.1981 Z0.0 E0.01
G1 X-0.0244 Y0.1985 Z0.0 E0.01
G1 X-0.0209 Y0.1989 Z0.0 E0.01
G1 X-1.989 Y-0.2091 Z0.0 E0.1
G1 X1.989 Y0.2091 Z-0.0 E0.1
G1 X-0.0174 Y0.1992 Z0.0 E0.01
G1 X-0.014 Y0.1995 Z0.0 E0.01
G1 X-0.0105 Y0.1997 Z0.0 E0.01
G1 X-0.007 Y0.1999 Z0.0 E0.01
G1 X-0.0035 Y0.2 Z0.0 E0.01
G1 X0.2 Y0.0 Z0.0 E0.01
G1 X0.2 Y0.0035 Z0.0 E0.01
G1 X0.1999 Y0.007 Z0.0 E0.01
G1 X0.1997 Y0.0105 Z0.0 E0.01
G1 X0.1995 Y0.014 Z0.0 E0.01
G1 X0.1992 Y0.0174 Z0.0 E0.01
G1 X0.1989 Y0.0209 Z0.0 E0.01
G1 X0.1985 Y0.0244 Z0.0 E0.01
G1 X0.1981 Y0.0278 Z0.0 E0.01
G1 X0.1975 Y0.0313 Z0.0 E0.01
G1 X0.197 Y0.0347 Z0.0 E0.01
G1 X0.1963 Y0.0382 Z0.0 E0.01
G1 X0.1956 Y0.0416 Z0.0 E0.01
G1 X0.1949 Y0.045 Z0.0 E0.01
G1 X0.1941 Y0.0484 Z0.0 E0.01
G1 X0.1932 Y0.0518 Z0.0 E0.01
G1 X0.1923 Y0.0551 Z0.0 E0.01
G1 X0.1913 Y0.0585 Z0.0 E0.01
G1 X0.1902 Y0.0618 Z0.0 E0.01
G1 X0.1891 Y0.0651 Z0.0 E0.01
G1 X0.1879 Y0.0684 Z0.0 E0.01
G1 X0.1867 Y0.0717 Z0.0 E0.01
G1 X0.1854 Y0.0749 Z0.0 E0.01
G1 X0.1841 Y0.0781 Z0.0 E0.01
G1 X0.1827 Y0.0813 Z0.0 E0.01
G1 X0.1813 Y0.0845 Z0.0 E0.01
G1 X0.1798 Y0.0877 Z0.0 E0.01
G1 X0.1782 Y0.0908 Z0.0 E0.01
G1 X0.1766 Y0.0939 Z0.0 E0.01
G1 X0.1749 Y0.097 Z0.0 E0.01
G1 X0.1732 Y0.1 Z0.0 E0.01
G1 X0.1714 Y0.103 Z0.0 E0.01
G1 X0.1696 Y0.106 Z0.0 E0.01
G1 X0.1677 Y0.1089 Z0.0 E0.01
G1 X0.1658 Y0.1118 Z0.0 E0.01
G1 X0.1638 Y0.1147 Z0.0 E0.01
G1 X0.1618 Y0.1176 Z0.0 E0.01
G1 X0.1597 Y0.1204 Z0.0 E0.01
G1 X0.1576 Y0.1231 Z0.0 E0.01
G1 X0.1554 Y0.1259 Z0.0 E0.01
G1 X0.1532 Y0.1286 Z0.0 E0.01
G1 X0.1509 Y0.1312 Z0.0 E0.01
G1 X0.1486 Y0.1338 Z0.0 E0.01
G1 X0.1463 Y0.1364 Z0.0 E0.01
G1 X0.1439 Y0.1389 Z0.0 E0.01
G1 X0.1414 Y0.1414 Z0.0 E0.01
G1 X0.1389 Y0.1439 Z0.0 E0.01
G1 X0.1364 Y0.1463 Z0.0 E0.01
G1 X0.1338 Y0.1486 Z0.0 E0.01
G1 X0.1312 Y0.1509 Z0.0 E0.01
G1 X0.1286 Y0.1532 Z0.0 E0.01
G1 X0.1259 Y0.1554 Z0.0 E0.01
G1 X0.1231 Y0.1576 Z0.0 E0.01
G1 X0.1204 Y0.1597 Z0.0 E0.01
G1 X0.1176 Y0.1618 Z0.0 E0.01
G1 X0.1147 Y0.1638 Z0.0 E0.01
G1 X0.1118 Y0.1658 Z0.0 E0.01
G1 X0.1089 Y0.1677 Z0.0 E0.01
G1 X0.106 Y0.1696 Z0.0 E0.01
G1 X0.103 Y0.1714 Z0.0 E0.01
G1 X0.1 Y0.1732 Z0.0 E0.01
G1 X0.097 Y0.1749 Z0.0 E0.01
G1 X0.0939 Y0.1766 Z0.0 E0.01
G1 X0.0908 Y0.1782 Z0.0 E0.01
G1 X0.0877 Y0.1798 Z0.0 E0.01
G1 X0.0845 Y0.1813 Z0.0 E0.01
G1 X0.0813 Y0.1827 Z0.0 E0.01
G1 X0.0781 Y0.1841 Z0.0 E0.01
G1 X0.0749 Y0.1854 Z0.0 E0.01
G1 X0.0717 Y0.1867 Z0.0 E0.01
G1 X0.0684 Y0.1879 Z0.0 E0.01
G1 X0.0651 Y0.1891 Z0.0 E0.01
G1 X0.0618 Y0.1902 Z0.0 E0.01
G1 X0.0585 Y0.1913 Z0.0 E0.01
G1 X0.0551 Y0.1923 Z0.0 E0.01
G1 X0.0518 Y0.1932 Z0.0 E0.01
G1 X0.0484 Y0.1941 Z0.0 E0.01
G1 X0.045 Y0.1949 Z0.0 E0.01
G1 X0.0416 Y0.1956 Z0.0 E0.01
G1 X0.0382 Y0.1963 Z0.0 E0.01
G1 X0.0347 Y0.197 Z0.0 E0.01
G1 X0.0313 Y0.1975 Z0.0 E0.01
G1 X0.0278 Y0.1981 Z0.0 E0.01
G1 X0.0244 Y0.1985 Z0.0 E0.01
G1 X0.0209 Y0.1989 Z0.0 E0.01
G1 X0.0174 Y0.1992 Z0.0 E0.01
G1 X0.014 Y0.1995 Z0.0 E0.01
G1 X0.0105 Y0.1997 Z0.0 E0.01
G1 X0.007 Y0.1999 Z0.0 E0.01
G1 X0.0035 Y0.2 Z0.0 E0.01
G1 X-0.0 Y0.2 Z0.0 E0.01
G1 X-0.0035 Y0.2 Z0.0 E0.01
G1 X-0.007 Y0.1999 Z0.0 E0.01
G1 X-0.0105 Y0.1997 Z0.0 E0.01
G1 X-0.014 Y0.1995 Z0.0 E0.01
G1 X-0.0174 Y0.1992 Z0.0 E0.01
G1 X-0.0209 Y0.1989 Z0.0 E0.01
G1 X-0.0244 Y0.1985 Z0.0 E0.01
G1 X-0.0278 Y0.1981 Z0.0 E0.01
G1 X-0.0313 Y0.1975 Z0.0 E0.01
G1 X-0.0347 Y0.197 Z0.0 E0.01
G1 X-0.0382 Y0.1963 Z0.0 E0.01
G1 X-0.0416 Y0.1956 Z0.0 E0.01
G1 X-0.045 Y0.1949 Z0.0 E0.01
G1 X-0.0484 Y0.1941 Z0.0 E0.01
G1 X-0.0518 Y0.1932 Z0.0 E0.01
G1 X-0.0551 Y0.1923 Z0.0 E0.01
G1 X-0.0585 Y0.1913 Z0.0 E0.01
G1 X-0.0618 Y0.1902 Z0.0 E0.01
G1 X-0.0651 Y0.1891 Z0.0 E0.01
G1 X-0.0684 Y0.1879 Z0.0 E0.01
G1 X-0.0717 Y0.1867 Z0.0 E0.01
G1 X-0.0749 Y0.1854 Z0.0 E0.01
G1 X-0.0781 Y0.1841 Z0.0 E0.01
G1 X-0.0813 Y0.1827 Z0.0 E0.01
G1 X-0.0845 Y0.1813 Z0.0 E0.01
G1 X-0.0877 Y0.1798 Z0.0 E0.01
G1 X-0.0908 Y0.1782 Z0.0 E0.01
G1 X-0.0939 Y0.1766 Z0.0 E0.01
G1 X-0.097 Y0.1749 Z0.0 E0.01
G1 X-0.1 Y0.1732 Z0.0 E0.01
G1 X-0.103 Y0.1714 Z0.0 E0.01
G1 X-0.106 Y0.1696 Z0.0 E0.01
G1 X-0.1089 Y0.1677 Z0.0 E0.01
G1 X-0.1118 Y0.1658 Z0.0 E0.01
G1 X-0.1147 Y0.1638 Z0.0 E0.01
G1 X-0.1176 Y0.1618 Z0.0 E0.01
G1 X-0.1204 Y0.1597 Z0.0 E0.01
G1 X-0.1231 Y0.1576 Z0.0 E0.01
G1 X-0.1259 Y0.1554 Z0.0 E0.01
G1 X-0.1286 Y0.1532 Z0.0 E0.01
G1 X-0.1312 Y0.1509 Z0.0 E0.01
G1 X-0.1338 Y0.1486 Z0.0 E0.01
G1 X-0.1364 Y0.1463 Z0.0 E0.01
G1 X-0.1389 Y0.1439 Z0.0 E0.01
G1 X-0.1414 Y0.1414 Z0.0 E0.01
G1 X-0.1439 Y0.1389 Z0.0 E0.01
G1 X-0.1463 Y0.1364 Z0.0 E0.01
G1 X-0.1486 Y0.1338 Z0.0 E0.01
G1 X-0.1509 Y0.1312 Z0.0 E0.01
G1 X-0.1532 Y0.1286 Z0.0 E0.01
G1 X-0.1554 Y0.1259 Z0.0 E0.01
G1 X-0.1576 Y0.1231 Z0.0 E0.01
G1 X-0.1597 Y0.1204 Z0.0 E0.01
G1 X-0.1618 Y0.1176 Z0.0 E0.01
G1 X-0.1638 Y0.1147 Z0.0 E0.01
G1 X-0.1658 Y0.1118 Z0.0 E0.01
G1 X-0.1677 Y0.1089 Z0.0 E0.01
G1 X-0.1696 Y0.106 Z0.0 E0.01
G1 X-0.1714 Y0.103 Z0.0 E0.01
G1 X-0.1732 Y0.1 Z0.0 E0.01
G1 X-0.1749 Y0.097 Z0.0 E0.01
G1 X-0.1766 Y0.0939 Z0.0 E0.01
G1 X-0.1782 Y0.0908 Z0.0 E0.01
G1 X-0.1798 Y0.0877 Z0.0 E0.01
G1 X-0.1813 Y0.0845 Z0.0 E0.01
G1 X-0.1827 Y0.0813 Z0.0 E0.01
G1 X-0.1841 Y0.0781 Z0.0 E0.01
G1 X-0.1854 Y0.0749 Z0.0 E0.01
G1 X-0.1867 Y0.0717 Z0.0 E0.01
G1 X-0.1879 Y0.0684 Z0.0 E0.01
G1 X-0.1891 Y0.0651 Z0.0 E0.01
G1 X-0.1902 Y0.0618 Z0.0 E0.01
G1 X-0.1913 Y0.0585 Z0.0 E0.01
G1 X-0.1923 Y0.0551 Z0.0 E0.01
G1 X-0.1932 Y0.0518 Z0.0 E0.01
G1 X-0.1941 Y0.0484 Z0.0 E0.01
G1 X-0.1949 Y0.045 Z0.0 E0.01
G1 X-0.1956 Y0.0416 Z0.0 E0.01
G1 X-0.1963 Y0.0382 Z0.0 E0.01
G1 X-0.197 Y0.0347 Z0.0 E0.01
G1 X-0.1975 Y0.0313 Z0.0 E0.01
G1 X-0.1981 Y0.0278 Z0.0 E0.01
G1 X-0.1985 Y0.0244 Z0.0 E0.01
G1 X-0.1989 Y0.0209 Z0.0 E0.01
G1 X-0.1992 Y0.0174 Z0.0 E0.01
G1 X-0.1995 Y0.014 Z0.0 E0.01
G1 X-0.1997 Y0.0105 Z0.0 E0.01
G1 X-0.1999 Y0.007 Z0.0 E0.01
G1 X-0.2 Y0.0035 Z0.0 E0.01
G1 X-0.2 Y0.0 Z0.0 E0.01
G1 X-0.0 Y-2.0 Z0.0 E0.1
G1 X0.0 Y2.0 Z-0.0 E0.1
G1 X-0.2 Y0.0035 Z0.0 E0.01
G1 X-0.1999 Y0.007 Z0.0 E0.01
G1 X-0.1997 Y0.0105 Z0.0 E0.01
G1 X-0.1995 Y0.014 Z0.0 E0.01
G1 X-0.1395 Y-1.9951 Z0.0 E0.1
G1 X0.1395 Y1.9951 Z-0.0 E0.1
G1 X-0.1992 Y0.0174 Z0.0 E0.01
G1 X-0.1989 Y0.0209 Z0.0 E0.01
G1 X-0.1985 Y0.0244 Z0.0 E0.01
G1 X-0.1981 Y0.0278 Z0.0 E0.01
G1 X-0.2783 Y-1.9805 Z0.0 E0.1
G1 X0.2783 Y1.9805 Z-0.0 E0.1
G1 X-0.1975 Y0.0313 Z0.0 E0.01
G1 X-0.197 Y0.0347 Z0.0 E0.01
G1 X-0.1963 Y0.0382 Z0.0 E0.01
G1 X-0.1956 Y0.0416 Z0.0 E0.01
G1 X-0.4158 Y-1.9563 Z0.0 E0.1
G1 X0.4158 Y1.9563 Z-0.0 E0.1
G1 X-0.1949 Y0.045 Z0.0 E0.01
G1 X-0.1941 Y0.0484 Z0.0 E0.01
G1 X-0.1932 Y0.0518 Z0.0 E0.01
G1 X-0.1923 Y0.0551 Z0.0 E0.01
G1 X-0.5513 Y-1.9225 Z0.0 E0.1
G1 X0.5513 Y1.9225 Z-0.0 E0.1
G1 X-0.1913 Y0.0585 Z0.0 E0.01
G1 X-0.1902 Y0.0618 Z0.0 E0.01
G1 X-0.1891 Y0.0651 Z0.0 E0.01
G1 X-0.1879 Y0.0684 Z0.0 E0.01
G1 X-0.684 Y-1.8794 Z0.0 E0.1
G1 X0.684 Y1.8794 Z-0.0 E0.1
G1 X-0.1867 Y0.0717 Z0.0 E0.01
G1 X-0.1854 Y0.0749 Z0.0 E0.01
G1 X-0.1841 Y0.0781 Z0.0 E0.01
G1 X-0.1827 Y0.0813 Z0.0 E0.01
G1 X-0.8135 Y-1.8271 Z0.0 E0.1
G1 X0.8135 Y1.8271 Z-0.0 E0.1
G1 X-0.1813 Y0.0845 Z0.0 E0.01
G1 X-0.1798 Y0.0877 Z0.0 E0.01
G1 X-0.1782 Y0.0908 Z0.0 E0.01
G1 X-0.1766 Y0.0939 Z0.0 E0.01
G1 X-0.9389 Y-1.7659 Z0.0 E0.1
G1 X0.9389 Y1.7659 Z-0.0 E0.1
G1 X-0.1749 Y0.097 Z0.0 E0.01
G1 X-0.1732 Y0.1 Z0.0 E0.01
G1 X-0.1714 Y0.103 Z0.0 E0.01
G1 X-0.1696 Y0.106 Z0.0 E0.01
G1 X-1.0598 Y-1.6961 Z0.0 E0.1
G1 X1.0598 Y1.6961 Z-0.0 E0.1
G1 X-0.1677 Y0.1089 Z0.0 E0.01
G1 X-0.1658 Y0.1118 Z0.0 E0.01
G1 X-0.1638 Y0.1147 Z0.0 E0.01
G1 X-0.1618 Y0.1176 Z0.0 E0.01
G1 X-1.1756 Y-1.618 Z0.0 E0.1
G1 X1.1756 Y1.618 Z-0.0 E0.1
G1 X-0.1597 Y0.1204 Z0.0 E0.01
G1 X-0.1576 Y0.1231 Z0.0 E0.01
G1 X-0.1554 Y0.1259 Z0.0 E0.01
G1 X-0.1532 Y0.1286 Z0.0 E0.01
G1 X-1.2856 Y-1.5321 Z0.0 E0.1
G1 X1.2856 Y1.5321 Z-0.0 E0.1
G1 X-0.1509 Y0.1312 Z0.0 E0.01
G1 X-0.1486 Y0.1338 Z0.0 E0.01
G1 X-0.1463 Y0.1364 Z0.0 E0.01
G1 X-0.1439 Y0.1389 Z0.0 E0.01
G1 X-1.3893 Y-1.4387 Z0.0 E0.1
G1 X1.3893 Y1.4387 Z-0.0 E0.1
G1 X-0.1414 Y0.1414 Z0.0 E0.01
G1 X-0.1389 Y0.1439 Z0.0 E0.01
G1 X-0.1364 Y0.1463 Z0.0 E0.01
G1 X-0.1338 Y0.1486 Z0.0 E0.01
G1 X-1.4863 Y-1.3383 Z0.0 E0.1
G1 X1.4863 Y1.3383 Z-0.0 E0.1
G1 X-0.1312 Y0.1509 Z0.0 E0.01
G1 X-0.1286 Y0.1532 Z0.0 E0.01
G1 X-0.1259 Y0.1554 Z0.0 E0.01
G1 X-0.1231 Y0.1576 Z0.0 E0.01
G1 X-1.576 Y-1.2313 Z0.0 E0.1
G1 X1.576 Y1.2313 Z-0.0 E0.1
G1 X-0.1204 Y0.1597 Z0.0 E0.01
G1 X-0.1176 Y0.1618 Z0.0 E0.01
G1 X-0.1147 Y0.1638 Z0.0 E0.01
G1 X-0.1118 Y0.1658 Z0.0 E0.01
G1 X-1.6581 Y-1.1184 Z0.0 E0.1
G1 X1.6581 Y1.1184 Z-0.0 E0.1
G1 X-0.1089 Y0.1677 Z0.0 E0.01
G1 X-0.106 Y0.1696 Z0.0 E0.01
G1 X-0.103 Y0.1714 Z0.0 E0.01
G1 X-0.1 Y0.1732 Z0.0 E0.01
G1 X-1.7321 Y-1.0 Z0.0 E0.1
G1 X1.7321 Y1.0 Z-0.0 E0.1
G1 X-0.097 Y0.1749 Z0.0 E0.01
G1 X-0.0939 Y0.1766 Z0.0 E0.01
G1 X-0.0908 Y0.1782 Z0.0 E0.01
G1 X-0.0877 Y0.1798 Z0.0 E0.01
G1 X-1.7976 Y-0.8767 Z0.0 E0.1
G1 X1.7976 Y0.8767 Z-0.0 E0.1
G1 X-0.0845 Y0.1813 Z0.0 E0.01
G1 X-0.0813 Y0.1827 Z0.0 E0.01
G1 X-0.0781 Y0.1841 Z0.0 E0.01
G1 X-0.0749 Y0.1854 Z0.0 E0.01
G1 X-1.8544 Y-0.7492 Z0.0 E0.1
G1 X1.8544 Y0.7492 Z-0.0 E0.1
G1 X-0.0717 Y0.1867 Z0.0 E0.01
G1 X-0.0684 Y0.1879 Z0.0 E0.01
G1 X-0.0651 Y0.1891 Z0.0 E0.01
G1 X-0.0618 Y0.1902 Z0.0 E0.01
G1 X-1.9021 Y-0.618 Z0.0 E0.1
G1 X1.9021 Y0.618 Z-0.0 E0.1
G1 X-0.0585 Y0.1913 Z0.0 E0.01
G1 X-0.0551 Y0.1923 Z0.0 E0.01
G1 X-0.0518 Y0.1932 Z0.0 E0.01
G1 X-0.0484 Y0.1941 Z0.0 E0.01
G1 X-1.9406 Y-0.4838 Z0.0 E0.1
G1 X1.9406 Y0.4838 Z-0.0 E0.1
G1 X-0.045 Y0.1949 Z0.0 E0.01
G1 X-0.0416 Y0.1956 Z0.0 E0.01
G1 X-0.0382 Y0.1963 Z0.0 E0.01
G1 X-0.0347 Y0.197 Z0.0 E0.01
G1 X-1.9696 Y-0.3473 Z0.0 E0.1
G1 X1.9696 Y0.3473 Z-0.0 E0.1
G1 X-0.0313 Y0.1975 Z0.0 E0.01
G1 X-0.0278 Y0.1981 Z0.0 E0.01
G1 X-0.0244 Y0.1985 Z0.0 E0.01
G1 X-0.0209 Y0.1989 Z0.0 E0.01
G1 X-1.989 Y-0.2091 Z0.0 E0.1
G1 X1.989 Y0.2091 Z-0.0 E0.1
G1 X-0.0174 Y0.1992 Z0.0 E0.01
G1 X-0.014 Y0.1995 Z0.0 E0.01
G1 X-0.0105 Y0.1997 Z0.0 E0.01
G1 X-0.007 Y0.1999 Z0.0 E0.01
G1 X-1.9988 Y-0.0698 Z0.0 E0.1
G1 X1.9988 Y0.0698 Z-0.0 E0.1
G1 X-0.0035 Y0.2 Z0.0 E0.01
G1 X0.0 Y0.2 Z0.0 E0.01
G1 X0.0035 Y0.2 Z0.0 E0.01
G1 X0.007 Y0.1999 Z0.0 E0.01
G1 X-1.9988 Y0.0698 Z0.0 E0.1
G1 X1.9988 Y-0.0698 Z-0.0 E0.1
G1 X0.0105 Y0.1997 Z0.0 E0.01
G1 X0.014 Y0.1995 Z0.0 E0.01
G1 X0.0174 Y0.1992 Z0.0 E0.01
G1 X0.0209 Y0.1989 Z0.0 E0.01
G1 X-1.989 Y0.2091 Z0.0 E0.1
G1 X1.989 Y-0.2091 Z-0.0 E0.1
G1 X0.0244 Y0.1985 Z0.0 E0.01
G1 X0.0278 Y0.1981 Z0.0 E0.01
G1 X0.0313 Y0.1975 Z0.0 E0.01
G1 X0.0347 Y0.197 Z0.0 E0.01
G1 X-1.9696 Y0.3473 Z0.0 E0.1
G1 X1.9696 Y-0.3473 Z-0.0 E0.1
G1 X0.0382 Y0.1963 Z0.0 E0.01
G1 X0.0416 Y0.1956 Z0.0 E0.01
G1 X0.045 Y0.1949 Z0.0 E0.01
G1 X0.0484 Y0.1941 Z0.0 E0.01
G1 X-1.9406 Y0.4838 Z0.0 E0.1
G1 X1.9406 Y-0.4838 Z-0.0 E0.1
G1 X0.0518 Y0.1932 Z0.0 E0.01
G1 X0.0551 Y0.1923 Z0.0 E0.01
G1 X0.0585 Y0.1913 Z0.0 E0.01
G1 X0.0618 Y0.1902 Z0.0 E0.01
G1 X-1.9021 Y0.618 Z0.0 E0.1
G1 X1.9021 Y-0.618 Z-0.0 E0.1
G1 X0.0651 Y0.1891 Z0.0 E0.01
G1 X0.0684 Y0.1879 Z0.0 E0.01
G1 X0.0717 Y0.1867 Z0.0 E0.01
G1 X0.0749 Y0.1854 Z0.0 E0.01
G1 X-1.8544 Y0.7492 Z0.0 E0.1
G1 X1.8544 Y-0.7492 Z-0.0 E0.1
G1 X0.0781 Y0.1841 Z0.0 E0.01
G1 X0.0813 Y0.1827 Z0.0 E0.01
G1 X0.0845 Y0.1813 Z0.0 E0.01
G1 X0.0877 Y0.1798 Z0.0 E0.01
G1 X-1.7976 Y0.8767 Z0.0 E0.1
G1 X1.7976 Y-0.8767 Z-0.0 E0.1
G1 X0.0908 Y0.1782 Z0.0 E0.01
G1 X0.0939 Y0.1766 Z0.0 E0.01
G1 X0.097 Y0.1749 Z0.0 E0.01
G1 X0.1 Y0.1732 Z0.0 E0.01
G1 X-1.7321 Y1.0 Z0.0 E0.1
G1 X1.7321 Y-1.0 Z-0.0 E0.1
G1 X0.103 Y0.1714 Z0.0 E0.01
G1 X0.106 Y0.1696 Z0.0 E0.01
G1 X0.1089 Y0.1677 Z0.0 E0.01
G1 X0.1118 Y0.1658 Z0.0 E0.01
G1 X-1.6581 Y1.1184 Z0.0 E0.1
G1 X1.6581 Y-1.1184 Z-0.0 E0.1
G1 X0.1147 Y0.1638 Z0.0 E0.01
G1 X0.1176 Y0.1618 Z0.0 E0.01
G1 X0.1204 Y0.1597 Z0.0 E0.01
G1 X0.1231 Y0.1576 Z0.0 E0.01
G1 X-1.576 Y1.2313 Z0.0 E0.1
G1 X1.576 Y-1.2313 Z-0.0 E0.1
G1 X0.1259 Y0.1554 Z0.0 E0.01
G1 X0.1286 Y0.1532 Z0.0 E0.01
G1 X0.1312 Y0.1509 Z0.0 E0.01
G1 X0.1338 Y0.1486 Z0.0 E0.01
G1 X-1.4863 Y1.3383 Z0.0 E0.1
G1 X1.4863 Y-1.3383 Z-0.0 E0.1
G1 X0.1364 Y0.1463 Z0.0 E0.01
G1 X0.1389 Y0.1439 Z0.0 E0.01
G1 X0.1414 Y0.1414 Z0.0 E0.01
G1 X0.1439 Y0.1389 Z0.0 E0.01
G1 X-1.3893 Y1.4387 Z0.0 E0.1
G1 X1.3893 Y-1.4387 Z-0.0 E0.1
G1 X0.1463 Y0.1364 Z0.0 E0.01
G1 X0.1486 Y0.1338 Z0.0 E0.01
G1 X0.1509 Y0.1312 Z0.0 E0.01
G1 X0.1532 Y0.1286 Z0.0 E0.01
G1 X-1.2856 Y1.5321 Z0.0 E0.1
G1 X1.2856 Y-1.5321 Z-0.0 E0.1
G1 X0.1554 Y0.1259 Z0.0 E0.01
G1 X0.1576 Y0.1231 Z0.0 E0.01
G1 X0.1597 Y0.1204 Z0.0 E0.01
G1 X0.1618 Y0.1176 Z0.0 E0.01
G1 X-1.1756 Y1.618 Z0.0 E0.1
G1 X1.1756 Y-1.618 Z-0.0 E0.1
G1 X0.1638 Y0.1147 Z0.0 E0.01
G1 X0.1658 Y0.1118 Z0.0 E0.01
G1 X0.1677 Y0.1089 Z0.0 E0.01
G1 X0.1696 Y0.106 Z0.0 E0.01
G1 X-1.0598 Y1.6961 Z0.0 E0.1
G1 X1.0598 Y-1.6961 Z-0.0 E0.1
G1 X0.1714 Y0.103 Z0.0 E0.01
G1 X0.1732 Y0.1 Z0.0 E0.01
G1 X0.1749 Y0.097 Z0.0 E0.01
G1 X0.1766 Y0.0939 Z0.0 E0.01
G1 X-0.9389 Y1.7659 Z0.0 E0.1
G1 X0.9389 Y-1.7659 Z-0.0 E0.1
G1 X0.1782 Y0.0908 Z0.0 E0.01
G1 X0.1798 Y0.0877 Z0.0 E0.01
G1 X0.1813 Y0.0845 Z0.0 E0.01
G1 X0.1827 Y0.0813 Z0.0 E0.01
G1 X-0.8135 Y1.8271 Z0.0 E0.1
G1 X0.8135 Y-1.8271 Z-0.0 E0.1
G1 X0.1841 Y0.0781 Z0.0 E0.01
G1 X0.1854 Y0.0749 Z0.0 E0.01
G1 X0.1867 Y0.0717 Z0.0 E0.01
G1 X0.1879 Y0.0684 Z0.0 E0.01
G1 X-0.684 Y1.8794 Z0.0 E0.1
G1 X0.684 Y-1.8794 Z-0.0 E0.1
G1 X0.1891 Y0.0651 Z0.0 E0.01
G1 X0.1902 Y0.0618 Z0.0 E0.01
G1 X0.1913 Y0.0585 Z0.0 E0.01
G1 X0.1923 Y0.0551 Z0.0 E0.01
G1 X-0.5513 Y1.9225 Z0.0 E0.1
G1 X0.5513 Y-1.9225 Z-0.0 E0.1
G1 X0.1932 Y0.0518 Z0.0 E0.01
G1 X0.1941 Y0.0484 Z0.0 E0.01
G1 X0.1949 Y0.045 Z0.0 E0.01
G1 X0.1956 Y0.0416 Z0.0 E0.01
G1 X-0.4158 Y1.9563 Z0.0 E0.1
G1 X0.4158 Y-1.9563 Z-0.0 E0.1
G1 X0.1963 Y0.0382 Z0.0 E0.01
G1 X0.197 Y0.0347 Z0.0 E0.01
G1 X0.1975 Y0.0313 Z0.0 E0.01
G1 X0.1981 Y0.0278 Z0.0 E0.01
G1 X-0.2783 Y1.9805 Z0.0 E0.1
G1 X0.2783 Y-1.9805 Z-0.0 E0.1
G1 X0.1985 Y0.0244 Z0.0 E0.01
G1 X0.1989 Y0.0209 Z0.0 E0.01
G1 X0.1992 Y0.0174 Z0.0 E0.01
G1 X0.1995 Y0.014 Z0.0 E0.01
G1 X-0.1395 Y1.9951 Z0.0 E0.1
G1 X0.1395 Y-1.9951 Z-0.0 E0.1
G1 X0.1997 Y0.0105 Z0.0 E0.01
G1 X0.1999 Y0.007 Z0.0 E0.01
G1 X0.2 Y0.0035 Z0.0 E0.01
G1 X-0.0 Y-0.2 Z0.0 E0.01
G1 X0.0035 Y-0.2 Z0.0 E0.01
G1 X0.007 Y-0.1999 Z0.0 E0.01
G1 X0.0105 Y-0.1997 Z0.0 E0.01
G1 X0.014 Y-0.1995 Z0.0 E0.01
G1 X0.0174 Y-0.1992 Z0.0 E0.01
G1 X0.0209 Y-0.1989 Z0.0 E0.01
G1 X0.0244 Y-0.1985 Z0.0 E0.01
G1 X0.0278 Y-0.1981 Z0.0 E0.01
G1 X0.0313 Y-0.1975 Z0.0 E0.01
G1 X0.0347 Y-0.197 Z0.0 E0.01
G1 X0.0382 Y-0.1963 Z0.0 E0.01
G1 X0.0416 Y-0.1956 Z0.0 E0.01
G1 X0.045 Y-0.1949 Z0.0 E0.01
G1 X0.0484 Y-0.1941 Z0.0 E0.01
G1 X0.0518 Y-0.1932 Z0.0 E0.01
G1 X0.0551 Y-0.1923 Z0.0 E0.01
G1 X0.0585 Y-0.1913 Z0.0 E0.01
G1 X0.0618 Y-0.1902 Z0.0 E0.01
G1 X0.0651 Y-0.1891 Z0.0 E0.01
G1 X0.0684 Y-0.1879 Z0.0 E0.01
G1 X0.0717 Y-0.1867 Z0.0 E0.01
G1 X0.0749 Y-0.1854 Z0.0 E0.01
G1 X0.0781 Y-0.1841 Z0.0 E0.01
G1 X0.0813 Y-0.1827 Z0.0 E0.01
G1 X0.0845 Y-0.1813 Z0.0 E0.01
G1 X0.0877 Y-0.1798 Z0.0 E0.01
G1 X0.0908 Y-0.1782 Z0.0 E0.01
G1 X0.0939 Y-0.1766 Z0.0 E0.01
G1 X0.097 Y-0.1749 Z0.0 E0.01
G1 X0.1 Y-0.1732 Z0.0 E0.01
G1 X0.103 Y-0.1714 Z0.0 E0.01
G1 X0.106 Y-0.1696 Z0.0 E0.01
G1 X0.1089 Y-0.1677 Z0.0 E0.01
G1 X0.1118 Y-0.1658 Z0.0 E0.01
G1 X0.1147 Y-0.1638 Z0.0 E0.01
G1 X0.1176 Y-0.1618 Z0.0 E0.01
G1 X0.1204 Y-0.1597 Z0.0 E0.01
G1 X0.1231 Y-0.1576 Z0.0 E0.01
G1 X0.1259 Y-0.1554 Z0.0 E0.01
G1 X0.1286 Y-0.1532 Z0.0 E0.01
G1 X0.1312 Y-0.1509 Z0.0 E0.01
G1 X0.1338 Y-0.1486 Z0.0 E0.01
G1 X0.1364 Y-0.1463 Z0.0 E0.01
G1 X0.1389 Y-0.1439 Z0.0 E0.01
G1 X0.1414 Y-0.1414 Z0.0 E0.01
G1 X0.1439 Y-0.1389 Z0.0 E0.01
G1 X0.1463 Y-0.1364 Z0.0 E0.01
G1 X0.1486 Y-0.1338 Z0.0 E0.01
G1 X0.1509 Y-0.1312 Z0.0 E0.01
G1 X0.1532 Y-0.1286 Z0.0 E0.01
G1 X0.1554 Y-0.1259 Z0.0 E0.01
G1 X0.1576 Y-0.1231 Z0.0 E0.01
G1 X0.1597 Y-0.1204 Z0.0 E0.01
G1 X0.1618 Y-0.1176 Z0.0 E0.01
G1 X0.1638 Y-0.1147 Z0.0 E0.01
G1 X0.1658 Y-0.1118 Z0.0 E0.01
G1 X0.1677 Y-0.1089 Z0.0 E0.01
G1 X0.1696 Y-0.106 Z0.0 E0.01
G1 X0.1714 Y-0.103 Z0.0 E0.01
G1 X0.1732 Y-0.1 Z0.0 E0.01
G1 X0.1749 Y-0.097 Z0.0 E0.01
G1 X0.1766 Y-0.0939 Z0.0 E0.01
G1 X0.1782 Y-0.0908 Z0.0 E0.01
G1 X0.1798 Y-0.0877 Z0.0 E0.01
G1 X0.1813 Y-0.0845 Z0.0 E0.01
G1 X0.1827 Y-0.0813 Z0.0 E0.01
G1 X0.1841 Y-0.0781 Z0.0 E0.01
G1 X0.1854 Y-0.0749 Z0.0 E0.01
G1 X0.1867 Y-0.0717 Z0.0 E0.01
G1 X0.1879 Y-0.0684 Z0.0 E0.01
G1 X0.1891 Y-0.0651 Z0.0 E0.01
G1 X0.1902 Y-0.0618 Z0.0 E0.01
G1 X0.1913 Y-0.0585 Z0.0 E0.01
G1 X0.1923 Y-0.0551 Z0.0 E0.01
G1 X0.1932 Y-0.0518 Z0.0 E0.01
G1 X0.1941 Y-0.0484 Z0.0 E0.01
G1 X0.1949 Y-0.045 Z0.0 E0.01
G1 X0.1956 Y-0.0416 Z0.0 E0.01
G1 X0.1963 Y-0.0382 Z0.0 E0.01
G1 X0.197 Y-0.0347 Z0.0 E0.01
G1 X0.1975 Y-0.0313 Z0.0 E0.01
G1 X0.1981 Y-0.0278 Z0.0 E0.01
G1 X0.1985 Y-0.0244 Z0.0 E0.01
G1 X0.1989 Y-0.0209 Z0.0 E0.01
G1 X0.1992 Y-0.0174 Z0.0 E0.01
G1 X0.1995 Y-0.014 Z0.0 E0.01
G1 X0.1997 Y-0.0105 Z0.0 E0.01
G1 X0.1999 Y-0.007 Z0.0 E0.01
G1 X0.2 Y-0.0035 Z0.0 E0.01
G1 X0.2 Y-0.0 Z0.0 E0.01
G1 X0.2 Y0.0035 Z0.0 E0.01
G1 X0.1999 Y0.007 Z0.0 E0.01
G1 X0.1997 Y0.0105 Z0.0 E0.01
G1 X0.1995 Y0.014 Z0.0 E0.01
G1 X0.1992 Y0.0174 Z0.0 E0.01
G1 X0.1989 Y0.0209 Z0.0 E0.01
G1 X0.1985 Y0.0244 Z0.0 E0.01
G1 X0.1981 Y0.0278 Z0.0 E0.01
G1 X0.1975 Y0.0313 Z0.0 E0.01
G1 X0.197 Y0.0347 Z0.0 E0.01
G1 X0.1963 Y0.0382 Z0.0 E0.01
G1 X0.1956 Y0.0416 Z0.0 E0.01
G1 X0.1949 Y0.045 Z0.0 E0.01
G1 X0.1941 Y0.0484 Z0.0 E0.01
G1 X0.1932 Y0.0518 Z0.0 E0.01
G1 X0.1923 Y0.0551 Z0.0 E0.01
G1 X0.1913 Y0.0585 Z0.0 E0.01
G1 X0.1902 Y0.0618 Z0.0 E0.01
G1 X0.1891 Y0.0651 Z0.0 E0.01
G1 X0.1879 Y0.0684 Z0.0 E0.01
G1 X0.1867 Y0.0717 Z0.0 E0.01
G1 X0.1854 Y0.0749 Z0.0 E0.01
G1 X0.1841 Y0.0781 Z0.0 E0.01
G1 X0.1827 Y0.0813 Z0.0 E0.01
G1 X0.1813 Y0.0845 Z0.0 E0.01
G1 X0.1798 Y0.0877 Z0.0 E0.01
G1 X0.1782 Y0.0908 Z0.0 E0.01
G1 X0.1766 Y0.0939 Z0.0 E0.01
G1 X0.1749 Y0.097 Z0.0 E0.01
G1 X0.1732 Y0.1 Z0.0 E0.01
G1 X0.1714 Y0.103 Z0.0 E0.01
G1 X0.1696 Y0.106 Z0.0 E0.01
G1 X0.1677 Y0.1089 Z0.0 E0.01
G1 X0.1658 Y0.1118 Z0.0 E0.01
G1 X0.1638 Y0.1147 Z0.0 E0.01
G1 X0.1618 Y0.1176 Z0.0 E0.01
G1 X0.1597 Y0.1204 Z0.0 E0.01
G1 X0.1576 Y0.1231 Z0.0 E0.01
G1 X0.1554 Y0.1259 Z0.0 E0.01
G1 X0.1532 Y0.1286 Z0.0 E0.01
G1 X0.1509 Y0.1312 Z0.0 E0.01
G1 X0.1486 Y0.1338 Z0.0 E0.01
G1 X0.1463 Y0.1364 Z0.0 E0.01
G1 X0.1439 Y0.1389 Z0.0 E0.01
G1 X0.1414 Y0.1414 Z0.0 E0.01
G1 X0.1389 Y0.1439 Z0.0 E0.01
G1 X0.1364 Y0.1463 Z0.0 E0.01
G1 X0.1338 Y0.1486 Z0.0 E0.01
G1 X0.1312 Y0.1509 Z0.0 E0.01
G1 X0.1286 Y0.1532 Z0.0 E0.01
G1 X0.1259 Y0.1554 Z0.0 E0.01
G1 X0.1231 Y0.1576 Z0.0 E0.01
G1 X0.1204 Y0.1597 Z0.0 E0.01
G1 X0.1176 Y0.1618 Z0.0 E0.01
G1 X0.1147 Y0.1638 Z0.0 E0.01
G1 X0.1118 Y0.1658 Z0.0 E0.01
G1 X0.1089 Y0.1677 Z0.0 E0.01
G1 X0.106 Y0.1696 Z0.0 E0.01
G1 X0.103 Y0.1714 Z0.0 E0.01
G1 X0.1 Y0.1732 Z0.0 E0.01
G1 X0.097 Y0.1749 Z0.0 E0.01
G1 X0.0939 Y0.1766 Z0.0 E0.01
G1 X0.0908 Y0.1782 Z0.0 E0.01
G1 X0.0877 Y0.1798 Z0.0 E0.01
G1 X0.0845 Y0.1813 Z0.0 E0.01
G1 X0.0813 Y0.1827 Z0.0 E0.01
G1 X0.0781 Y0.1841 Z0.0 E0.01
G1 X0.0749 Y0.1854 Z0.0 E0.01
G1 X0.0717 Y0.1867 Z0.0 E0.01
G1 X0.0684 Y0.1879 Z0.0 E0.01
G1 X0.0651 Y0.1891 Z0.0 E0.01
G1 X0.0618 Y0.1902 Z0.0 E0.01
G1 X0.0585 Y0.1913 Z0.0 E0.01
G1 X0.0551 Y0.1923 Z0.0 E0.01
G1 X0.0518 Y0.1932 Z0.0 E0.01
G1 X0.0484 Y0.1941 Z0.0 E0.01
G1 X0.045 Y0.1949 Z0.0 E0.01
G1 X0.0416 Y0.1956 Z0.0 E0.01
G1 X0.0382 Y0.1963 Z0.0 E0.01
G1 X0.0347 Y0.197 Z0.0 E0.01
G1 X0.0313 Y0.1975 Z0.0 E0.01
G1 X0.0278 Y0.1981 Z0.0 E0.01
G1 X0.0244 Y0.1985 Z0.0 E0.01
G1 X0.0209 Y0.1989 Z0.0 E0.01
G1 X0.0174 Y0.1992 Z0.0 E0.01
G1 X0.014 Y0.1995 Z0.0 E0.01
G1 X0.0105 Y0.1997 Z0.0 E0.01
G1 X0.007 Y0.1999 Z0.0 E0.01
G1 X0.0035 Y0.2 Z0.0 E0.01
G1 X0.0 Y0.2 Z0.0 E0.01
G1 X-2.0 Y0.0 Z0.0 E0.1
G1 X2.0 Y-0.0 Z-0.0 E0.1
G1 X0.0035 Y0.2 Z0.0 E0.01
G1 X0.007 Y0.1999 Z0.0 E0.01
G1 X0.0105 Y0.1997 Z0.0 E0.01
G1 X0.014 Y0.1995 Z0.0 E0.01
G1 X0.0174 Y0.1992 Z0.0 E0.01
G1 X0.0209 Y0.1989 Z0.0 E0.01
G1 X0.0244 Y0.1985 Z0.0 E0.01
G1 X0.0278 Y0.1981 Z0.0 E0.01
G1 X-1.9805 Y0.2783 Z0.0 E0.1
G1 X1.9805 Y-0.2783 Z-0.0 E0.1
G1 X0.0313 Y0.1975 Z0.0 E0.01
G1 X0.0347 Y0.197 Z0.0 E0.01
G1 X0.0382 Y0.1963 Z0.0 E0.01
G1 X0.0416 Y0.1956 Z0.0 E0.01
G1 X0.045 Y0.1949 Z0.0 E0.01
G1 X0.0484 Y0.1941 Z0.0 E0.01
G1 X0.0518 Y0.1932 Z0.0 E0.01
G1 X0.0551 Y0.1923 Z0.0 E0.01
G1 X-1.9225 Y0.5513 Z0.0 E0.1
G1 X1.9225 Y-0.5513 Z-0.0 E0.1
G1 X0.0585 Y0.1913 Z0.0 E0.01
G1 X0.0618 Y0.1902 Z0.0 E0.01
G1 X0.0651 Y0.1891 Z0.0 E0.01
G1 X0.0684 Y0.1879 Z0.0 E0.01
G1 X0.0717 Y0.1867 Z0.0 E0.01
G1 X0.0749 Y0.1854 Z0.0 E0.01
G1 X0.0781 Y0.1841 Z0.0 E0.01
G1 X0.0813 Y0.1827 Z0.0 E0.01
G1 X-1.8271 Y0.8135 Z0.0 E0.1
G1 X1.8271 Y-0.8135 Z-0.0 E0.1
G1 X0.0845 Y0.1813 Z0.0 E0.01
G1 X0.0877 Y0.1798 Z0.0 E0.01
G1 X0.0908 Y0.1782 Z0.0 E0.01
G1 X0.0939 Y0.1766 Z0.0 E0.01
G1 X0.097 Y0.1749 Z0.0 E0.01
G1 X0.1 Y0.1732 Z0.0 E0.01
G1 X0.103 Y0.1714 Z0.0 E0.01
G1 X0.106 Y0.1696 Z0.0 E0.01
G1 X-1.6961 Y1.0598 Z0.0 E0.1
G1 X1.6961 Y-1.0598 Z-0.0 E0.1
G1 X0.1089 Y0.1677 Z0.0 E0.01
G1 X0.1118 Y0.1658 Z0.0 E0.01
G1 X0.1147 Y0.1638 Z0.0 E0.01
G1 X0.1176 Y0.1618 Z0.0 E0.01
G1 X0.1204 Y0.1597 Z0.0 E0.01
G1 X0.1231 Y0.1576 Z0.0 E0.01
G1 X0.1259 Y0.1554 Z0.0 E0.01
G1 X0.1286 Y0.1532 Z0.0 E0.01
G1 X-1.5321 Y1.2856 Z0.0 E0.1
G1 X1.5321 Y-1.2856 Z-0.0 E0.1
G1 X0.1312 Y0.1509 Z0.0 E0.01
G1 X0.1338 Y0.1486 Z0.0 E0.01
G1 X0.1364 Y0.1463 Z0.0 E0.01
G1 X0.1389 Y0.1439 Z0.0 E0.01
G1 X0.1414 Y0.1414 Z0.0 E0.01
G1 X0.1439 Y0.1389 Z0.0 E0.01
G1 X0.1463 Y0.1364 Z0.0 E0.01
G1 X0.1486 Y0.1338 Z0.0 E0.01
G1 X-1.3383 Y1.4863 Z0.0 E0.1
G1 X1.3383 Y-1.4863 Z-0.0 E0.1
G1 X0.1509 Y0.1312 Z0.0 E0.01
G1 X0.1532 Y0.1286 Z0.0 E0.01
G1 X0.1554 Y0.1259 Z0.0 E0.01
G1 X0.1576 Y0.1231 Z0.0 E0.01
G1 X0.1597 Y0.1204 Z0.0 E0.01
G1 X0.1618 Y0.1176 Z0.0 E0.01
G1 X0.1638 Y0.1147 Z0.0 E0.01
G1 X0.1658 Y0.1118 Z0.0 E0.01
G1 X-1.1184 Y1.6581 Z0.0 E0.1
G1 X1.1184 Y-1.6581 Z-0.0 E0.1
G1 X0.1677 Y0.1089 Z0.0 E0.01
G1 X0.1696 Y0.106 Z0.0 E0.01
G1 X0.1714 Y0.103 Z0.0 E0.01
G1 X0.1732 Y0.1 Z0.0 E0.01
G1 X0.1749 Y0.097 Z0.0 E0.01
G1 X0.1766 Y0.0939 Z0.0 E0.01
G1 X0.1782 Y0.0908 Z0.0 E0.01
G1 X0.1798 Y0.0877 Z0.0 E0.01
G1 X-0.8767 Y1.7976 Z0.0 E0.1
G1 X0.8767 Y-1.7976 Z-0.0 E0.1
G1 X0.1813 Y0.0845 Z0.0 E0.01
G1 X0.1827 Y0.0813 Z0.0 E0.01
G1 X0.1841 Y0.0781 Z0.0 E0.01
G1 X0.1854 Y0.0749 Z0.0 E0.01
G1 X0.1867 Y0.0717 Z0.0 E0.01
G1 X0.1879 Y0.0684 Z0.0 E0.01
G1 X0.1891 Y0.0651 Z0.0 E0.01
G1 X0.1902 Y0.0618 Z0.0 E0.01
G1 X-0.618 Y1.9021 Z0.0 E0.1
G1 X0.618 Y-1.9021 Z-0.0 E0.1
G1 X0.1913 Y0.0585 Z0.0 E0.01
G1 X0.1923 Y0.0551 Z0.0 E0.01
G1 X0.1932 Y0.0518 Z0.0 E0.01
G1 X0.1941 Y0.0484 Z0.0 E0.01
G1 X0.1949 Y0.045 Z0.0 E0.01
G1 X0.1956 Y0.0416 Z0.0 E0.01
G1 X0.1963 Y0.0382 Z0.0 E0.01
G1 X0.197 Y0.0347 Z0.0 E0.01
G1 X-0.3473 Y1.9696 Z0.0 E0.1
G1 X0.3473 Y-1.9696 Z-0.0 E0.1
G1 X0.1975 Y0.0313 Z0.0 E0.01
G1 X0.1981 Y0.0278 Z0.0 E0.01
G1 X0.1985 Y0.0244 Z0.0 E0.01
G1 X0.1989 Y0.0209 Z0.0 E0.01
G1 X0.1992 Y0.0174 Z0.0 E0.01
G1 X0.1995 Y0.014 Z0.0 E0.01
G1 X0.1997 Y0.0105 Z0.0 E0.01
G1 X0.1999 Y0.007 Z0.0 E0.01
G1 X-0.0698 Y1.9988 Z0.0 E0.1
G1 X0.0698 Y-1.9988 Z-0.0 E0.1
G1 X0.2 Y0.0035 Z0.0 E0.01
G1 X0.2 Y-0.0 Z0.0 E0.01
G1 X0.2 Y-0.0035 Z0.0 E0.01
G1 X0.1999 Y-0.007 Z0.0 E0.01
G1 X0.1997 Y-0.0105 Z0.0 E0.01
G1 X0.1995 Y-0.014 Z0.0 E0.01
G1 X0.1992 Y-0.0174 Z0.0 E0.01
G1 X0.1989 Y-0.0209 Z0.0 E0.01
G1 X0.2091 Y1.989 Z0.0 E0.1
G1 X-0.2091 Y-1.989 Z-0.0 E0.1
G1 X0.1985 Y-0.0244 Z0.0 E0.01
G1 X0.1981 Y-0.0278 Z0.0 E0.01
G1 X0.1975 Y-0.0313 Z0.0 E0.01
G1 X0.197 Y-0.0347 Z0.0 E0.01
G1 X0.1963 Y-0.0382 Z0.0 E0.01
G1 X0.1956 Y-0.0416 Z0.0 E0.01
G1 X0.1949 Y-0.045 Z0.0 E0.01
G1 X0.1941 Y-0.0484 Z0.0 E0.01
G1 X0.4838 Y1.9406 Z0.0 E0.1
G1 X-0.4838 Y-1.9406 Z-0.0 E0.1
G1 X0.1932 Y-0.0518 Z0.0 E0.01
G1 X0.1923 Y-0.0551 Z0.0 E0.01
G1 X0.1913 Y-0.0585 Z0.0 E0.01
G1 X0.1902 Y-0.0618 Z0.0 E0.01
G1 X0.1891 Y-0.0651 Z0.0 E0.01
G1 X0.1879 Y-0.0684 Z0.0 E0.01
G1 X0.1867 Y-0.0717 Z0.0 E0.01
G1 X0.1854 Y-0.0749 Z0.0 E0.01
G1 X0.7492 Y1.8544 Z0.0 E0.1
G1 X-0.7492 Y-1.8544 Z-0.0 E0.1
G1 X0.1841 Y-0.0781 Z0.0 E0.01
G1 X0.1827 Y-0.0813 Z0.0 E0.01
G1 X0.1813 Y-0.0845 Z0.0 E0.01
G1 X0.1798 Y-0.0877 Z0.0 E0.01
G1 X0.1782 Y-0.0908 Z0.0 E0.01
G1 X0.1766 Y-0.0939 Z0.0 E0.01
G1 X0.1749 Y-0.097 Z0.0 E0.01
G1 X0.1732 Y-0.1 Z0.0 E0.01
G1 X1.0 Y1.7321 Z0.0 E0.1
G1 X-1.0 Y-1.7321 Z-0.0 E0.1
G1 X0.1714 Y-0.103 Z0.0 E0.01
G1 X0.1696 Y-0.106 Z0.0 E0.01
G1 X0.1677 Y-0.1089 Z0.0 E0.01
G1 X0.1658 Y-0.1118 Z0.0 E0.01
G1 X0.1638 Y-0.1147 Z0.0 E0.01
G1 X0.1618 Y-0.1176 Z0.0 E0.01
G1 X0.1597 Y-0.1204 Z0.0 E0.01
G1 X0.1576 Y-0.1231 Z0.0 E0.01
G1 X1.2313 Y1.576 Z0.0 E0.1
G1 X-1.2313 Y-1.576 Z-0.0 E0.1
G1 X0.1554 Y-0.1259 Z0.0 E0.01
G1 X0.1532 Y-0.1286 Z0.0 E0.01
G1 X0.1509 Y-0.1312 Z0.0 E0.01
G1 X0.1486 Y-0.1338 Z0.0 E0.01
G1 X0.1463 Y-0.1364 Z0.0 E0.01
G1 X0.1439 Y-0.1389 Z0.0 E0.01
G1 X0.1414 Y-0.1414 Z0.0 E0.01
G1 X0.1389 Y-0.1439 Z0.0 E0.01
G1 X1.4387 Y1.3893 Z0.0 E0.1
G1 X-1.4387 Y-1.3893 Z-0.0 E0.1
G1 X0.1364 Y-0.1463 Z0.0 E0.01
G1 X0.1338 Y-0.1486 Z0.0 E0.01
G1 X0.1312 Y-0.1509 Z0.0 E0.01
G1 X0.1286 Y-0.1532 Z0.0 E0.01
G1 X0.1259 Y-0.1554 Z0.0 E0.01
G1 X0.1231 Y-0.1576 Z0.0 E0.01
G1 X0.1204 Y-0.1597 Z0.0 E0.01
G1 X0.1176 Y-0.1618 Z0.0 E0.01
G1 X1.618 Y1.1756 Z0.0 E0.1
G1 X-1.618 Y-1.1756 Z-0.0 E0.1
G1 X0.1147 Y-0.1638 Z0.0 E0.01
G1 X0.1118 Y-0.1658 Z0.0 E0.01
G1 X0.1089 Y-0.1677 Z0.0 E0.01
G1 X0.106 Y-0.1696 Z0.0 E0.01
G1 X0.103 Y-0.1714 Z0.0 E0.01
G1 X0.1 Y-0.1732 Z0.0 E0.01
G1 X0.097 Y-0.1749 Z0.0 E0.01
G1 X0.0939 Y-0.1766 Z0.0 E0.01
G1 X1.7659 Y0.9389 Z0.0 E0.1
G1 X-1.7659 Y-0.9389 Z-0.0 E0.1
G1 X0.0908 Y-0.1782 Z0.0 E0.01
G1 X0.0877 Y-0.1798 Z0.0 E0.01
G1 X0.0845 Y-0.1813 Z0.0 E0.01
G1 X0.0813 Y-0.1827 Z0.0 E0.01
G1 X0.0781 Y-0.1841 Z0.0 E0.01
G1 X0.0749 Y-0.1854 Z0.0 E0.01
G1 X0.0717 Y-0.1867 Z0.0 E0.01
G1 X0.0684 Y-0.1879 Z0.0 E0.01
G1 X1.8794 Y0.684 Z0.0 E0.1
G1 X-1.8794 Y-0.684 Z-0.0 E0.1
G1 X0.0651 Y-0.1891 Z0.0 E0.01
G1 X0.0618 Y-0.1902 Z0.0 E0.01
G1 X0.0585 Y-0.1913 Z0.0 E0.01
G1 X0.0551 Y-0.1923 Z0.0 E0.01
G1 X0.0518 Y-0.1932 Z0.0 E0.01
G1 X0.0484 Y-0.1941 Z0.0 E0.01
G1 X0.045 Y-0.1949 Z0.0 E0.01
G1 X0.0416 Y-0.1956 Z0.0 E0.01
G1 X1.9563 Y0.4158 Z0.0 E0.1
G1 X-1.9563 Y-0.4158 Z-0.0 E0.1
G1 X0.0382 Y-0.1963 Z0.0 E0.01
G1 X0.0347 Y-0.197 Z0.0 E0.01
G1 X0.0313 Y-0.1975 Z0.0 E0.01
G1 X0.0278 Y-0.1981 Z0.0 E0.01
G1 X0.0244 Y-0.1985 Z0.0 E0.01
G1 X0.0209 Y-0.1989 Z0.0 E0.01
G1 X0.0174 Y-0.1992 Z0.0 E0.01
G1 X0.014 Y-0.1995 Z0.0 E0.01
G1 X1.9951 Y0.1395 Z0.0 E0.1
G1 X-1.9951 Y-0.1395 Z-0.0 E0.1
G1 X0.0105 Y-0.1997 Z0.0 E0.01
G1 X0.007 Y-0.1999 Z0.0 E0.01
G1 X0.0035 Y-0.2 Z0.0 E0.01
G1 X-0.2 Y0.0 Z0.0 E0.01
G1 X-0.2 Y-0.0035 Z0.0 E0.01
G1 X-0.1999 Y-0.007 Z0.0 E0.01
G1 X-0.1997 Y-0.0105 Z0.0 E0.01
G1 X-0.1995 Y-0.014 Z0.0 E0.01
G1 X-0.1992 Y-0.0174 Z0.0 E0.01
G1 X-0.1989 Y-0.0209 Z0.0 E0.01
G1 X-0.1985 Y-0.0244 Z0.0 E0.01
G1 X-0.1981 Y-0.0278 Z0.0 E0.01
G1 X-0.1975 Y-0.0313 Z0.0 E0.01
G1 X-0.197 Y-0.0347 Z0.0 E0.01
G1 X-0.1963 Y-0.0382 Z0.0 E0.01
G1 X-0.1956 Y-0.0416 Z0.0 E0.01
G1 X-0.1949 Y-0.045 Z0.0 E0.01
G1 X-0.1941 Y-0.0484 Z0.0 E0.01
G1 X-0.1932 Y-0.0518 Z0.0 E0.01
G1 X-0.1923 Y-0.0551 Z0.0 E0.01
G1 X-0.1913 Y-0.0585 Z0.0 E0.01
G1 X-0.1902 Y-0.0618 Z0.0 E0.01
G1 X-0.1891 Y-0.0651 Z0.0 E0.01
G1 X-0.1879 Y-0.0684 Z0.0 E0.01
G1 X-0.1867 Y-0.0717 Z0.0 E0.01
G1 X-0.1854 Y-0.0749 Z0.0 E0.01
G1 X-0.1841 Y-0.0781 Z0.0 E0.01
G1 X-0.1827 Y-0.0813 Z0.0 E0.01
G1 X-0.1813 Y-0.0845 Z0.0 E0.01
G1 X-0.1798 Y-0.0877 Z0.0 E0.01
G1 X-0.1782 Y-0.0908 Z0.0 E0.01
G1 X-0.1766 Y-0.0939 Z0.0 E0.01
G1 X-0.1749 Y-0.097 Z0.0 E0.01
G1 X-0.1732 Y-0.1 Z0.0 E0.01
G1 X-0.1714 Y-0.103 Z0.0 E0.01
G1 X-0.1696 Y-0.106 Z0.0 E0.01
G1 X-0.1677 Y-0.1089 Z0.0 E0.01
G1 X-0.1658 Y-0.1118 Z0.0 E0.01
G1 X-0.1638 Y-0.1147 Z0.0 E0.01
G1 X-0.1618 Y-0.1176 Z0.0 E0.01
G1 X-0.1597 Y-0.1204 Z0.0 E0.01
G1 X-0.1576 Y-0.1231 Z0.0 E0.01
G1 X-0.1554 Y-0.1259 Z0.0 E0.01
G1 X-0.1532 Y-0.1286 Z0.0 E0.01
G1 X-0.1509 Y-0.1312 Z0.0 E0.01
G1 X-0.1486 Y-0.1338 Z0.0 E0.01
G1 X-0.1463 Y-0.1364 Z0.0 E0.01
G1 X-0.1439 Y-0.1389 Z0.0 E0.01
G1 X-0.1414 Y-0.1414 Z0.0 E0.01
G1 X-0.1389 Y-0.1439 Z0.0 E0.01
G1 X-0.1364 Y-0.1463 Z0.0 E0.01
G1 X-0.1338 Y-0.1486 Z0.0 E0.01
G1 X-0.1312 Y-0.1509 Z0.0 E0.01
G1 X-0.1286 Y-0.1532 Z0.0 E0.01
G1 X-0.1259 Y-0.1554 Z0.0 E0.01
G1 X-0.1231 Y-0.1576 Z0.0 E0.01
G1 X-0.1204 Y-0.1597 Z0.0 E0.01
G1 X-0.1176 Y-0.1618 Z0.0 E0.01
G1 X-0.1147 Y-0.1638 Z0.0 E0.01
G1 X-0.1118 Y-0.1658 Z0.0 E0.01
G1 X-0.1089 Y-0.1677 Z0.0 E0.01
G1 X-0.106 Y-0.1696 Z0.0 E0.01
G1 X-0.103 Y-0.1714 Z0.0 E0.01
G1 X-0.1 Y-0.1732 Z0.0 E0.01
G1 X-0.097 Y-0.1749 Z0.0 E0.01
G1 X-0.0939 Y-0.1766 Z0.0 E0.01
G1 X-0.0908 Y-0.1782 Z0.0 E0.01
G1 X-0.0877 Y-0.1798 Z0.0 E0.01
G1 X-0.0845 Y-0.1813 Z0.0 E0.01
G1 X-0.0813 Y-0.1827 Z0.0 E0.01
G1 X-0.0781 Y-0.1841 Z0.0 E0.01
G1 X-0.0749 Y-0.1854 Z0.0 E0.01
G1 X-0.0717 Y-0.1867 Z0.0 E0.01
G1 X-0.0684 Y-0.1879 Z0.0 E0.01
G1 X-0.0651 Y-0.1891 Z0.0 E0.01
G1 X-0.0618 Y-0.1902 Z0.0 E0.01
G1 X-0.0585 Y-0.1913 Z0.0 E0.01
G1 X-0.0551 Y-0.1923 Z0.0 E0.01
G1 X-0.0518 Y-0.1932 Z0.0 E0.01
G1 X-0.0484 Y-0.1941 Z0.0 E0.01
G1 X-0.045 Y-0.1949 Z0.0 E0.01
G1 X-0.0416 Y-0.1956 Z0.0 E0.01
G1 X-0.0382 Y-0.1963 Z0.0 E0.01
G1 X-0.0347 Y-0.197 Z0.0 E0.01
G1 X-0.0313 Y-0.1975 Z0.0 E0.01
G1 X-0.0278 Y-0.1981 Z0.0 E0.01
G1 X-0.0244 Y-0.1985 Z0.0 E0.01
G1 X-0.0209 Y-0.1989 Z0.0 E0.01
G1 X-0.0174 Y-0.1992 Z0.0 E0.01
G1 X-0.014 Y-0.1995 Z0.0 E0.01
G1 X-0.0105 Y-0.1997 Z0.0 E0.01
G1 X-0.007 Y-0.1999 Z0.0 E0.01
G1 X-0.0035 Y-0.2 Z0.0 E0.01
G1 X0.0 Y-0.2 Z0.0 E0.01
G1 X0.0035 Y-0.2 Z0.0 E0.01
G1 X0.007 Y-0.1999 Z0.0 E0.01
G1 X0.0105 Y-0.1997 Z0.0 E0.01
G1 X0.014 Y-0.1995 Z0.0 E0.01
G1 X0.0174 Y-0.1992 Z0.0 E0.01
G1 X0.0209 Y-0.1989 Z0.0 E0.01
G1 X0.0244 Y-0.1985 Z0.0 E0.01
G1 X0.0278 Y-0.1981 Z0.0 E0.01
G1 X0.0313 Y-0.1975 Z0.0 E0.01
G1 X0.0347 Y-0.197 Z0.0 E0.01
G1 X0.0382 Y-0.1963 Z0.0 E0.01
G1 X0.0416 Y-0.1956 Z0.0 E0.01
G1 X0.045 Y-0.1949 Z0.0 E0.01
G1 X0.0484 Y-0.1941 Z0.0 E0.01
G1 X0.0518 Y-0.1932 Z0.0 E0.01
G1 X0.0551 Y-0.1923 Z0.0 E0.01
G1 X0.0585 Y-0.1913 Z0.0 E0.01
G1 X0.0618 Y-0.1902 Z0.0 E0.01
G1 X0.0651 Y-0.1891 Z0.0 E0.01
G1 X0.0684 Y-0.1879 Z0.0 E0.01
G1 X0.0717 Y-0.1867 Z0.0 E0.01
G1 X0.0749 Y-0.1854 Z0.0 E0.01
G1 X0.0781 Y-0.1841 Z0.0 E0.01
G1 X0.0813 Y-0.1827 Z0.0 E0.01
G1 X0.0845 Y-0.1813 Z0.0 E0.01
G1 X0.0877 Y-0.1798 Z0.0 E0.01
G1 X0.0908 Y-0.1782 Z0.0 E0.01
G1 X0.0939 Y-0.1766 Z0.0 E0.01
G1 X0.097 Y-0.1749 Z0.0 E0.01
G1 X0.1 Y-0.1732 Z0.0 E0.01
G1 X0.103 Y-0.1714 Z0.0 E0.01
G1 X0.106 Y-0.1696 Z0.0 E0.01
G1 X0.1089 Y-0.1677 Z0.0 E0.01
G1 X0.1118 Y-0.1658 Z0.0 E0.01
G1 X0.1147 Y-0.1638 Z0.0 E0.01
G1 X0.1176 Y-0.1618 Z0.0 E0.01
G1 X0.1204 Y-0.1597 Z0.0 E0.01
G1 X0.1231 Y-0.1576 Z0.0 E0.01
G1 X0.1259 Y-0.1554 Z0.0 E0.01
G1 X0.1286 Y-0.1532 Z0.0 E0.01
G1 X0.1312 Y-0.1509 Z0.0 E0.01
G1 X0.1338 Y-0.1486 Z0.0 E0.01
G1 X0.1364 Y-0.1463 Z0.0 E0.01
G1 X0.1389 Y-0.1439 Z0.0 E0.01
G1 X0.1414 Y-0.1414 Z0.0 E0.01
G1 X0.1439 Y-0.1389 Z0.0 E0.01
G1 X0.1463 Y-0.1364 Z0.0 E0.01
G1 X0.1486 Y-0.1338 Z0.0 E0.01
G1 X0.1509 Y-0.1312 Z0.0 E0.01
G1 X0.1532 Y-0.1286 Z0.0 E0.01
G1 X0.1554 Y-0.1259 Z0.0 E0.01
G1 X0.1576 Y-0.1231 Z0.0 E0.01
G1 X0.1597 Y-0.1204 Z0.0 E0.01
G1 X0.1618 Y-0.1176 Z0.0 E0.01
G1 X0.1638 Y-0.1147 Z0.0 E0.01
G1 X0.1658 Y-0.1118 Z0.0 E0.01
G1 X0.1677 Y-0.1089 Z0.0 E0.01
G1 X0.1696 Y-0.106 Z0.0 E0.01
G1 X0.1714 Y-0.103 Z0.0 E0.01
G1 X0.1732 Y-0.1 Z0.0 E0.01
G1 X0.1749 Y-0.097 Z0.0 E0.01
G1 X0.1766 Y-0.0939 Z0.0 E0.01
G1 X0.1782 Y-0.0908 Z0.0 E0.01
G1 X0.1798 Y-0.0877 Z0.0 E0.01
G1 X0.1813 Y-0.0845 Z0.0 E0.01
G1 X0.1827 Y-0.0813 Z0.0 E0.01
G1 X0.1841 Y-0.0781 Z0.0 E0.01
G1 X0.1854 Y-0.0749 Z0.0 E0.01
G1 X0.1867 Y-0.0717 Z0.0 E0.01
G1 X0.1879 Y-0.0684 Z0.0 E0.01
G1 X0.1891 Y-0.0651 Z0.0 E0.01
G1 X0.1902 Y-0.0618 Z0.0 E0.01
G1 X0.1913 Y-0.0585 Z0.0 E0.01
G1 X0.1923 Y-0.0551 Z0.0 E0.01
G1 X0.1932 Y-0.0518 Z0.0 E0.01
G1 X0.1941 Y-0.0484 Z0.0 E0.01
G1 X0.1949 Y-0.045 Z0.0 E0.01
G1 X0.1956 Y-0.0416 Z0.0 E0.01
G1 X0.1963 Y-0.0382 Z0.0 E0.01
G1 X0.197 Y-0.0347 Z0.0 E0.01
G1 X0.1975 Y-0.0313 Z0.0 E0.01
G1 X0.1981 Y-0.0278 Z0.0 E0.01
G1 X0.1985 Y-0.0244 Z0.0 E0.01
G1 X0.1989 Y-0.0209 Z0.0 E0.01
G1 X0.1992 Y-0.0174 Z0.0 E0.01
G1 X0.1995 Y-0.014 Z0.0 E0.01
G1 X0.1997 Y-0.0105 Z0.0 E0.01
G1 X0.1999 Y-0.007 Z0.0 E0.01
G1 X0.2 Y-0.0035 Z0.0 E0.01
G1 Z0.2
G1 X0.2 Y-0.0 Z0.0 E0.01
G1 X0.0 Y2.0 Z0.0 E0.1
G1 X-0.0 Y-2.0 Z-0.0 E0.1
G1 X0.2 Y-0.0035 Z0.0 E0.01
G1 X0.1999 Y-0.007 Z0.0 E0.01
G1 X0.1997 Y-0.0105 Z0.0 E0.01
G1 X0.1995 Y-0.014 Z0.0 E0.01
G1 X0.1992 Y-0.0174 Z0.0 E0.01
G1 X0.1989 Y-0.0209 Z0.0 E0.01
G1 X0.1985 Y-0.0244 Z0.0 E0.01
G1 X0.1981 Y-0.0278 Z0.0 E0.01
G1 X0.1975 Y-0.0313 Z0.0 E0.01
G1 X0.3129 Y1.9754 Z0.0 E0.1
G1 X-0.3129 Y-1.9754 Z-0.0 E0.1
G1 X0.197 Y-0.0347 Z0.0 E0.01
G1 X0.1963 Y-0.0382 Z0.0 E0.01
G1 X0.1956 Y-0.0416 Z0.0 E0.01
G1 X0.1949 Y-0.045 Z0.0 E0.01
G1 X0.1941 Y-0.0484 Z0.0 E0.01
G1 X0.1932 Y-0.0518 Z0.0 E0.01
G1 X0.1923 Y-0.0551 Z0.0 E0.01
G1 X0.1913 Y-0.0585 Z0.0 E0.01
G1 X0.1902 Y-0.0618 Z0.0 E0.01
G1 X0.618 Y1.9021 Z0.0 E0.1
G1 X-0.618 Y-1.9021 Z-0.0 E0.1
G1 X0.1891 Y-0.0651 Z0.0 E0.01
G1 X0.1879 Y-0.0684 Z0.0 E0.01
G1 X0.1867 Y-0.0717 Z0.0 E0.01
G1 X0.1854 Y-0.0749 Z0.0 E0.01
G1 X0.1841 Y-0.0781 Z0.0 E0.01
G1 X0.1827 Y-0.0813 Z0.0 E0.01
G1 X0.1813 Y-0.0845 Z0.0 E0.01
G1 X0.1798 Y-0.0877 Z0.0 E0.01
G1 X0.1782 Y-0.0908 Z0.0 E0.01
G1 X0.908 Y1.782 Z0.0 E0.1
G1 X-0.908 Y-1.782 Z-0.0 E0.1
G1 X0.1766 Y-0.0939 Z0.0 E0.01
G1 X0.1749 Y-0.097 Z0.0 E0.01
G1 X0.1732 Y-0.1 Z0.0 E0.01
G1 X0.1714 Y-0.103 Z0.0 E0.01
G1 X0.1696 Y-0.106 Z0.0 E0.01
G1 X0.1677 Y-0.1089 Z0.0 E0.01
G1 X0.1658 Y-0.1118 Z0.0 E0.01
G1 X0.1638 Y-0.1147 Z0.0 E0.01
G1 X0.1618 Y-0.1176 Z0.0 E0.01
G1 X1.1756 Y1.618 Z0.0 E0.1
G1 X-1.1756 Y-1.618 Z-0.0 E0.1
G1 X0.1597 Y-0.1204 Z0.0 E0.01
G1 X0.1576 Y-0.1231 Z0.0 E0.01
G1 X0.1554 Y-0.1259 Z0.0 E0.01
G1 X0.1532 Y-0.1286 Z0.0 E0.01
G1 X0.1509 Y-0.1312 Z0.0 E0.01
G1 X0.1486 Y-0.1338 Z0.0 E0.01
G1 X0.1463 Y-0.1364 Z0.0 E0.01
G1 X0.1439 Y-0.1389 Z0.0 E0.01
G1 X0.1414 Y-0.1414 Z0.0 E0.01
G1 X1.4142 Y1.4142 Z0.0 E0.1
G1 X-1.4142 Y-1.4142 Z-0.0 E0.1
G1 X0.1389 Y-0.1439 Z0.0 E0.01
G1 X0.1364 Y-0.1463 Z0.0 E0.01
G1 X0.1338 Y-0.1486 Z0.0 E0.01
G1 X0.1312 Y-0.1509 Z0.0 E0.01
G1 X0.1286 Y-0.1532 Z0.0 E0.01
G1 X0.1259 Y-0.1554 Z0.0 E0.01
G1 X0.1231 Y-0.1576 Z0.0 E0.01
G1 X0.1204 Y-0.1597 Z0.0 E0.01
G1 X0.1176 Y-0.1618 Z0.0 E0.01
G1 X1.618 Y1.1756 Z0.0 E0.1
G1 X-1.618 Y-1.1756 Z-0.0 E0.1
G1 X0.1147 Y-0.1638 Z0.0 E0.01
G1 X0.1118 Y-0.1658 Z0.0 E0.01
G1 X0.1089 Y-0.1677 Z0.0 E0.01
G1 X0.106 Y-0.1696 Z0.0 E0.01
G1 X0.103 Y-0.1714 Z0.0 E0.01
G1 X0.1 Y-0.1732 Z0.0 E0.01
G1 X0.097 Y-0.1749 Z0.0 E0.01
G1 X0.0939 Y-0.1766 Z0.0 E0.01
G1 X0.0908 Y-0.1782 Z0.0 E0.01
G1 X1.782 Y0.908 Z0.0 E0.1
G1 X-1.782 Y-0.908 Z-0.0 E0.1
G1 X0.0877 Y-0.1798 Z0.0 E0.01
G1 X0.0845 Y-0.1813 Z0.0 E0.01
G1 X0.0813 Y-0.1827 Z0.0 E0.01
G1 X0.0781 Y-0.1841 Z0.0 E0.01
G1 X0.0749 Y-0.1854 Z0.0 E0.01
G1 X0.0717 Y-0.1867 Z0.0 E0.01
G1 X0.0684 Y-0.1879 Z0.0 E0.01
G1 X0.0651 Y-0.1891 Z0.0 E0.01
G1 X0.0618 Y-0.1902 Z0.0 E0.01
G1 X1.9021 Y0.618 Z0.0 E0.1
G1 X-1.9021 Y-0.618 Z-0.0 E0.1
G1 X0.0585 Y-0.1913 Z0.0 E0.01
G1 X0.0551 Y-0.1923 Z0.0 E0.01
G1 X0.0518 Y-0.1932 Z0.0 E0.01
G1 X0.0484 Y-0.1941 Z0.0 E0.01
G1 X0.045 Y-0.1949 Z0.0 E0.01
G1 X0.0416 Y-0.1956 Z0.0 E0.01
G1 X0.0382 Y-0.1963 Z0.0 E0.01
G1 X0.0347 Y-0.197 Z0.0 E0.01
G1 X0.0313 Y-0.1975 Z0.0 E0.01
G1 X1.9754 Y0.3129 Z0.0 E0.1
G1 X-1.9754 Y-0.3129 Z-0.0 E0.1
G1 X0.0278 Y-0.1981 Z0.0 E0.01
G1 X0.0244 Y-0.1985 Z0.0 E0.01
G1 X0.0209 Y-0.1989 Z0.0 E0.01
G1 X0.0174 Y-0.1992 Z0.0 E0.01
G1 X0.014 Y-0.1995 Z0.0 E0.01
G1 X0.0105 Y-0.1997 Z0.0 E0.01
G1 X0.007 Y-0.1999 Z0.0 E0.01
G1 X0.0035 Y-0.2 Z0.0 E0.01
G1 X0.0 Y-0.2 Z0.0 E0.01
G1 X2.0 Y0.0 Z0.0 E0.1
G1 X-2.0 Y-0.0 Z-0.0 E0.1
G1 X-0.0035 Y-0.2 Z0.0 E0.01
G1 X-0.007 Y-0.1999 Z0.0 E0.01
G1 X-0.0105 Y-0.1997 Z0.0 E0.01
G1 X-0.014 Y-0.1995 Z0.0 E0.01
G1 X-0.0174 Y-0.1992 Z0.0 E0.01
G1 X-0.0209 Y-0.1989 Z0.0 E0.01
G1 X-0.0244 Y-0.1985 Z0.0 E0.01
G1 X-0.0278 Y-0.1981 Z0.0 E0.01
G1 X-0.0313 Y-0.1975 Z0.0 E0.01
G1 X1.9754 Y-0.3129 Z0.0 E0.1
G1 X-1.9754 Y0.3129 Z-0.0 E0.1
G1 X-0.0347 Y-0.197 Z0.0 E0.01
G1 X-0.0382 Y-0.1963 Z0.0 E0.01
G1 X-0.0416 Y-0.1956 Z0.0 E0.01
G1 X-0.045 Y-0.1949 Z0.0 E0.01
G1 X-0.0484 Y-0.1941 Z0.0 E0.01
G1 X-0.0518 Y-0.1932 Z0.0 E0.01
G1 X-0.0551 Y-0.1923 Z0.0 E0.01
G1 X-0.0585 Y-0.1913 Z0.0 E0.01
G1 X-0.0618 Y-0.1902 Z0.0 E0.01
G1 X1.9021 Y-0.618 Z0.0 E0.1
G1 X-1.9021 Y0.618 Z-0.0 E0.1
G1 X-0.0651 Y-0.1891 Z0.0 E0.01
G1 X-0.0684 Y-0.1879 Z0.0 E0.01
G1 X-0.0717 Y-0.1867 Z0.0 E0.01
G1 X-0.0749 Y-0.1854 Z0.0 E0.01
G1 X-0.0781 Y-0.1841 Z0.0 E0.01
G1 X-0.0813 Y-0.1827 Z0.0 E0.01
G1 X-0.0845 Y-0.1813 Z0.0 E0.01
G1 X-0.0877 Y-0.1798 Z0.0 E0.01
G1 X-0.0908 Y-0.1782 Z0.0 E0.01
G1 X1.782 Y-0.908 Z0.0 E0.1
G1 X-1.782 Y0.908 Z-0.0 E0.1
G1 X-0.0939 Y-0.1766 Z0.0 E0.01
G1 X-0.097 Y-0.1749 Z0.0 E0.01
G1 X-0.1 Y-0.1732 Z0.0 E0.01
G1 X-0.103 Y-0.1714 Z0.0 E0.01
G1 X-0.106 Y-0.1696 Z0.0 E0.01
G1 X-0.1089 Y-0.1677 Z0.0 E0.01
G1 X-0.1118 Y-0.1658 Z0.0 E0.01
G1 X-0.1147 Y-0.1638 Z0.0 E0.01
G1 X-0.1176 Y-0.1618 Z0.0 E0.01
G1 X1.618 Y-1.1756 Z0.0 E0.1
G1 X-1.618 Y1.1756 Z-0.0 E0.1
G1 X-0.1204 Y-0.1597 Z0.0 E0.01
G1 X-0.1231 Y-0.1576 Z0.0 E0.01
G1 X-0.1259 Y-0.1554 Z0.0 E0.01
G1 X-0.1286 Y-0.1532 Z0.0 E0.01
G1 X-0.1312 Y-0.1509 Z0.0 E0.01
G1 X-0.1338 Y-0.1486 Z0.0 E0.01
G1 X-0.1364 Y-0.1463 Z0.0 E0.01
G1 X-0.1389 Y-0.1439 Z0.0 E0.01
G1 X-0.1414 Y-0.1414 Z0.0 E0.01
G1 X1.4142 Y-1.4142 Z0.0 E0.1
G1 X-1.4142 Y1.4142 Z-0.0 E0.1
G1 X-0.1439 Y-0.1389 Z0.0 E0.01
G1 X-0.1463 Y-0.1364 Z0.0 E0.01
G1 X-0.1486 Y-0.1338 Z0.0 E0.01
G1 X-0.1509 Y-0.1312 Z0.0 E0.01
G1 X-0.1532 Y-0.1286 Z0.0 E0.01
G1 X-0.1554 Y-0.1259 Z0.0 E0.01
G1 X-0.1576 Y-0.1231 Z0.0 E0.01
G1 X-0.1597 Y-0.1204 Z0.0 E0.01
G1 X-0.1618 Y-0.1176 Z0.0 E0.01
G1 X1.1756 Y-1.618 Z0.0 E0.1
G1 X-1.1756 Y1.618 Z-0.0 E0.1
G1 X-0.1638 Y-0.1147 Z0.0 E0.01
G1 X-0.1658 Y-0.1118 Z0.0 E0.01
G1 X-0.1677 Y-0.1089 Z0.0 E0.01
G1 X-0.1696 Y-0.106 Z0.0 E0.01
G1 X-0.1714 Y-0.103 Z0.0 E0.01
G1 X-0.1732 Y-0.1 Z0.0 E0.01
G1 X-0.1749 Y-0.097 Z0.0 E0.01
G1 X-0.1766 Y-0.0939 Z0.0 E0.01
G1 X-0.1782 Y-0.0908 Z0.0 E0.01
G1 X0.908 Y-1.782 Z0.0 E0.1
G1 X-0.908 Y1.782 Z-0.0 E0.1
G1 X-0.1798 Y-0.0877 Z0.0 E0.01
G1 X-0.1813 Y-0.0845 Z0.0 E0.01
G1 X-0.1827 Y-0.0813 Z0.0 E0.01
G1 X-0.1841 Y-0.0781 Z0.0 E0.01
G1 X-0.1854 Y-0.0749 Z0.0 E0.01
G1 X-0.1867 Y-0.0717 Z0.0 E0.01
G1 X-0.1879 Y-0.0684 Z0.0 E0.01
G1 X-0.1891 Y-0.0651 Z0.0 E0.01
G1 X-0.1902 Y-0.0618 Z0.0 E0.01
G1 X0.618 Y-1.9021 Z0.0 E0.1
G1 X-0.618 Y1.9021 Z-0.0 E0.1
G1 X-0.1913 Y-0.0585 Z0.0 E0.01
G1 X-0.1923 Y-0.0551 Z0.0 E0.01
G1 X-0.1932 Y-0.0518 Z0.0 E0.01
G1 X-0.1941 Y-0.0484 Z0.0 E0.01
G1 X-0.1949 Y-0.045 Z0.0 E0.01
G1 X-0.1956 Y-0.0416 Z0.0 E0.01
G1 X-0.1963 Y-0.0382 Z0.0 E0.01
G1 X-0.197 Y-0.0347 Z0.0 E0.01
G1 X-0.1975 Y-0.0313 Z0.0 E0.01
G1 X0.3129 Y-1.9754 Z0.0 E0.1
G1 X-0.3129 Y1.9754 Z-0.0 E0.1
G1 X-0.1981 Y-0.0278 Z0.0 E0.01
G1 X-0.1985 Y-0.0244 Z0.0 E0.01
G1 X-0.1989 Y-0.0209 Z0.0 E0.01
G1 X-0.1992 Y-0.0174 Z0.0 E0.01
G1 X-0.1995 Y-0.014 Z0.0 E0.01
G1 X-0.1997 Y-0.0105 Z0.0 E0.01
G1 X-0.1999 Y-0.007 Z0.0 E0.01
G1 X-0.2 Y-0.0035 Z0.0 E0.01
G1 X-0.0 Y0.2 Z0.0 E0.01
G1 X-0.0035 Y0.2 Z0.0 E0.01
G1 X-0.007 Y0.1999 Z0.0 E0.01
G1 X-0.0105 Y0.1997 Z0.0 E0.01
G1 X-0.014 Y0.1995 Z0.0 E0.01
G1 X-0.0174 Y0.1992 Z0.0 E0.01
G1 X-0.0209 Y0.1989 Z0.0 E0.01
G1 X-0.0244 Y0.1985 Z0.0 E0.01
G1 X-0.0278 Y0.1981 Z0.0 E0.01
G1 X-0.0313 Y0.1975 Z0.0 E0.01
G1 X-0.0347 Y0.197 Z0.0 E0.01
G1 X-0.0382 Y0.1963 Z0.0 E0.01
G1 X-0.0416 Y0.1956 Z0.0 E0.01
G1 X-0.045 Y0.1949 Z0.0 E0.01
G1 X-0.0484 Y0.1941 Z0.0 E0.01
G1 X-0.0518 Y0.1932 Z0.0 E0.01
G1 X-0.0551 Y0.1923 Z0.0 E0.01
G1 X-0.0585 Y0.1913 Z0.0 E0.01
G1 X-0.0618 Y0.1902 Z0.0 E0.01
G1 X-0.0651 Y0.1891 Z0.0 E0.01
G1 X-0.0684 Y0.1879 Z0.0 E0.01
G1 X-0.0717 Y0.1867 Z0.0 E0.01
G1 X-0.0749 Y0.1854 Z0.0 E0.01
G1 X-0.0781 Y0.1841 Z0.0 E0.01
G1 X-0.0813 Y0.1827 Z0.0 E0.01
G1 X-0.0845 Y0.1813 Z0.0 E0.01
G1 X-0.0877 Y0.1798 Z0.0 E0.01
G1 X-0.0908 Y0.1782 Z0.0 E0.01
G1 X-0.0939 Y0.1766 Z0.0 E0.01
G1 X-0.097 Y0.1749 Z0.0 E0.01
G1 X-0.1 Y0.1732 Z0.0 E0.01
G1 X-0.103 Y0.1714 Z0.0 E0.01
G1 X-0.106 Y0.1696 Z0.0 E0.01
G1 X-0.1089 Y0.1677 Z0.0 E0.01
G1 X-0.1118 Y0.1658 Z0.0 E0.01
G1 X-0.1147 Y0.1638 Z0.0 E0.01
G1 X-0.1176 Y0.1618 Z0.0 E0.01
G1 X-0.1204 Y0.1597 Z0.0 E0.01
G1 X-0.1231 Y0.1576 Z0.0 E0.01
G1 X-0.1259 Y0.1554 Z0.0 E0.01
G1 X-0.1286 Y0.1532 Z0.0 E0.01
G1 X-0.1312 Y0.1509 Z0.0 E0.01
G1 X-0.1338 Y0.1486 Z0.0 E0.01
G1 X-0.1364 Y0.1463 Z0.0 E0.01
G1 X-0.1389 Y0.1439 Z0.0 E0.01
G1 X-0.1414 Y0.1414 Z0.0 E0.01
G1 X-0.1439 Y0.1389 Z0.0 E0.01
G1 X-0.1463 Y0.1364 Z0.0 E0.01
G1 X-0.1486 Y0.1338 Z0.0 E0.01
G1 X-0.1509 Y0.1312 Z0.0 E0.01
G1 X-0.1532 Y0.1286 Z0.0 E0.01
G1 X-0.1554 Y0.1259 Z0.0 E0.01
G1 X-0.1576 Y0.1231 Z0.0 E0.01
G1 X-0.1597 Y0.1204 Z0.0 E0.01
G1 X-0.1618 Y0.1176 Z0.0 E0.01
G1 X-0.1638 Y0.1147 Z0.0 E0.01
G1 X-0.1658 Y0.1118 Z0.0 E0.01
G1 X-0.1677 Y0.1089 Z0.0 E0.01
G1 X-0.1696 Y0.106 Z0.0 E0.01
G1 X-0.1714 Y0.103 Z0.0 E0.01
G1 X-0.1732 Y0.1 Z0.0 E0.01
G1 X-0.1749 Y0.097 Z0.0 E0.01
G1 X-0.1766 Y0.0939 Z0.0 E0.01
G1 X-0.1782 Y0.0908 Z0.0 E0.01
G1 X-0.1798 Y0.0877 Z0.0 E0.01
G1 X-0.1813 Y0.0845 Z0.0 E0.01
G1 X-0.1827 Y0.0813 Z0.0 E0.01
G1 X-0.1841 Y0.0781 Z0.0 E0.01
G1 X-0.1854 Y0.0749 Z0.0 E0.01
G1 X-0.1867 Y0.0717 Z0.0 E0.01
G1 X-0.1879 Y0.0684 Z0.0 E0.01
G1 X-0.1891 Y0.0651 Z0.0 E0.01
G1 X-0.1902 Y0.0618 Z0.0 E0.01
G1 X-0.1913 Y0.0585 Z0.0 E0.01
G1 X-0.1923 Y0.0551 Z0.0 E0.01
G1 X-0.1932 Y0.0518 Z0.0 E0.01
G1 X-0.1941 Y0.0484 Z0.0 E0.01
G1 X-0.1949 Y0.045 Z0.0 E0.01
G1 X-0.1956 Y0.0416 Z0.0 E0.01
G1 X-0.1963 Y0.0382 Z0.0 E0.01
G1 X-0.197 Y0.0347 Z0.0 E0.01
G1 X-0.1975 Y0.0313 Z0.0 E0.01
G1 X-0.1981 Y0.0278 Z0.0 E0.01
G1 X-0.1985 Y0.0244 Z0.0 E0.01
G1 X-0.1989 Y0.0209 Z0.0 E0.01
G1 X-0.1992 Y0.0174 Z0.0 E0.01
G1 X-0.1995 Y0.014 Z0.0 E0.01
G1 X-0.1997 Y0.0105 Z0.0 E0.01
G1 X-0.1999 Y0.007 Z0.0 E0.01
G1 X-0.2 Y0.0035 Z0.0 E0.01
G1 X-0.2 Y-0.0 Z0.0 E0.01
G1 X-0.2 Y-0.0035 Z0.0 E0.01
G1 X-0.1999 Y-0.007 Z0.0 E0.01
G1 X-0.1997 Y-0.0105 Z0.0 E0.01
G1 X-0.1995 Y-0.014 Z0.0 E0.01
G1 X-0.1992 Y-0.0174 Z0.0 E0.01
G1 X-0.1989 Y-0.0209 Z0.0 E0.01
G1 X-0.1985 Y-0.0244 Z0.0 E0.01
G1 X-0.1981 Y-0.0278 Z0.0 E0.01
G1 X-0.1975 Y-0.0313 Z0.0 E0.01
G1 X-0.197 Y-0.0347 Z0.0 E0.01
G1 X-0.1963 Y-0.0382 Z0.0 E0.01
G1 X-0.1956 Y-0.0416 Z0.0 E0.01
G1 X-0.1949 Y-0.045 Z0.0 E0.01
G1 X-0.1941 Y-0.0484 Z0.0 E0.01
G1 X-0.1932 Y-0.0518 Z0.0 E0.01
G1 X-0.1923 Y-0.0551 Z0.0 E0.01
G1 X-0.1913 Y-0.0585 Z0.0 E0.01
G1 X-0.1902 Y-0.0618 Z0.0 E0.01
G1 X-0.1891 Y-0.0651 Z0.0 E0.01
G1 X-0.1879 Y-0.0684 Z0.0 E0.01
G1 X-0.1867 Y-0.0717 Z0.0 E0.01
G1 X-0.1854 Y-0.0749 Z0.0 E0.01
G1 X-0.1841 Y-0.0781 Z0.0 E0.01
G1 X-0.1827 Y-0.0813 Z0.0 E0.01
G1 X-0.1813 Y-0.0845 Z0.0 E0.01
G1 X-0.1798 Y-0.0877 Z0.0 E0.01
G1 X-0.1782 Y-0.0908 Z0.0 E0.01
G1 X-0.1766 Y-0.0939 Z0.0 E0.01
G1 X-0.1749 Y-0.097 Z0.0 E0.01
G1 X-0.1732 Y-0.1 Z0.0 E0.01
G1 X-0.1714 Y-0.103 Z0.0 E0.01
G1 X-0.1696 Y-0.106 Z0.0 E0.01
G1 X-0.1677 Y-0.1089 Z0.0 E0.01
G1 X-0.1658 Y-0.1118 Z0.0 E0.01
G1 X-0.1638 Y-0.1147 Z0.0 E0.01
G1 X-0.1618 Y-0.1176 Z0.0 E0.01
G1 X-0.1597 Y-0.1204 Z0.0 E0.01
G1 X-0.1576 Y-0.1231 Z0.0 E0.01
G1 X-0.1554 Y-0.1259 Z0.0 E0.01
G1 X-0.1532 Y-0.1286 Z0.0 E0.01
G1 X-0.1509 Y-0.1312 Z0.0 E0.01
G1 X-0.1486 Y-0.1338 Z0.0 E0.01
G1 X-0.1463 Y-0.1364 Z0.0 E0.01
G1 X-0.1439 Y-0.1389 Z0.0 E0.01
G1 X-0.1414 Y-0.1414 Z0.0 E0.01
G1 X-0.1389 Y-0.1439 Z0.0 E0.01
G1 X-0.1364 Y-0.1463 Z0.0 E0.01
G1 X-0.1338 Y-0.1486 Z0.0 E0.01
G1 X-0.1312 Y-0.1509 Z0.0 E0.01
G1 X-0.1286 Y-0.1532 Z0.0 E0.01
G1 X-0.1259 Y-0.1554 Z0.0 E0.01
G1 X-0.1231 Y-0.1576 Z0.0 E0.01
G1 X-0.1204 Y-0.1597 Z0.0 E0.01
G1 X-0.1176 Y-0.1618 Z0.0 E0.01
G1 X-0.1147 Y-0.1638 Z0.0 E0.01
G1 X-0.1118 Y-0.1658 Z0.0 E0.01
G1 X-0.1089 Y-0.1677 Z0.0 E0.01
G1 X-0.106 Y-0.1696 Z0.0 E0.01
G1 X-0.103 Y-0.1714 Z0.0 E0.01
G1 X-0.1 Y-0.1732 Z0.0 E0.01
G1 X-0.097 Y-0.1749 Z0.0 E0.01
G1 X-0.0939 Y-0.1766 Z0.0 E0.01
G1 X-0.0908 Y-0.1782 Z0.0 E0.01
G1 X-0.0877 Y-0.1798 Z0.0 E0.01
G1 X-0.0845 Y-0.1813 Z0.0 E0.01
G1 X-0.0813 Y-0.1827 Z0.0 E0.01
G1 X-0.0781 Y-0.1841 Z0.0 E0.01
G1 X-0.0749 Y-0.1854 Z0.0 E0.01
G1 X-0.0717 Y-0.1867 Z0.0 E0.01
G1 X-0.0684 Y-0.1879 Z0.0 E0.01
G1 X-0.0651 Y-0.1891 Z0.0 E0.01
G1 X-0.0618 Y-0.1902 Z0.0 E0.01
G1 X-0.0585 Y-0.1913 Z0.0 E0.01
G1 X-0.0551 Y-0.1923 Z0.0 E0.01
G1 X-0.0518 Y-0.1932 Z0.0 E0.01
G1 X-0.0484 Y-0.1941 Z0.0 E0.01
G1 X-0.045 Y-0.1949 Z0.0 E0.01
G1 X-0.0416 Y-0.1956 Z0.0 E0.01
G1 X-0.0382 Y-0.1963 Z0.0 E0.01
G1 X-0.0347 Y-0.197 Z0.0 E0.01
G1 X-0.0313 Y-0.1975 Z0.0 E0.01
G1 X-0.0278 Y-0.1981 Z0.0 E0.01
G1 X-0.0244 Y-0.1985 Z0.0 E0.01
G1 X-0.0209 Y-0.1989 Z0.0 E0.01
G1 X-0.0174 Y-0.1992 Z0.0 E0.01
G1 X-0.014 Y-0.1995 Z0.0 E0.01
G1 X-0.0105 Y-0.1997 Z0.0 E0.01
G1 X-0.007 Y-0.1999 Z0.0 E0.01
G1 X-0.0035 Y-0.2 Z0.0 E0.01
G1 X-0.0 Y-0.2 Z0.0 E0.01
G1 X2.0 Y-0.0 Z0.0 E0.1
G1 X-2.0 Y0.0 Z-0.0 E0.1
G1 X-0.0035 Y-0.2 Z0.0 E0.01
G1 X-0.007 Y-0.1999 Z0.0 E0.01
G1 X1.9988 Y-0.0698 Z0.0 E0.1
G1 X-1.9988 Y0.0698 Z-0.0 E0.1
G1 X-0.0105 Y-0.1997 Z0.0 E0.01
G1 X-0.014 Y-0.1995 Z0.0 E0.01
G1 X1.9951 Y-0.1395 Z0.0 E0.1
G1 X-1.9951 Y0.1395 Z-0.0 E0.1
G1 X-0.0174 Y-0.1992 Z0.0 E0.01
G1 X-0.0209 Y-0.1989 Z0.0 E0.01
G1 X1.989 Y-0.2091 Z0.0 E0.1
G1 X-1.989 Y0.2091 Z-0.0 E0.1
G1 X-0.0244 Y-0.1985 Z0.0 E0.01
G1 X-0.0278 Y-0.1981 Z0.0 E0.01
G1 X1.9805 Y-0.2783 Z0.0 E0.1
G1 X-1.9805 Y0.2783 Z-0.0 E0.1
G1 X-0.0313 Y-0.1975 Z0.0 E0.01
G1 X-0.0347 Y-0.197 Z0.0 E0.01
G1 X1.9696 Y-0.3473 Z0.0 E0.1
G1 X-1.9696 Y0.3473 Z-0.0 E0.1
G1 X-0.0382 Y-0.1963 Z0.0 E0.01
G1 X-0.0416 Y-0.1956 Z0.0 E0.01
G1 X1.9563 Y-0.4158 Z0.0 E0.1
G1 X-1.9563 Y0.4158 Z-0.0 E0.1
G1 X-0.045 Y-0.1949 Z0.0 E0.01
G1 X-0.0484 Y-0.1941 Z0.0 E0.01
G1 X1.9406 Y-0.4838 Z0.0 E0.1
G1 X-1.9406 Y0.4838 Z-0.0 E0.1
G1 X-0.0518 Y-0.1932 Z0.0 E0.01
G1 X-0.0551 Y-0.1923 Z0.0 E0.01
G1 X1.9225 Y-0.5513 Z0.0 E0.1
G1 X-1.9225 Y0.5513 Z-0.0 E0.1
G1 X-0.0585 Y-0.1913 Z0.0 E0.01
G1 X-0.0618 Y-0.1902 Z0.0 E0.01
G1 X1.9021 Y-0.618 Z0.0 E0.1
G1 X-1.9021 Y0.618 Z-0.0 E0.1
G1 X-0.0651 Y-0.1891 Z0.0 E0.01
G1 X-0.0684 Y-0.1879 Z0.0 E0.01
G1 X1.8794 Y-0.684 Z0.0 E0.1
G1 X-1.8794 Y0.684 Z-0.0 E0.1
G1 X-0.0717 Y-0.1867 Z0.0 E0.01
G1 X-0.0749 Y-0.1854 Z0.0 E0.01
G1 X1.8544 Y-0.7492 Z0.0 E0.1
G1 X-1.8544 Y0.7492 Z-0.0 E0.1
G1 X-0.0781 Y-0.1841 Z0.0 E0.01
G1 X-0.0813 Y-0.1827 Z0.0 E0.01
G1 X1.8271 Y-0.8135 Z0.0 E0.1
G1 X-1.8271 Y0.8135 Z-0.0 E0.1
G1 X-0.0845 Y-0.1813 Z0.0 E0.01
G1 X-0.0877 Y-0.1798 Z0.0 E0.01
G1 X1.7976 Y-0.8767 Z0.0 E0.1
G1 X-1.7976 Y0.8767 Z-0.0 E0.1
G1 X-0.0908 Y-0.1782 Z0.0 E0.01
G1 X-0.0939 Y-0.1766 Z0.0 E0.01
G1 X1.7659 Y-0.9389 Z0.0 E0.1
G1 X-1.7659 Y0.9389 Z-0.0 E0.1
G1 X-0.097 Y-0.1749 Z0.0 E0.01
G1 X-0.1 Y-0.1732 Z0.0 E0.01
G1 X1.7321 Y-1.0 Z0.0 E0.1
G1 X-1.7321 Y1.0 Z-0.0 E0.1
G1 X-0.103 Y-0.1714 Z0.0 E0.01
G1 X-0.106 Y-0.1696 Z0.0 E0.01
G1 X1.6961 Y-1.0598 Z0.0 E0.1
G1 X-1.6961 Y1.0598 Z-0.0 E0.1
G1 X-0.1089 Y-0.1677 Z0.0 E0.01
G1 X-0.1118 Y-0.1658 Z0.0 E0.01
G1 X1.6581 Y-1.1184 Z0.0 E0.1
G1 X-1.6581 Y1.1184 Z-0.0 E0.1
G1 X-0.1147 Y-0.1638 Z0.0 E0.01
G1 X-0.1176 Y-0.1618 Z0.0 E0.01
G1 X1.618 Y-1.1756 Z0.0 E0.1
G1 X-1.618 Y1.1756 Z-0.0 E0.1
G1 X-0.1204 Y-0.1597 Z0.0 E0.01
G1 X-0.1231 Y-0.1576 Z0.0 E0.01
G1 X1.576 Y-1.2313 Z0.0 E0.1
G1 X-1.576 Y1.2313 Z-0.0 E0.1
G1 X-0.1259 Y-0.1554 Z0.0 E0.01
G1 X-0.1286 Y-0.1532 Z0.0 E0.01
G1 X1.5321 Y-1.2856 Z0.0 E0.1
G1 X-1.5321 Y1.2856 Z-0.0 E0.1
G1 X-0.1312 Y-0.1509 Z0.0 E0.01
G1 X-0.1338 Y-0.1486 Z0.0 E0.01
G1 X1.4863 Y-1.3383 Z0.0 E0.1
G1 X-1.4863 Y1.3383 Z-0.0 E0.1
G1 X-0.1364 Y-0.1463 Z0.0 E0.01
G1 X-0.1389 Y-0.1439 Z0.0 E0.01
G1 X1.4387 Y-1.3893 Z0.0 E0.1
G1 X-1.4387 Y1.3893 Z-0.0 E0.1
G1 X-0.1414 Y-0.1414 Z0.0 E0.01
G1 X-0.1439 Y-0.1389 Z0.0 E0.01
G1 X1.3893 Y-1.4387 Z0.0 E0.1
G1 X-1.3893 Y1.4387 Z-0.0 E0.1
G1 X-0.1463 Y-0.1364 Z0.0 E0.01
G1 X-0.1486 Y-0.1338 Z0.0 E0.01
G1 X1.3383 Y-1.4863 Z0.0 E0.1
G1 X-1.3383 Y1.4863 Z-0.0 E0.1
G1 X-0.1509 Y-0.1312 Z0.0 E0.01
G1 X-0.1532 Y-0.1286 Z0.0 E0.01
G1 X1.2856 Y-1.5321 Z0.0 E0.1
G1 X-1.2856 Y1.5321 Z-0.0 E0.1
G1 X-0.1554 Y-0.1259 Z0.0 E0.01
G1 X-0.1576 Y-0.1231 Z0.0 E0.01
G1 X1.2313 Y-1.576 Z0.0 E0.1
G1 X-1.2313 Y1.576 Z-0.0 E0.1
G1 X-0.1597 Y-0.1204 Z0.0 E0.01
G1 X-0.1618 Y-0.1176 Z0.0 E0.01
G1 X1.1756 Y-1.618 Z0.0 E0.1
G1 X-1.1756 Y1.618 Z-0.0 E0.1
G1 X-0.1638 Y-0.1147 Z0.0 E0.01
G1 X-0.1658 Y-0.1118 Z0.0 E0.01
G1 X1.1184 Y-1.6581 Z0.0 E0.1
G1 X-1.1184 Y1.6581 Z-0.0 E0.1
G1 X-0.1677 Y-0.1089 Z0.0 E0.01
G1 X-0.1696 Y-0.106 Z0.0 E0.01
G1 X1.0598 Y-1.6961 Z0.0 E0.1
G1 X-1.0598 Y1.6961 Z-0.0 E0.1
G1 X-0.1714 Y-0.103 Z0.0 E0.01
G1 X-0.1732 Y-0.1 Z0.0 E0.01
G1 X1.0 Y-1.7321 Z0.0 E0.1
G1 X-1.0 Y1.7321 Z-0.0 E0.1
G1 X-0.1749 Y-0.097 Z0.0 E0.01
G1 X-0.1766 Y-0.0939 Z0.0 E0.01
G1 X0.9389 Y-1.7659 Z0.0 E0.1
G1 X-0.9389 Y1.7659 Z-0.0 E0.1
G1 X-0.1782 Y-0.0908 Z0.0 E0.01
G1 X-0.1798 Y-0.0877 Z0.0 E0.01
G1 X0.8767 Y-1.7976 Z0.0 E0.1
G1 X-0.8767 Y1.7976 Z-0.0 E0.1
G1 X-0.1813 Y-0.0845 Z0.0 E0.01
G1 X-0.1827 Y-0.0813 Z0.0 E0.01
G1 X0.8135 Y-1.8271 Z0.0 E0.1
G1 X-0.8135 Y1.8271 Z-0.0 E0.1
G1 X-0.1841 Y-0.0781 Z0.0 E0.01
G1 X-0.1854 Y-0.0749 Z0.0 E0.01
G1 X0.7492 Y-1.8544 Z0.0 E0.1
G1 X-0.7492 Y1.8544 Z-0.0 E0.1
G1 X-0.1867 Y-0.0717 Z0.0 E0.01
G1 X-0.1879 Y-0.0684 Z0.0 E0.01
G1 X0.684 Y-1.8794 Z0.0 E0.1
G1 X-0.684 Y1.8794 Z-0.0 E0.1
G1 X-0.1891 Y-0.0651 Z0.0 E0.01
G1 X-0.1902 Y-0.0618 Z0.0 E0.01
G1 X0.618 Y-1.9021 Z0.0 E0.1
G1 X-0.618 Y1.9021 Z-0.0 E0.1
G1 X-0.1913 Y-0.0585 Z0.0 E0.01
G1 X-0.1923 Y-0.0551 Z0.0 E0.01
G1 X0.5513 Y-1.9225 Z0.0 E0.1
G1 X-0.5513 Y1.9225 Z-0.0 E0.1
G1 X-0.1932 Y-0.0518 Z0.0 E0.01
G1 X-0.1941 Y-0.0484 Z0.0 E0.01
G1 X0.4838 Y-1.9406 Z0.0 E0.1
G1 X-0.4838 Y1.9406 Z-0.0 E0.1
G1 X-0.1949 Y-0.045 Z0.0 E0.01
G1 X-0.1956 Y-0.0416 Z0.0 E0.01
G1 X0.4158 Y-1.9563 Z0.0 E0.1
G1 X-0.4158 Y1.9563 Z-0.0 E0.1
G1 X-0.1963 Y-0.0382 Z0.0 E0.01
G1 X-0.197 Y-0.0347 Z0.0 E0.01
G1 X0.3473 Y-1.9696 Z0.0 E0.1
G1 X-0.3473 Y1.9696 Z-0.0 E0.1
G1 X-0.1975 Y-0.0313 Z0.0 E0.01
G1 X-0.1981 Y-0.0278 Z0.0 E0.01
G1 X0.2783 Y-1.9805 Z0.0 E0.1
G1 X-0.2783 Y1.9805 Z-0.0 E0.1
G1 X-0.1985 Y-0.0244 Z0.0 E0.01
G1 X-0.1989 Y-0.0209 Z0.0 E0.01
G1 X0.2091 Y-1.989 Z0.0 E0.1
G1 X-0.2091 Y1.989 Z-0.0 E0.1
G1 X-0.1992 Y-0.0174 Z0.0 E0.01
G1 X-0.1995 Y-0.014 Z0.0 E0.01
G1 X0.1395 Y-1.9951 Z0.0 E0.1
G1 X-0.1395 Y1.9951 Z-0.0 E0.1
G1 X-0.1997 Y-0.0105 Z0.0 E0.01
G1 X-0.1999 Y-0.007 Z0.0 E0.01
G1 X0.0698 Y-1.9988 Z0.0 E0.1
G1 X-0.0698 Y1.9988 Z-0.0 E0.1
G1 X-0.2 Y-0.0035 Z0.0 E0.01
G1 X-0.2 Y0.0 Z0.0 E0.01
G1 X-0.0 Y-2.0 Z0.0 E0.1
G1 X0.0 Y2.0 Z-0.0 E0.1
G1 X-0.2 Y0.0035 Z0.0 E0.01
G1 X-0.1999 Y0.007 Z0.0 E0.01
G1 X-0.0698 Y-1.9988 Z0.0 E0.1
G1 X0.0698 Y1.9988 Z-0.0 E0.1
G1 X-0.1997 Y0.0105 Z0.0 E0.01
G1 X-0.1995 Y0.014 Z0.0 E0.01
G1 X-0.1395 Y-1.9951 Z0.0 E0.1
G1 X0.1395 Y1.9951 Z-0.0 E0.1
G1 X-0.1992 Y0.0174 Z0.0 E0.01
G1 X-0.1989 Y0.0209 Z0.0 E0.01
G1 X-0.2091 Y-1.989 Z0.0 E0.1
G1 X0.2091 Y1.989 Z-0.0 E0.1
G1 X-0.1985 Y0.0244 Z0.0 E0.01
G1 X-0.1981 Y0.0278 Z0.0 E0.01
G1 X-0.2783 Y-1.9805 Z0.0 E0.1
G1 X0.2783 Y1.9805 Z-0.0 E0.1
G1 X-0.1975 Y0.0313 Z0.0 E0.01
G1 X-0.197 Y0.0347 Z0.0 E0.01
G1 X-0.3473 Y-1.9696 Z0.0 E0.1
G1 X0.3473 Y1.9696 Z-0.0 E0.1
G1 X-0.1963 Y0.0382 Z0.0 E0.01
G1 X-0.1956 Y0.0416 Z0.0 E0.01
G1 X-0.4158 Y-1.9563 Z0.0 E0.1
G1 X0.4158 Y1.9563 Z-0.0 E0.1
G1 X-0.1949 Y0.045 Z0.0 E0.01
G1 X-0.1941 Y0.0484 Z0.0 E0.01
G1 X-0.4838 Y-1.9406 Z0.0 E0.1
G1 X0.4838 Y1.9406 Z-0.0 E0.1
G1 X-0.1932 Y0.0518 Z0.0 E0.01
G1 X-0.1923 Y0.0551 Z0.0 E0.01
G1 X-0.5513 Y-1.9225 Z0.0 E0.1
G1 X0.5513 Y1.9225 Z-0.0 E0.1
G1 X-0.1913 Y0.0585 Z0.0 E0.01
G1 X-0.1902 Y0.0618 Z0.0 E0.01
G1 X-0.618 Y-1.9021 Z0.0 E0.1
G1 X0.618 Y1.9021 Z-0.0 E0.1
G1 X-0.1891 Y0.0651 Z0.0 E0.01
G1 X-0.1879 Y0.0684 Z0.0 E0.01
G1 X-0.684 Y-1.8794 Z0.0 E0.1
G1 X0.684 Y1.8794 Z-0.0 E0.1
G1 X-0.1867 Y0.0717 Z0.0 E0.01
G1 X-0.1854 Y0.0749 Z0.0 E0.01
G1 X-0.7492 Y-1.8544 Z0.0 E0.1
G1 X0.7492 Y1.8544 Z-0.0 E0.1
G1 X-0.1841 Y0.0781 Z0.0 E0.01
G1 X-0.1827 Y0.0813 Z0.0 E0.01
G1 X-0.8135 Y-1.8271 Z0.0 E0.1
G1 X0.8135 Y1.8271 Z-0.0 E0.1
G1 X-0.1813 Y0.0845 Z0.0 E0.01
G1 X-0.1798 Y0.0877 Z0.0 E0.01
G1 X-0.8767 Y-1.7976 Z0.0 E0.1
G1 X0.8767 Y1.7976 Z-0.0 E0.1
G1 X-0.1782 Y0.0908 Z0.0 E0.01
G1 X-0.1766 Y0.0939 Z0.0 E0.01
G1 X-0.9389 Y-1.7659 Z0.0 E0.1
G1 X0.9389 Y1.7659 Z-0.0 E0.1
G1 X-0.1749 Y0.097 Z0.0 E0.01
G1 X-0.1732 Y0.1 Z0.0 E0.01
G1 X-1.0 Y-1.7321 Z0.0 E0.1
G1 X1.0 Y1.7321 Z-0.0 E0.1
G1 X-0.1714 Y0.103 Z0.0 E0.01
G1 X-0.1696 Y0.106 Z0.0 E0.01
G1 X-1.0598 Y-1.6961 Z0.0 E0.1
G1 X1.0598 Y1.6961 Z-0.0 E0.1
G1 X-0.1677 Y0.1089 Z0.0 E0.01
G1 X-0.1658 Y0.1118 Z0.0 E0.01
G1 X-1.1184 Y-1.6581 Z0.0 E0.1
G1 X1.1184 Y1.6581 Z-0.0 E0.1
G1 X-0.1638 Y0.1147 Z0.0 E0.01
G1 X-0.1618 Y0.1176 Z0.0 E0.01
G1 X-1.1756 Y-1.618 Z0.0 E0.1
G1 X1.1756 Y1.618 Z-0.0 E0.1
G1 X-0.1597 Y0.1204 Z0.0 E0.01
G1 X-0.1576 Y0.1231 Z0.0 E0.01
G1 X-1.2313 Y-1.576 Z0.0 E0.1
G1 X1.2313 Y1.576 Z-0.0 E0.1
G1 X-0.1554 Y0.1259 Z0.0 E0.01
G1 X-0.1532 Y0.1286 Z0.0 E0.01
G1 X-1.2856 Y-1.5321 Z0.0 E0.1
G1 X1.2856 Y1.5321 Z-0.0 E0.1
G1 X-0.1509 Y0.1312 Z0.0 E0.01
G1 X-0.1486 Y0.1338 Z0.0 E0.01
G1 X-1.3383 Y-1.4863 Z0.0 E0.1
G1 X1.3383 Y1.4863 Z-0.0 E0.1
G1 X-0.1463 Y0.1364 Z0.0 E0.01
G1 X-0.1439 Y0.1389 Z0.0 E0.01
G1 X-1.3893 Y-1.4387 Z0.0 E0.1
G1 X1.3893 Y1.4387 Z-0.0 E0.1
G1 X-0.1414 Y0.1414 Z0.0 E0.01
G1 X-0.1389 Y0.1439 Z0.0 E0.01
G1 X-1.4387 Y-1.3893 Z0.0 E0.1
G1 X1.4387 Y1.3893 Z-0.0 E0.1
G1 X-0.1364 Y0.1463 Z0.0 E0.01
G1 X-0.1338 Y0.1486 Z0.0 E0.01
G1 X-1.4863 Y-1.3383 Z0.0 E0.1
G1 X1.4863 Y1.3383 Z-0.0 E0.1
G1 X-0.1312 Y0.1509 Z0.0 E0.01
G1 X-0.1286 Y0.1532 Z0.0 E0.01
G1 X-1.5321 Y-1.2856 Z0.0 E0.1
G1 X1.5321 Y1.2856 Z-0.0 E0.1
G1 X-0.1259 Y0.1554 Z0.0 E0.01
G1 X-0.1231 Y0.1576 Z0.0 E0.01
G1 X-1.576 Y-1.2313 Z0.0 E0.1
G1 X1.576 Y1.2313 Z-0.0 E0.1
G1 X-0.1204 Y0.1597 Z0.0 E0.01
G1 X-0.1176 Y0.1618 Z0.0 E0.01
G1 X-1.618 Y-1.1756 Z0.0 E0.1
G1 X1.618 Y1.1756 Z-0.0 E0.1
G1 X-0.1147 Y0.1638 Z0.0 E0.01
G1 X-0.1118 Y0.1658 Z0.0 E0.01
G1 X-1.6581 Y-1.1184 Z0.0 E0.1
G1 X1.6581 Y1.1184 Z-0.0 E0.1
G1 X-0.1089 Y0.1677 Z0.0 E0.01
G1 X-0.106 Y0.1696 Z0.0 E0.01
G1 X-1.6961 Y-1.0598 Z0.0 E0.1
G1 X1.6961 Y1.0598 Z-0.0 E0.1
G1 X-0.103 Y0.1714 Z0.0 E0.01
G1 X-0.1 Y0.1732 Z0.0 E0.01
G1 X-1.7321 Y-1.0 Z0.0 E0.1
G1 X1.7321 Y1.0 Z-0.0 E0.1
G1 X-0.097 Y0.1749 Z0.0 E0.01
G1 X-0.0939 Y0.1766 Z0.0 E0.01
G1 X-1.7659 Y-0.9389 Z0.0 E0.1
G1 X1.7659 Y0.9389 Z-0.0 E0.1
G1 X-0.0908 Y0.1782 Z0.0 E0.01
G1 X-0.0877 Y0.1798 Z0.0 E0.01
G1 X-1.7976 Y-0.8767 Z0.0 E0.1
G1 X1.7976 Y0.8767 Z-0.0 E0.1
G1 X-0.0845 Y0.1813 Z0.0 E0.01
G1 X-0.0813 Y0.1827 Z0.0 E0.01
G1 X-1.8271 Y-0.8135 Z0.0 E0.1
G1 X1.8271 Y0.8135 Z-0.0 E0.1
G1 X-0.0781 Y0.1841 Z0.0 E0.01
G1 X-0.0749 Y0.1854 Z0.0 E0.01
G1 X-1.8544 Y-0.7492 Z0.0 E0.1
G1 X1.8544 Y0.7492 Z-0.0 E0.1
G1 X-0.0717 Y0.1867 Z0.0 E0.01
G1 X-0.0684 Y0.1879 Z0.0 E0.01
G1 X-1.8794 Y-0.684 Z0.0 E0.1
G1 X1.8794 Y0.684 Z-0.0 E0.1
G1 X-0.0651 Y0.1891 Z0.0 E0.01
G1 X-0.0618 Y0.1902 Z0.0 E0.01
G1 X-1.9021 Y-0.618 Z0.0 E0.1
G1 X1.9021 Y0.618 Z-0.0 E0.1
G1 X-0.0585 Y0.1913 Z0.0 E0.01
G1 X-0.0551 Y0.1923 Z0.0 E0.01
G1 X-1.9225 Y-0.5513 Z0.0 E0.1
G1 X1.9225 Y0.5513 Z-0.0 E0.1
G1 X-0.0518 Y0.1932 Z0.0 E0.01
G1 X-0.0484 Y0.1941 Z0.0 E0.01
G1 X-1.9406 Y-0.4838 Z0.0 E0.1
G1 X1.9406 Y0.4838 Z-0.0 E0.1
G1 X-0.045 Y0.1949 Z0.0 E0.01
G1 X-0.0416 Y0.1956 Z0.0 E0.01
G1 X-1.9563 Y-0.4158 Z0.0 E0.1
G1 X1.9563 Y0.4158 Z-0.0 E0.1
G1 X-0.0382 Y0.1963 Z0.0 E0.01
G1 X-0.0347 Y0.197 Z0.0 E0.01
G1 X-1.9696 Y-0.3473 Z0.0 E0.1
G1 X1.9696 Y0.3473 Z-0.0 E0.1
G1 X-0.0313 Y0.1975 Z0.0 E0.01
G1 X-0.0278 Y0.1981 Z0.0 E0.01
G1 X-1.9805 Y-0.2783 Z0.0 E0.1
G1 X1.9805 Y0.2783 Z-0.0 E0.1
G1 X-0.0244 Y0.1985 Z0.0 E0.01
G1 X-0.0209 Y0.1989 Z0.0 E0.01
G1 X-1.989 Y-0.2091 Z0.0 E0.1
G1 X1.989 Y0.2091 Z-0.0 E0.1
G1 X-0.0174 Y0.1992 Z0.0 E0.01
G1 X-0.014 Y0.1995 Z0.0 E0.01
G1 X-1.9951 Y-0.1395 Z0.0 E0.1
G1 X1.9951 Y0.1395 Z-0.0 E0.1
G1 X-0.0105 Y0.1997 Z0.0 E0.01
G1 X-0.007 Y0.1999 Z0.0 E0.01
G1 X-1.9988 Y-0.0698 Z0.0 E0.1
G1 X1.9988 Y0.0698 Z-0.0 E0.1
G1 X-0.0035 Y0.2 Z0.0 E0.01
G1 X0.2 Y-0.0 Z0.0 E0.01
G1 X0.2 Y0.0035 Z0.0 E0.01
G1 X0.1999 Y0.007 Z0.0 E0.01
G1 X0.1997 Y0.0105 Z0.0 E0.01
G1 X0.1995 Y0.014 Z0.0 E0.01
G1 X0.1992 Y0.0174 Z0.0 E0.01
G1 X0.1989 Y0.0209 Z0.0 E0.01
G1 X0.1985 Y0.0244 Z0.0 E0.01
G1 X0.1981 Y0.0278 Z0.0 E0.01
G1 X0.1975 Y0.0313 Z0.0 E0.01
G1 X0.197 Y0.0347 Z0.0 E0.01
G1 X0.1963 Y0.0382 Z0.0 E0.01
G1 X0.1956 Y0.0416 Z0.0 E0.01
G1 X0.1949 Y0.045 Z0.0 E0.01
G1 X0.1941 Y0.0484 Z0.0 E0.01
G1 X0.1932 Y0.0518 Z0.0 E0.01
G1 X0.1923 Y0.0551 Z0.0 E0.01
G1 X0.1913 Y0.0585 Z0.0 E0.01
G1 X0.1902 Y0.0618 Z0.0 E0.01
G1 X0.1891 Y0.0651 Z0.0 E0.01
G1 X0.1879 Y0.0684 Z0.0 E0.01
G1 X0.1867 Y0.0717 Z0.0 E0.01
G1 X0.1854 Y0.0749 Z0.0 E0.01
G1 X0.1841 Y0.0781 Z0.0 E0.01
G1 X0.1827 Y0.0813 Z0.0 E0.01
G1 X0.1813 Y0.0845 Z0.0 E0.01
G1 X0.1798 Y0.0877 Z0.0 E0.01
G1 X0.1782 Y0.0908 Z0.0 E0.01
G1 X0.1766 Y0.0939 Z0.0 E0.01
G1 X0.1749 Y0.097 Z0.0 E0.01
G1 X0.1732 Y0.1 Z0.0 E0.01
G1 X0.1714 Y0.103 Z0.0 E0.01
G1 X0.1696 Y0.106 Z0.0 E0.01
G1 X0.1677 Y0.1089 Z0.0 E0.01
G1 X0.1658 Y0.1118 Z0.0 E0.01
G1 X0.1638 Y0.1147 Z0.0 E0.01
G1 X0.1618 Y0.1176 Z0.0 E0.01
G1 X0.1597 Y0.1204 Z0.0 E0.01
G1 X0.1576 Y0.1231 Z0.0 E0.01
G1 X0.1554 Y0.1259 Z0.0 E0.01
G1 X0.1532 Y0.1286 Z0.0 E0.01
G1 X0.1509 Y0.1312 Z0.0 E0.01
G1 X0.1486 Y0.1338 Z0.0 E0.01
G1 X0.1463 Y0.1364 Z0.0 E0.01
G1 X0.1439 Y0.1389 Z0.0 E0.01
G1 X0.1414 Y0.1414 Z0.0 E0.01
G1 X0.1389 Y0.1439 Z0.0 E0.01
G1 X0.1364 Y0.1463 Z0.0 E0.01
G1 X0.1338 Y0.1486 Z0.0 E0.01
G1 X0.1312 Y0.1509 Z0.0 E0.01
G1 X0.1286 Y0.1532 Z0.0 E0.01
G1 X0.1259 Y0.1554 Z0.0 E0.01
G1 X0.1231 Y0.1576 Z0.0 E0.01
G1 X0.1204 Y0.1597 Z0.0 E0.01
G1 X0.1176 Y0.1618 Z0.0 E0.01
G1 X0.1147 Y0.1638 Z0.0 E0.01
G1 X0.1118 Y0.1658 Z0.0 E0.01
G1 X0.1089 Y0.1677 Z0.0 E0.01
G1 X0.106 Y0.1696 Z0.0 E0.01
G1 X0.103 Y0.1714 Z0.0 E0.01
G1 X0.1 Y0.1732 Z0.0 E0.01
G1 X0.097 Y0.1749 Z0.0 E0.01
G1 X0.0939 Y0.1766 Z0.0 E0.01
G1 X0.0908 Y0.1782 Z0.0 E0.01
G1 X0.0877 Y0.1798 Z0.0 E0.01
G1 X0.0845 Y0.1813 Z0.0 E0.01
G1 X0.0813 Y0.1827 Z0.0 E0.01
G1 X0.0781 Y0.1841 Z0.0 E0.01
G1 X0.0749 Y0.1854 Z0.0 E0.01
G1 X0.0717 Y0.1867 Z0.0 E0.01
G1 X0.0684 Y0.1879 Z0.0 E0.01
G1 X0.0651 Y0.1891 Z0.0 E0.01
G1 X0.0618 Y0.1902 Z0.0 E0.01
G1 X0.0585 Y0.1913 Z0.0 E0.01
G1 X0.0551 Y0.1923 Z0.0 E0.01
G1 X0.0518 Y0.1932 Z0.0 E0.01
G1 X0.0484 Y0.1941 Z0.0 E0.01
G1 X0.045 Y0.1949 Z0.0 E0.01
G1 X0.0416 Y0.1956 Z0.0 E0.01
G1 X0.0382 Y0.1963 Z0.0 E0.01
G1 X0.0347 Y0.197 Z0.0 E0.01
G1 X0.0313 Y0.1975 Z0.0 E0.01
G1 X0.0278 Y0.1981 Z0.0 E0.01
G1 X0.0244 Y0.1985 Z0.0 E0.01
G1 X0.0209 Y0.1989 Z0.0 E0.01
G1 X0.0174 Y0.1992 Z0.0 E0.01
G1 X0.014 Y0.1995 Z0.0 E0.01
G1 X0.0105 Y0.1997 Z0.0 E0.01
G1 X0.007 Y0.1999 Z0.0 E0.01
G1 X0.0035 Y0.2 Z0.0 E0.01
G1 X-0.0 Y0.2 Z0.0 E0.01
G1 X-0.0035 Y0.2 Z0.0 E0.01
G1 X-0.007 Y0.1999 Z0.0 E0.01
G1 X-0.0105 Y0.1997 Z0.0 E0.01
G1 X-0.014 Y0.1995 Z0.0 E0.01
G1 X-0.0174 Y0.1992 Z0.0 E0.01
G1 X-0.0209 Y0.1989 Z0.0 E0.01
G1 X-0.0244 Y0.1985 Z0.0 E0.01
G1 X-0.0278 Y0.1981 Z0.0 E0.01
G1 X-0.0313 Y0.1975 Z0.0 E0.01
G1 X-0.0347 Y0.197 Z0.0 E0.01
G1 X-0.0382 Y0.1963 Z0.0 E0.01
G1 X-0.0416 Y0.1956 Z0.0 E0.01
G1 X-0.045 Y0.1949 Z0.0 E0.01
G1 X-0.0484 Y0.1941 Z0.0 E0.01
G1 X-0.0518 Y0.1932 Z0.0 E0.01
G1 X-0.0551 Y0.1923 Z0.0 E0.01
G1 X-0.0585 Y0.1913 Z0.0 E0.01
G1 X-0.0618 Y0.1902 Z0.0 E0.01
G1 X-0.0651 Y0.1891 Z0.0 E0.01
G1 X-0.0684 Y0.1879 Z0.0 E0.01
G1 X-0.0717 Y0.1867 Z0.0 E0.01
G1 X-0.0749 Y0.1854 Z0.0 E0.01
G1 X-0.0781 Y0.1841 Z0.0 E0.01
G1 X-0.0813 Y0.1827 Z0.0 E0.01
G1 X-0.0845 Y0.1813 Z0.0 E0.01
G1 X-0.0877 Y0.1798 Z0.0 E0.01
G1 X-0.0908 Y0.1782 Z0.0 E0.01
G1 X-0.0939 Y0.1766 Z0.0 E0.01
G1 X-0.097 Y0.1749 Z0.0 E0.01
G1 X-0.1 Y0.1732 Z0.0 E0.01
G1 X-0.103 Y0.1714 Z0.0 E0.01
G1 X-0.106 Y0.1696 Z0.0 E0.01
G1 X-0.1089 Y0.1677 Z0.0 E0.01
G1 X-0.1118 Y0.1658 Z0.0 E0.01
G1 X-0.1147 Y0.1638 Z0.0 E0.01
G1 X-0.1176 Y0.1618 Z0.0 E0.01
G1 X-0.1204 Y0.1597 Z0.0 E0.01
G1 X-0.1231 Y0.1576 Z0.0 E0.01
G1 X-0.1259 Y0.1554 Z0.0 E0.01
G1 X-0.1286 Y0.1532 Z0.0 E0.01
G1 X-0.1312 Y0.1509 Z0.0 E0.01
G1 X-0.1338 Y0.1486 Z0.0 E0.01
G1 X-0.1364 Y0.1463 Z0.0 E0.01
G1 X-0.1389 Y0.1439 Z0.0 E0.01
G1 X-0.1414 Y0.1414 Z0.0 E0.01
G1 X-0.1439 Y0.1389 Z0.0 E0.01
G1 X-0.1463 Y0.1364 Z0.0 E0.01
G1 X-0.1486 Y0.1338 Z0.0 E0.01
G1 X-0.1509 Y0.1312 Z0.0 E0.01
G1 X-0.1532 Y0.1286 Z0.0 E0.01
G1 X-0.1554 Y0.1259 Z0.0 E0.01
G1 X-0.1576 Y0.1231 Z0.0 E0.01
G1 X-0.1597 Y0.1204 Z0.0 E0.01
G1 X-0.1618 Y0.1176 Z0.0 E0.01
G1 X-0.1638 Y0.1147 Z0.0 E0.01
G1 X-0.1658 Y0.1118 Z0.0 E0.01
G1 X-0.1677 Y0.1089 Z0.0 E0.01
G1 X-0.1696 Y0.106 Z0.0 E0.01
G1 X-0.1714 Y0.103 Z0.0 E0.01
G1 X-0.1732 Y0.1 Z0.0 E0.01
G1 X-0.1749 Y0.097 Z0.0 E0.01
G1 X-0.1766 Y0.0939 Z0.0 E0.01
G1 X-0.1782 Y0.0908 Z0.0 E0.01
G1 X-0.1798 Y0.0877 Z0.0 E0.01
G1 X-0.1813 Y0.0845 Z0.0 E0.01
G1 X-0.1827 Y0.0813 Z0.0 E0.01
G1 X-0.1841 Y0.0781 Z0.0 E0.01
G1 X-0.1854 Y0.0749 Z0.0 E0.01
G1 X-0.1867 Y0.0717 Z0.0 E0.01
G1 X-0.1879 Y0.0684 Z0.0 E0.01
G1 X-0.1891 Y0.0651 Z0.0 E0.01
G1 X-0.1902 Y0.0618 Z0.0 E0.01
G1 X-0.1913 Y0.0585 Z0.0 E0.01
G1 X-0.1923 Y0.0551 Z0.0 E0.01
G1 X-0.1932 Y0.0518 Z0.0 E0.01
G1 X-0.1941 Y0.0484 Z0.0 E0.01
G1 X-0.1949 Y0.045 Z0.0 E0.01
G1 X-0.1956 Y0.0416 Z0.0 E0.01
G1 X-0.1963 Y0.0382 Z0.0 E0.01
G1 X-0.197 Y0.0347 Z0.0 E0.01
G1 X-0.1975 Y0.0313 Z0.0 E0.01
G1 X-0.1981 Y0.0278 Z0.0 E0.01
G1 X-0.1985 Y0.0244 Z0.0 E0.01
G1 X-0.1989 Y0.0209 Z0.0 E0.01
G1 X-0.1992 Y0.0174 Z0.0 E0.01
G1 X-0.1995 Y0.014 Z0.0 E0.01
G1 X-0.1997 Y0.0105 Z0.0 E0.01
G1 X-0.1999 Y0.007 Z0.0 E0.01
G1 X-0.2 Y0.0035 Z0.0 E0.01
G1 X-0.2 Y0.0 Z0.0 E0.01
G1 X-0.0 Y-2.0 Z0.0 E0.1
G1 X0.0 Y2.0 Z-0.0 E0.1
G1 X-0.2 Y0.0035 Z0.0 E0.01
G1 X-0.1999 Y0.007 Z0.0 E0.01
G1 X-0.1997 Y0.0105 Z0.0 E0.01
G1 X-0.1995 Y0.014 Z0.0 E0.01
G1 X-0.1992 Y0.0174 Z0.0 E0.01
G1 X-0.1743 Y-1.9924 Z0.0 E0.1
G1 X0.1743 Y1.9924 Z-0.0 E0.1
G1 X-0.1989 Y0.0209 Z0.0 E0.01
G1 X-0.1985 Y0.0244 Z0.0 E0.01
G1 X-0.1981 Y0.0278 Z0.0 E0.01
G1 X-0.1975 Y0.0313 Z0.0 E0.01
G1 X-0.197 Y0.0347 Z0.0 E0.01
G1 X-0.3473 Y-1.9696 Z0.0 E0.1
G1 X0.3473 Y1.9696 Z-0.0 E0.1
G1 X-0.1963 Y0.0382 Z0.0 E0.01
G1 X-0.1956 Y0.0416 Z0.0 E0.01
G1 X-0.1949 Y0.045 Z0.0 E0.01
G1 X-0.1941 Y0.0484 Z0.0 E0.01
G1 X-0.1932 Y0.0518 Z0.0 E0.01
G1 X-0.5176 Y-1.9319 Z0.0 E0.1
G1 X0.5176 Y1.9319 Z-0.0 E0.1
G1 X-0.1923 Y0.0551 Z0.0 E0.01
G1 X-0.1913 Y0.0585 Z0.0 E0.01
G1 X-0.1902 Y0.0618 Z0.0 E0.01
G1 X-0.1891 Y0.0651 Z0.0 E0.01
G1 X-0.1879 Y0.0684 Z0.0 E0.01
G1 X-0.684 Y-1.8794 Z0.0 E0.1
G1 X0.684 Y1.8794 Z-0.0 E0.1
G1 X-0.1867 Y0.0717 Z0.0 E0.01
G1 X-0.1854 Y0.0749 Z0.0 E0.01
G1 X-0.1841 Y0.0781 Z0.0 E0.01
G1 X-0.1827 Y0.0813 Z0.0 E0.01
G1 X-0.1813 Y0.0845 Z0.0 E0.01
G1 X-0.8452 Y-1.8126 Z0.0 E0.1
G1 X0.8452 Y1.8126 Z-0.0 E0.1
G1 X-0.1798 Y0.0877 Z0.0 E0.01
G1 X-0.1782 Y0.0908 Z0.0 E0.01
G1 X-0.1766 Y0.0939 Z0.0 E0.01
G1 X-0.1749 Y0.097 Z0.0 E0.01
G1 X-0.1732 Y0.1 Z0.0 E0.01
G1 X-1.0 Y-1.7321 Z0.0 E0.1
G1 X1.0 Y1.7321 Z-0.0 E0.1
G1 X-0.1714 Y0.103 Z0.0 E0.01
G1 X-0.1696 Y0.106 Z0.0 E0.01
G1 X-0.1677 Y0.1089 Z0.0 E0.01
G1 X-0.1658 Y0.1118 Z0.0 E0.01
G1 X-0.1638 Y0.1147 Z0.0 E0.01
G1 X-1.1472 Y-1.6383 Z0.0 E0.1
G1 X1.1472 Y1.6383 Z-0.0 E0.1
G1 X-0.1618 Y0.1176 Z0.0 E0.01
G1 X-0.1597 Y0.1204 Z0.0 E0.01
G1 X-0.1576 Y0.1231 Z0.0 E0.01
G1 X-0.1554 Y0.1259 Z0.0 E0.01
G1 X-0.1532 Y0.1286 Z0.0 E0.01
G1 X-1.2856 Y-1.5321 Z0.0 E0.1
G1 X1.2856 Y1.5321 Z-0.0 E0.1
G1 X-0.1509 Y0.1312 Z0.0 E0.01
G1 X-0.1486 Y0.1338 Z0.0 E0.01
G1 X-0.1463 Y0.1364 Z0.0 E0.01
G1 X-0.1439 Y0.1389 Z0.0 E0.01
G1 X-0.1414 Y0.1414 Z0.0 E0.01
G1 X-1.4142 Y-1.4142 Z0.0 E0.1
G1 X1.4142 Y1.4142 Z-0.0 E0.1
G1 X-0.1389 Y0.1439 Z0.0 E0.01
G1 X-0.1364 Y0.1463 Z0.0 E0.01
G1 X-0.1338 Y0.1486 Z0.0 E0.01
G1 X-0.1312 Y0.1509 Z0.0 E0.01
G1 X-0.1286 Y0.1532 Z0.0 E0.01
G1 X-1.5321 Y-1.2856 Z0.0 E0.1
G1 X1.5321 Y1.2856 Z-0.0 E0.1
G1 X-0.1259 Y0.1554 Z0.0 E0.01
G1 X-0.1231 Y0.1576 Z0.0 E0.01
G1 X-0.1204 Y0.1597 Z0.0 E0.01
G1 X-0.1176 Y0.1618 Z0.0 E0.01
G1 X-0.1147 Y0.1638 Z0.0 E0.01
G1 X-1.6383 Y-1.1472 Z0.0 E0.1
G1 X1.6383 Y1.1472 Z-0.0 E0.1
G1 X-0.1118 Y0.1658 Z0.0 E0.01
G1 X-0.1089 Y0.1677 Z0.0 E0.01
G1 X-0.106 Y0.1696 Z0.0 E0.01
G1 X-0.103 Y0.1714 Z0.0 E0.01
G1 X-0.1 Y0.1732 Z0.0 E0.01
G1 X-1.7321 Y-1.0 Z0.0 E0.1
G1 X1.7321 Y1.0 Z-0.0 E0.1
G1 X-0.097 Y0.1749 Z0.0 E0.01
G1 X-0.0939 Y0.1766 Z0.0 E0.01
G1 X-0.0908 Y0.1782 Z0.0 E0.01
G1 X-0.0877 Y0.1798 Z0.0 E0.01
G1 X-0.0845 Y0.1813 Z0.0 E0.01
G1 X-1.8126 Y-0.8452 Z0.0 E0.1
G1 X1.8126 Y0.8452 Z-0.0 E0.1
G1 X-0.0813 Y0.1827 Z0.0 E0.01
G1 X-0.0781 Y0.1841 Z0.0 E0.01
G1 X-0.0749 Y0.1854 Z0.0 E0.01
G1 X-0.0717 Y0.1867 Z0.0 E0.01
G1 X-0.0684 Y0.1879 Z0.0 E0.01
G1 X-1.8794 Y-0.684 Z0.0 E0.1
G1 X1.8794 Y0.684 Z-0.0 E0.1
G1 X-0.0651 Y0.1891 Z0.0 E0.01
G1 X-0.0618 Y0.1902 Z0.0 E0.01
G1 X-0.0585 Y0.1913 Z0.0 E0.01
G1 X-0.0551 Y0.1923 Z0.0 E0.01
G1 X-0.0518 Y0.1932 Z0.0 E0.01
G1 X-1.9319 Y-0.5176 Z0.0 E0.1
G1 X1.9319 Y0.5176 Z-0.0 E0.1
G1 X-0.0484 Y0.1941 Z0.0 E0.01
G1 X-0.045 Y0.1949 Z0.0 E0.01
G1 X-0.0416 Y0.1956 Z0.0 E0.01
G1 X-0.0382 Y0.1963 Z0.0 E0.01
G1 X-0.0347 Y0.197 Z0.0 E0.01
G1 X-1.9696 Y-0.3473 Z0.0 E0.1
G1 X1.9696 Y0.3473 Z-0.0 E0.1
G1 X-0.0313 Y0.1975 Z0.0 E0.01
G1 X-0.0278 Y0.1981 Z0.0 E0.01
G1 X-0.0244 Y0.1985 Z0.0 E0.01
G1 X-0.0209 Y0.1989 Z0.0 E0.01
G1 X-0.0174 Y0.1992 Z0.0 E0.01
G1 X-1.9924 Y-0.1743 Z0.0 E0.1
G1 X1.9924 Y0.1743 Z-0.0 E0.1
G1 X-0.014 Y0.1995 Z0.0 E0.01
G1 X-0.0105 Y0.1997 Z0.0 E0.01
G1 X-0.007 Y0.1999 Z0.0 E0.01
G1 X-0.0035 Y0.2 Z0.0 E0.01
G1 X-0.0 Y0.2 Z0.0 E0.01
G1 X-2.0 Y-0.0 Z0.0 E0.1
G1 X2.0 Y0.0 Z-0.0 E0.1
G1 X0.0035 Y0.2 Z0.0 E0.01
G1 X0.007 Y0.1999 Z0.0 E0.01
G1 X0.0105 Y0.1997 Z0.0 E0.01
G1 X0.014 Y0.1995 Z0.0 E0.01
G1 X0.0174 Y0.1992 Z0.0 E0.01
G1 X-1.9924 Y0.1743 Z0.0 E0.1
G1 X1.9924 Y-0.1743 Z-0.0 E0.1
G1 X0.0209 Y0.1989 Z0.0 E0.01
G1 X0.0244 Y0.1985 Z0.0 E0.01
G1 X0.0278 Y0.1981 Z0.0 E0.01
G1 X0.0313 Y0.1975 Z0.0 E0.01
G1 X0.0347 Y0.197 Z0.0 E0.01
G1 X-1.9696 Y0.3473 Z0.0 E0.1
G1 X1.9696 Y-0.3473 Z-0.0 E0.1
G1 X0.0382 Y0.1963 Z0.0 E0.01
G1 X0.0416 Y0.1956 Z0.0 E0.01
G1 X0.045 Y0.1949 Z0.0 E0.01
G1 X0.0484 Y0.1941 Z0.0 E0.01
G1 X0.0518 Y0.1932 Z0.0 E0.01
G1 X-1.9319 Y0.5176 Z0.0 E0.1
G1 X1.9319 Y-0.5176 Z-0.0 E0.1
G1 X0.0551 Y0.1923 Z0.0 E0.01
G1 X0.0585 Y0.1913 Z0.0 E0.01
G1 X0.0618 Y0.1902 Z0.0 E0.01
G1 X0.0651 Y0.1891 Z0.0 E0.01
G1 X0.0684 Y0.1879 Z0.0 E0.01
G1 X-1.8794 Y0.684 Z0.0 E0.1
G1 X1.8794 Y-0.684 Z-0.0 E0.1
G1 X0.0717 Y0.1867 Z0.0 E0.01
G1 X0.0749 Y0.1854 Z0.0 E0.01
G1 X0.0781 Y0.1841 Z0.0 E0.01
G1 X0.0813 Y0.1827 Z0.0 E0.01
G1 X0.0845 Y0.1813 Z0.0 E0.01
G1 X-1.8126 Y0.8452 Z0.0 E0.1
G1 X1.8126 Y-0.8452 Z-0.0 E0.1
G1 X0.0877 Y0.1798 Z0.0 E0.01
G1 X0.0908 Y0.1782 Z0.0 E0.01
G1 X0.0939 Y0.1766 Z0.0 E0.01
G1 X0.097 Y0.1749 Z0.0 E0.01
G1 X0.1 Y0.1732 Z0.0 E0.01
G1 X-1.7321 Y1.0 Z0.0 E0.1
G1 X1.7321 Y-1.0 Z-0.0 E0.1
G1 X0.103 Y0.1714 Z0.0 E0.01
G1 X0.106 Y0.1696 Z0.0 E0.01
G1 X0.1089 Y0.1677 Z0.0 E0.01
G1 X0.1118 Y0.1658 Z0.0 E0.01
G1 X0.1147 Y0.1638 Z0.0 E0.01
G1 X-1.6383 Y1.1472 Z0.0 E0.1
G1 X1.6383 Y-1.1472 Z-0.0 E0.1
G1 X0.1176 Y0.1618 Z0.0 E0.01
G1 X0.1204 Y0.1597 Z0.0 E0.01
G1 X0.1231 Y0.1576 Z0.0 E0.01
G1 X0.1259 Y0.1554 Z0.0 E0.01
G1 X0.1286 Y0.1532 Z0.0 E0.01
G1 X-1.5321 Y1.2856 Z0.0 E0.1
G1 X1.5321 Y-1.2856 Z-0.0 E0.1
G1 X0.1312 Y0.1509 Z0.0 E0.01
G1 X0.1338 Y0.1486 Z0.0 E0.01
G1 X0.1364 Y0.1463 Z0.0 E0.01
G1 X0.1389 Y0.1439 Z0.0 E0.01
G1 X0.1414 Y0.1414 Z0.0 E0.01
G1 X-1.4142 Y1.4142 Z0.0 E0.1
G1 X1.4142 Y-1.4142 Z-0.0 E0.1
G1 X0.1439 Y0.1389 Z0.0 E0.01
G1 X0.1463 Y0.1364 Z0.0 E0.01
G1 X0.1486 Y0.1338 Z0.0 E0.01
G1 X0.1509 Y0.1312 Z0.0 E0.01
G1 X0.1532 Y0.1286 Z0.0 E0.01
G1 X-1.2856 Y1.5321 Z0.0 E0.1
G1 X1.2856 Y-1.5321 Z-0.0 E0.1
G1 X0.1554 Y0.1259 Z0.0 E0.01
G1 X0.1576 Y0.1231 Z0.0 E0.01
G1 X0.1597 Y0.1204 Z0.0 E0.01
G1 X0.1618 Y0.1176 Z0.0 E0.01
G1 X0.1638 Y0.1147 Z0.0 E0.01
G1 X-1.1472 Y1.6383 Z0.0 E0.1
G1 X1.1472 Y-1.6383 Z-0.0 E0.1
G1 X0.1658 Y0.1118 Z0.0 E0.01
G1 X0.1677 Y0.1089 Z0.0 E0.01
G1 X0.1696 Y0.106 Z0.0 E0.01
G1 X0.1714 Y0.103 Z0.0 E0.01
G1 X0.1732 Y0.1 Z0.0 E0.01
G1 X-1.0 Y1.7321 Z0.0 E0.1
G1 X1.0 Y-1.7321 Z-0.0 E0.1
G1 X0.1749 Y0.097 Z0.0 E0.01
G1 X0.1766 Y0.0939 Z0.0 E0.01
G1 X0.1782 Y0.0908 Z0.0 E0.01
G1 X0.1798 Y0.0877 Z0.0 E0.01
G1 X0.1813 Y0.0845 Z0.0 E0.01
G1 X-0.8452 Y1.8126 Z0.0 E0.1
G1 X0.8452 Y-1.8126 Z-0.0 E0.1
G1 X0.1827 Y0.0813 Z0.0 E0.01
G1 X0.1841 Y0.0781 Z0.0 E0.01
G1 X0.1854 Y0.0749 Z0.0 E0.01
G1 X0.1867 Y0.0717 Z0.0 E0.01
G1 X0.1879 Y0.0684 Z0.0 E0.01
G1 X-0.684 Y1.8794 Z0.0 E0.1
G1 X0.684 Y-1.8794 Z-0.0 E0.1
G1 X0.1891 Y0.0651 Z0.0 E0.01
G1 X0.1902 Y0.0618 Z0.0 E0.01
G1 X0.1913 Y0.0585 Z0.0 E0.01
G1 X0.1923 Y0.0551 Z0.0 E0.01
G1 X0.1932 Y0.0518 Z0.0 E0.01
G1 X-0.5176 Y1.9319 Z0.0 E0.1
G1 X0.5176 Y-1.9319 Z-0.0 E0.1
G1 X0.1941 Y0.0484 Z0.0 E0.01
G1 X0.1949 Y0.045 Z0.0 E0.01
G1 X0.1956 Y0.0416 Z0.0 E0.01
G1 X0.1963 Y0.0382 Z0.0 E0.01
G1 X0.197 Y0.0347 Z0.0 E0.01
G1 X-0.3473 Y1.9696 Z0.0 E0.1
G1 X0.3473 Y-1.9696 Z-0.0 E0.1
G1 X0.1975 Y0.0313 Z0.0 E0.01
G1 X0.1981 Y0.0278 Z0.0 E0.01
G1 X0.1985 Y0.0244 Z0.0 E0.01
G1 X0.1989 Y0.0209 Z0.0 E0.01
G1 X0.1992 Y0.0174 Z0.0 E0.01
G1 X-0.1743 Y1.9924 Z0.0 E0.1
G1 X0.1743 Y-1.9924 Z-0.0 E0.1
G1 X0.1995 Y0.014 Z0.0 E0.01
G1 X0.1997 Y0.0105 Z0.0 E0.01
G1 X0.1999 Y0.007 Z0.0 E0.01
G1 X0.2 Y0.0035 Z0.0 E0.01
G1 X-0.0 Y-0.2 Z0.0 E0.01
G1 X0.0035 Y-0.2 Z0.0 E0.01
G1 X0.007 Y-0.1999 Z0.0 E0.01
G1 X0.0105 Y-0.1997 Z0.0 E0.01
G1 X0.014 Y-0.1995 Z0.0 E0.01
G1 X0.0174 Y-0.1992 Z0.0 E0.01
G1 X0.0209 Y-0.1989 Z0.0 E0.01
G1 X0.0244 Y-0.1985 Z0.0 E0.01
G1 X0.0278 Y-0.1981 Z0.0 E0.01
G1 X0.0313 Y-0.1975 Z0.0 E0.01
G1 X0.0347 Y-0.197 Z0.0 E0.01
G1 X0.0382 Y-0.1963 Z0.0 E0.01
G1 X0.0416 Y-0.1956 Z0.0 E0.01
G1 X0.045 Y-0.1949 Z0.0 E0.01
G1 X0.0484 Y-0.1941 Z0.0 E0.01
G1 X0.0518 Y-0.1932 Z0.0 E0.01
G1 X0.0551 Y-0.1923 Z0.0 E0.01
G1 X0.0585 Y-0.1913 Z0.0 E0.01
G1 X0.0618 Y-0.1902 Z0.0 E0.01
G1 X0.0651 Y-0.1891 Z0.0 E0.01
G1 X0.0684 Y-0.1879 Z0.0 E0.01
G1 X0.0717 Y-0.1867 Z0.0 E0.01
G1 X0.0749 Y-0.1854 Z0.0 E0.01
G1 X0.0781 Y-0.1841 Z0.0 E0.01
G1 X0.0813 Y-0.1827 Z0.0 E0.01
G1 X0.0845 Y-0.1813 Z0.0 E0.01
G1 X0.0877 Y-0.1798 Z0.0 E0.01
G1 X0.0908 Y-0.1782 Z0.0 E0.01
G1 X0.0939 Y-0.1766 Z0.0 E0.01
G1 X0.097 Y-0.1749 Z0.0 E0.01
G1 X0.1 Y-0.1732 Z0.0 E0.01
G1 X0.103 Y-0.1714 Z0.0 E0.01
G1 X0.106 Y-0.1696 Z0.0 E0.01
G1 X0.1089 Y-0.1677 Z0.0 E0.01
G1 X0.1118 Y-0.1658 Z0.0 E0.01
G1 X0.1147 Y-0.1638 Z0.0 E0.01
G1 X0.1176 Y-0.1618 Z0.0 E0.01
G1 X0.1204 Y-0.1597 Z0.0 E0.01
G1 X0.1231 Y-0.1576 Z0.0 E0.01
G1 X0.1259 Y-0.1554 Z0.0 E0.01
G1 X0.1286 Y-0.1532 Z0.0 E0.01
G1 X0.1312 Y-0.1509 Z0.0 E0.01
G1 X0.1338 Y-0.1486 Z0.0 E0.01
G1 X0.1364 Y-0.1463 Z0.0 E0.01
G1 X0.1389 Y-0.1439 Z0.0 E0.01
G1 X0.1414 Y-0.1414 Z0.0 E0.01
G1 X0.1439 Y-0.1389 Z0.0 E0.01
G1 X0.1463 Y-0.1364 Z0.0 E0.01
G1 X0.1486 Y-0.1338 Z0.0 E0.01
G1 X0.1509 Y-0.1312 Z0.0 E0.01
G1 X0.1532 Y-0.1286 Z0.0 E0.01
G1 X0.1554 Y-0.1259 Z0.0 E0.01
G1 X0.1576 Y-0.1231 Z0.0 E0.01
G1 X0.1597 Y-0.1204 Z0.0 E0.01
G1 X0.1618 Y-0.1176 Z0.0 E0.01
G1 X0.1638 Y-0.1147 Z0.0 E0.01
G1 X0.1658 Y-0.1118 Z0.0 E0.01
G1 X0.1677 Y-0.1089 Z0.0 E0.01
G1 X0.1696 Y-0.106 Z0.0 E0.01
G1 X0.1714 Y-0.103 Z0.0 E0.01
G1 X0.1732 Y-0.1 Z0.0 E0.01
G1 X0.1749 Y-0.097 Z0.0 E0.01
G1 X0.1766 Y-0.0939 Z0.0 E0.01
G1 X0.1782 Y-0.0908 Z0.0 E0.01
G1 X0.1798 Y-0.0877 Z0.0 E0.01
G1 X0.1813 Y-0.0845 Z0.0 E0.01
G1 X0.1827 Y-0.0813 Z0.0 E0.01
G1 X0.1841 Y-0.0781 Z0.0 E0.01
G1 X0.1854 Y-0.0749 Z0.0 E0.01
G1 X0.1867 Y-0.0717 Z0.0 E0.01
G1 X0.1879 Y-0.0684 Z0.0 E0.01
G1 X0.1891 Y-0.0651 Z0.0 E0.01
G1 X0.1902 Y-0.0618 Z0.0 E0.01
G1 X0.1913 Y-0.0585 Z0.0 E0.01
G1 X0.1923 Y-0.0551 Z0.0 E0.01
G1 X0.1932 Y-0.0518 Z0.0 E0.01
G1 X0.1941 Y-0.0484 Z0.0 E0.01
G1 X0.1949 Y-0.045 Z0.0 E0.01
G1 X0.1956 Y-0.0416 Z0.0 E0.01
G1 X0.1963 Y-0.0382 Z0.0 E0.01
G1 X0.197 Y-0.0347 Z0.0 E0.01
G1 X0.1975 Y-0.0313 Z0.0 E0.01
G1 X0.1981 Y-0.0278 Z0.0 E0.01
G1 X0.1985 Y-0.0244 Z0.0 E0.01
G1 X0.1989 Y-0.0209 Z0.0 E0.01
G1 X0.1992 Y-0.0174 Z0.0 E0.01
G1 X0.1995 Y-0.014 Z0.0 E0.01
G1 X0.1997 Y-0.0105 Z0.0 E0.01
G1 X0.1999 Y-0.007 Z0.0 E0.01
G1 X0.2 Y-0.0035 Z0.0 E0.01
G1 X0.2 Y-0.0 Z0.0 E0.01
G1 X0.2 Y0.0035 Z0.0 E0.01
G1 X0.1999 Y0.007 Z0.0 E0.01
G1 X0.1997 Y0.0105 Z0.0 E0.01
G1 X0.1995 Y0.014 Z0.0 E0.01
G1 X0.1992 Y0.0174 Z0.0 E0.01
G1 X0.1989 Y0.0209 Z0.0 E0.01
G1 X0.1985 Y0.0244 Z0.0 E0.01
G1 X0.1981 Y0.0278 Z0.0 E0.01
G1 X0.1975 Y0.0313 Z0.0 E0.01
G1 X0.197 Y0.0347 Z0.0 E0.01
G1 X0.1963 Y0.0382 Z0.0 E0.01
G1 X0.1956 Y0.0416 Z0.0 E0.01
G1 X0.1949 Y0.045 Z0.0 E0.01
G1 X0.1941 Y0.0484 Z0.0 E0.01
G1 X0.1932 Y0.0518 Z0.0 E0.01
G1 X0.1923 Y0.0551 Z0.0 E0.01
G1 X0.1913 Y0.0585 Z0.0 E0.01
G1 X0.1902 Y0.0618 Z0.0 E0.01
G1 X0.1891 Y0.0651 Z0.0 E0.01
G1 X0.1879 Y0.0684 Z0.0 E0.01
G1 X0.1867 Y0.0717 Z0.0 E0.01
G1 X0.1854 Y0.0749 Z0.0 E0.01
G1 X0.1841 Y0.0781 Z0.0 E0.01
G1 X0.1827 Y0.0813 Z0.0 E0.01
G1 X0.1813 Y0.0845 Z0.0 E0.01
G1 X0.1798 Y0.0877 Z0.0 E0.01
G1 X0.1782 Y0.0908 Z0.0 E0.01
G1 X0.1766 Y0.0939 Z0.0 E0.01
G1 X0.1749 Y0.097 Z0.0 E0.01
G1 X0.1732 Y0.1 Z0.0 E0.01
G1 X0.1714 Y0.103 Z0.0 E0.01
G1 X0.1696 Y0.106 Z0.0 E0.01
G1 X0.1677 Y0.1089 Z0.0 E0.01
G1 X0.1658 Y0.1118 Z0.0 E0.01
G1 X0.1638 Y0.1147 Z0.0 E0.01
G1 X0.1618 Y0.1176 Z0.0 E0.01
G1 X0.1597 Y0.1204 Z0.0 E0.01
G1 X0.1576 Y0.1231 Z0.0 E0.01
G1 X0.1554 Y0.1259 Z0.0 E0.01
G1 X0.1532 Y0.1286 Z0.0 E0.01
G1 X0.1509 Y0.1312 Z0.0 E0.01
G1 X0.1486 Y0.1338 Z0.0 E0.01
G1 X0.1463 Y0.1364 Z0.0 E0.01
G1 X0.1439 Y0.1389 Z0.0 E0.01
G1 X0.1414 Y0.1414 Z0.0 E0.01
G1 X0.1389 Y0.1439 Z0.0 E0.01
G1 X0.1364 Y0.1463 Z0.0 E0.01
G1 X0.1338 Y0.1486 Z0.0 E0.01
G1 X0.1312 Y0.1509 Z0.0 E0.01
G1 X0.1286 Y0.1532 Z0.0 E0.01
G1 X0.1259 Y0.1554 Z0.0 E0.01
G1 X0.1231 Y0.1576 Z0.0 E0.01
G1 X0.1204 Y0.1597 Z0.0 E0.01
G1 X0.1176 Y0.1618 Z0.0 E0.01
G1 X0.1147 Y0.1638 Z0.0 E0.01
G1 X0.1118 Y0.1658 Z0.0 E0.01
G1 X0.1089 Y0.1677 Z0.0 E0.01
G1 X0.106 Y0.1696 Z0.0 E0.01
G1 X0.103 Y0.1714 Z0.0 E0.01
G1 X0.1 Y0.1732 Z0.0 E0.01
G1 X0.097 Y0.1749 Z0.0 E0.01
G1 X0.0939 Y0.1766 Z0.0 E0.01
G1 X0.0908 Y0.1782 Z0.0 E0.01
G1 X0.0877 Y0.1798 Z0.0 E0.01
G1 X0.0845 Y0.1813 Z0.0 E0.01
G1 X0.0813 Y0.1827 Z0.0 E0.01
G1 X0.0781 Y0.1841 Z0.0 E0.01
G1 X0.0749 Y0.1854 Z0.0 E0.01
G1 X0.0717 Y0.1867 Z0.0 E0.01
G1 X0.0684 Y0.1879 Z0.0 E0.01
G1 X0.0651 Y0.1891 Z0.0 E0.01
G1 X0.0618 Y0.1902 Z0.0 E0.01
G1 X0.0585 Y0.1913 Z0.0 E0.01
G1 X0.0551 Y0.1923 Z0.0 E0.01
G1 X0.0518 Y0.1932 Z0.0 E0.01
G1 X0.0484 Y0.1941 Z0.0 E0.01
G1 X0.045 Y0.1949 Z0.0 E0.01
G1 X0.0416 Y0.1956 Z0.0 E0.01
G1 X0.0382 Y0.1963 Z0.0 E0.01
G1 X0.0347 Y0.197 Z0.0 E0.01
G1 X0.0313 Y0.1975 Z0.0 E0.01
G1 X0.0278 Y0.1981 Z0.0 E0.01
G1 X0.0244 Y0.1985 Z0.0 E0.01
G1 X0.0209 Y0.1989 Z0.0 E0.01
G1 X0.0174 Y0.1992 Z0.0 E0.01
G1 X0.014 Y0.1995 Z0.0 E0.01
G1 X0.0105 Y0.1997 Z0.0 E0.01
G1 X0.007 Y0.1999 Z0.0 E0.01
G1 X0.0035 Y0.2 Z0.0 E0.01
G1 X0.0 Y0.2 Z0.0 E0.01
G1 X-2.0 Y0.0 Z0.0 E0.1
G1 X2.0 Y-0.0 Z-0.0 E0.1
G1 X0.0035 Y0.2 Z0.0 E0.01
G1 X0.007 Y0.1999 Z0.0 E0.01
G1 X0.0105 Y0.1997 Z0.0 E0.01
G1 X-1.9973 Y0.1047 Z0.0 E0.1
G1 X1.9973 Y-0.1047 Z-0.0 E0.1
G1 X0.014 Y0.1995 Z0.0 E0.01
G1 X0.0174 Y0.1992 Z0.0 E0.01
G1 X0.0209 Y0.1989 Z0.0 E0.01
G1 X-1.989 Y0.2091 Z0.0 E0.1
G1 X1.989 Y-0.2091 Z-0.0 E0.1
G1 X0.0244 Y0.1985 Z0.0 E0.01
G1 X0.0278 Y0.1981 Z0.0 E0.01
G1 X0.0313 Y0.1975 Z0.0 E0.01
G1 X-1.9754 Y0.3129 Z0.0 E0.1
G1 X1.9754 Y-0.3129 Z-0.0 E0.1
G1 X0.0347 Y0.197 Z0.0 E0.01
G1 X0.0382 Y0.1963 Z0.0 E0.01
G1 X0.0416 Y0.1956 Z0.0 E0.01
G1 X-1.9563 Y0.4158 Z0.0 E0.1
G1 X1.9563 Y-0.4158 Z-0.0 E0.1
G1 X0.045 Y0.1949 Z0.0 E0.01
G1 X0.0484 Y0.1941 Z0.0 E0.01
G1 X0.0518 Y0.1932 Z0.0 E0.01
G1 X-1.9319 Y0.5176 Z0.0 E0.1
G1 X1.9319 Y-0.5176 Z-0.0 E0.1
G1 X0.0551 Y0.1923 Z0.0 E0.01
G1 X0.0585 Y0.1913 Z0.0 E0.01
G1 X0.0618 Y0.1902 Z0.0 E0.01
G1 X-1.9021 Y0.618 Z0.0 E0.1
G1 X1.9021 Y-0.618 Z-0.0 E0.1
G1 X0.0651 Y0.1891 Z0.0 E0.01
G1 X0.0684 Y0.1879 Z0.0 E0.01
G1 X0.0717 Y0.1867 Z0.0 E0.01
G1 X-1.8672 Y0.7167 Z0.0 E0.1
G1 X1.8672 Y-0.7167 Z-0.0 E0.1
G1 X0.0749 Y0.1854 Z0.0 E0.01
G1 X0.0781 Y0.1841 Z0.0 E0.01
G1 X0.0813 Y0.1827 Z0.0 E0.01
G1 X-1.8271 Y0.8135 Z0.0 E0.1
G1 X1.8271 Y-0.8135 Z-0.0 E0.1
G1 X0.0845 Y0.1813 Z0.0 E0.01
G1 X0.0877 Y0.1798 Z0.0 E0.01
G1 X0.0908 Y0.1782 Z0.0 E0.01
G1 X-1.782 Y0.908 Z0.0 E0.1
G1 X1.782 Y-0.908 Z-0.0 E0.1
G1 X0.0939 Y0.1766 Z0.0 E0.01
G1 X0.097 Y0.1749 Z0.0 E0.01
G1 X0.1 Y0.1732 Z0.0 E0.01
G1 X-1.7321 Y1.0 Z0.0 E0.1
G1 X1.7321 Y-1.0 Z-0.0 E0.1
G1 X0.103 Y0.1714 Z0.0 E0.01
G1 X0.106 Y0.1696 Z0.0 E0.01
G1 X0.1089 Y0.1677 Z0.0 E0.01
G1 X-1.6773 Y1.0893 Z0.0 E0.1
G1 X1.6773 Y-1.0893 Z-0.0 E0.1
G1 X0.1118 Y0.1658 Z0.0 E0.01
G1 X0.1147 Y0.1638 Z0.0 E0.01
G1 X0.1176 Y0.1618 Z0.0 E0.01
G1 X-1.618 Y1.1756 Z0.0 E0.1
G1 X1.618 Y-1.1756 Z-0.0 E0.1
G1 X0.1204 Y0.1597 Z0.0 E0.01
G1 X0.1231 Y0.1576 Z0.0 E0.01
G1 X0.1259 Y0.1554 Z0.0 E0.01
G1 X-1.5543 Y1.2586 Z0.0 E0.1
G1 X1.5543 Y-1.2586 Z-0.0 E0.1
G1 X0.1286 Y0.1532 Z0.0 E0.01
G1 X0.1312 Y0.1509 Z0.0 E0.01
G1 X0.1338 Y0.1486 Z0.0 E0.01
G1 X-1.4863 Y1.3383 Z0.0 E0.1
G1 X1.4863 Y-1.3383 Z-0.0 E0.1
G1 X0.1364 Y0.1463 Z0.0 E0.01
G1 X0.1389 Y0.1439 Z0.0 E0.01
G1 X0.1414 Y0.1414 Z0.0 E0.01
G1 X-1.4142 Y1.4142 Z0.0 E0.1
G1 X1.4142 Y-1.4142 Z-0.0 E0.1
G1 X0.1439 Y0.1389 Z0.0 E0.01
G1 X0.1463 Y0.1364 Z0.0 E0.01
G1 X0.1486 Y0.1338 Z0.0 E0.01
G1 X-1.3383 Y1.4863 Z0.0 E0.1
G1 X1.3383 Y-1.4863 Z-0.0 E0.1
G1 X0.1509 Y0.1312 Z0.0 E0.01
G1 X0.1532 Y0.1286 Z0.0 E0.01
G1 X0.1554 Y0.1259 Z0.0 E0.01
G1 X-1.2586 Y1.5543 Z0.0 E0.1
G1 X1.2586 Y-1.5543 Z-0.0 E0.1
G1 X0.1576 Y0.1231 Z0.0 E0.01
G1 X0.1597 Y0.1204 Z0.0 E0.01
G1 X0.1618 Y0.1176 Z0.0 E0.01
G1 X-1.1756 Y1.618 Z0.0 E0.1
G1 X1.1756 Y-1.618 Z-0.0 E0.1
G1 X0.1638 Y0.1147 Z0.0 E0.01
G1 X0.1658 Y0.1118 Z0.0 E0.01
G1 X0.1677 Y0.1089 Z0.0 E0.01
G1 X-1.0893 Y1.6773 Z0.0 E0.1
G1 X1.0893 Y-1.6773 Z-0.0 E0.1
G1 X0.1696 Y0.106 Z0.0 E0.01
G1 X0.1714 Y0.103 Z0.0 E0.01
G1 X0.1732 Y0.1 Z0.0 E0.01
G1 X-1.0 Y1.7321 Z0.0 E0.1
G1 X1.0 Y-1.7321 Z-0.0 E0.1
G1 X0.1749 Y0.097 Z0.0 E0.01
G1 X0.1766 Y0.0939 Z0.0 E0.01
G1 X0.1782 Y0.0908 Z0.0 E0.01
G1 X-0.908 Y1.782 Z0.0 E0.1
G1 X0.908 Y-1.782 Z-0.0 E0.1
G1 X0.1798 Y0.0877 Z0.0 E0.01
G1 X0.1813 Y0.0845 Z0.0 E0.01
G1 X0.1827 Y0.0813 Z0.0 E0.01
G1 X-0.8135 Y1.8271 Z0.0 E0.1
G1 X0.8135 Y-1.8271 Z-0.0 E0.1
G1 X0.1841 Y0.0781 Z0.0 E0.01
G1 X0.1854 Y0.0749 Z0.0 E0.01
G1 X0.1867 Y0.0717 Z0.0 E0.01
G1 X-0.7167 Y1.8672 Z0.0 E0.1
G1 X0.7167 Y-1.8672 Z-0.0 E0.1
G1 X0.1879 Y0.0684 Z0.0 E0.01
G1 X0.1891 Y0.0651 Z0.0 E0.01
G1 X0.1902 Y0.0618 Z0.0 E0.01
G1 X-0.618 Y1.9021 Z0.0 E0.1
G1 X0.618 Y-1.9021 Z-0.0 E0.1
G1 X0.1913 Y0.0585 Z0.0 E0.01
G1 X0.1923 Y0.0551 Z0.0 E0.01
G1 X0.1932 Y0.0518 Z0.0 E0.01
G1 X-0.5176 Y1.9319 Z0.0 E0.1
G1 X0.5176 Y-1.9319 Z-0.0 E0.1
G1 X0.1941 Y0.0484 Z0.0 E0.01
G1 X0.1949 Y0.045 Z0.0 E0.01
G1 X0.1956 Y0.0416 Z0.0 E0.01
G1 X-0.4158 Y1.9563 Z0.0 E0.1
G1 X0.4158 Y-1.9563 Z-0.0 E0.1
G1 X0.1963 Y0.0382 Z0.0 E0.01
G1 X0.197 Y0.0347 Z0.0 E0.01
G1 X0.1975 Y0.0313 Z0.0 E0.01
G1 X-0.3129 Y1.9754 Z0.0 E0.1
G1 X0.3129 Y-1.9754 Z-0.0 E0.1
G1 X0.1981 Y0.0278 Z0.0 E0.01
G1 X0.1985 Y0.0244 Z0.0 E0.01
G1 X0.1989 Y0.0209 Z0.0 E0.01
G1 X-0.2091 Y1.989 Z0.0 E0.1
G1 X0.2091 Y-1.989 Z-0.0 E0.1
G1 X0.1992 Y0.0174 Z0.0 E0.01
G1 X0.1995 Y0.014 Z0.0 E0.01
G1 X0.1997 Y0.0105 Z0.0 E0.01
G1 X-0.1047 Y1.9973 Z0.0 E0.1
G1 X0.1047 Y-1.9973 Z-0.0 E0.1
G1 X0.1999 Y0.007 Z0.0 E0.01
G1 X0.2 Y0.0035 Z0.0 E0.01
G1 X0.2 Y-0.0 Z0.0 E0.01
G1 X0.0 Y2.0 Z0.0 E0.1
G1 X-0.0 Y-2.0 Z-0.0 E0.1
G1 X0.2 Y-0.0035 Z0.0 E0.01
G1 X0.1999 Y-0.007 Z0.0 E0.01
G1 X0.1997 Y-0.0105 Z0.0 E0.01
G1 X0.1047 Y1.9973 Z0.0 E0.1
G1 X-0.1047 Y-1.9973 Z-0.0 E0.1
G1 X0.1995 Y-0.014 Z0.0 E0.01
G1 X0.1992 Y-0.0174 Z0.0 E0.01
G1 X0.1989 Y-0.0209 Z0.0 E0.01
G1 X0.2091 Y1.989 Z0.0 E0.1
G1 X-0.2091 Y-1.989 Z-0.0 E0.1
G1 X0.1985 Y-0.0244 Z0.0 E0.01
G1 X0.1981 Y-0.0278 Z0.0 E0.01
G1 X0.1975 Y-0.0313 Z0.0 E0.01
G1 X0.3129 Y1.9754 Z0.0 E0.1
G1 X-0.3129 Y-1.9754 Z-0.0 E0.1
G1 X0.197 Y-0.0347 Z0.0 E0.01
G1 X0.1963 Y-0.0382 Z0.0 E0.01
G1 X0.1956 Y-0.0416 Z0.0 E0.01
G1 X0.4158 Y1.9563 Z0.0 E0.1
G1 X-0.4158 Y-1.9563 Z-0.0 E0.1
G1 X0.1949 Y-0.045 Z0.0 E0.01
G1 X0.1941 Y-0.0484 Z0.0 E0.01
G1 X0.1932 Y-0.0518 Z0.0 E0.01
G1 X0.5176 Y1.9319 Z0.0 E0.1
G1 X-0.5176 Y-1.9319 Z-0.0 E0.1
G1 X0.1923 Y-0.0551 Z0.0 E0.01
