; *************************************************
; *************************************************
; ******* File generated by Extruder Turtle *******
; ******* written by Leah Buechley and  ***********
; ******* and Franklin Pezutti-Dyer ***************
; **** Hand and Machine Lab, UNM, 2021-present ****
; *************************************************
; *************************************************
; ********** Default printer parameters ***********
; Printer: ender
; Nozzle size: 0.2
; Extrude width: 0.4
; Layer height: 0.2
; Extrude rate: 0.05
; Speed: 1000
; Mix Factor: 0.9
; *************** Ender initialization **************
G92 E0 ; Reset Extruder 
G28 ; Home all axes
G90 ; Absolute coordinates for X,Y,Z   
M190 S60 ; Set bed temperature and wait 
M109 S205 ; Set extruder temperature and wait 
G1 Z2.0 F3000 ; Move Z to 2mm above bed 
G1 X0.1 Y20 Z0.3 F5000.0 ; Move to start position
G1 X0.1 Y200.0 Z0.3 F1500.0 E15 ; Draw the first line
G1 X0.4 Y200.0 Z0.3 F5000.0 ; Move to side a little
G1 X0.4 Y20 Z0.3 F1500.0 E30 ; Draw the second line
G92 E0 ; Reset Extruder
G1 Z2.0 F3000 ; Move Z Axis up little to prevent scratching of Heat Bed 
G1 X5 Y20 Z0.3 F5000.0 ; Move over to prevent blob squish 
G92 E0 ; Reset extruder position to zero 
G1 F300 E-3 
G1 F2000
G1 0 0 .3               ; Lift nozzle above bed a little
G1 X100 Y100 Z.1        ; Go to the starting position 
F300 E3                 ; Extrude to get ready
M83 					; Relative extrustion
G91                     ; Relative coordinates for X,Y,Z axes
G1 F1000
; ********** End printer initialization ***********
; *************************************************

; *************** Begin print *********************
; Changed extrude rate to: 5
; *************************************************************
G1 X12.0 Y0.0 Z0.0 E60.0
G1 X0.0 Y3.0 Z0.0 E15.0
G1 X-0.0 Y-3.0 Z-0.0 E15.0
; Changed extrude rate to: 0.05
; *************************************************************
G1 X0.0 Y0.0 Z0.0 E0.0
; Changed extrude rate to: 5
; *************************************************************
G1 X4.8541 Y-3.5267 Z0.0 E30.0
G1 X1.7634 Y2.4271 Z0.0 E15.0
G1 X-1.7634 Y-2.4271 Z-0.0 E15.0
; Changed extrude rate to: 0.05
; *************************************************************
G1 X4.8541 Y-3.5267 Z0.0 E0.3
; Changed extrude rate to: 5
; *************************************************************
G1 X1.2361 Y-3.8042 Z0.0 E20.0
G1 X2.8532 Y0.9271 Z0.0 E15.0
G1 X-2.8532 Y-0.9271 Z-0.0 E15.0
; Changed extrude rate to: 0.05
; *************************************************************
G1 X2.4721 Y-7.6085 Z0.0 E0.4
; Changed extrude rate to: 5
; *************************************************************
G1 X-3.7082 Y-11.4127 Z0.0 E60.0
G1 X2.8532 Y-0.9271 Z0.0 E15.0
G1 X-2.8532 Y0.9271 Z-0.0 E15.0
; Changed extrude rate to: 0.05
; *************************************************************
G1 X-0.0 Y-0.0 Z0.0 E0.0
; Changed extrude rate to: 5
; *************************************************************
G1 X-7.2812 Y-5.2901 Z0.0 E45.0
G1 X1.7634 Y-2.4271 Z0.0 E15.0
G1 X-1.7634 Y2.4271 Z-0.0 E15.0
; Changed extrude rate to: 0.05
; *************************************************************
G1 X-2.4271 Y-1.7634 Z0.0 E0.15
; Changed extrude rate to: 5
; *************************************************************
G1 X-4.0 Y0.0 Z0.0 E20.0
G1 X-0.0 Y-3.0 Z0.0 E15.0
G1 X0.0 Y3.0 Z-0.0 E15.0
; Changed extrude rate to: 0.05
; *************************************************************
G1 X-8.0 Y0.0 Z0.0 E0.4
; Changed extrude rate to: 5
; *************************************************************
G1 X-2.4271 Y1.7634 Z0.0 E15.0
G1 X-1.7634 Y-2.4271 Z0.0 E15.0
G1 X1.7634 Y2.4271 Z-0.0 E15.0
; Changed extrude rate to: 0.05
; *************************************************************
G1 X-7.2812 Y5.2901 Z0.0 E0.45
; Changed extrude rate to: 5
; *************************************************************
G1 X-3.7082 Y11.4127 Z0.0 E60.0
G1 X-2.8532 Y-0.9271 Z0.0 E15.0
G1 X2.8532 Y0.9271 Z-0.0 E15.0
; Changed extrude rate to: 0.05
; *************************************************************
G1 X-0.0 Y0.0 Z0.0 E0.0
; Changed extrude rate to: 5
; *************************************************************
G1 X0.618 Y1.9021 Z0.0 E10.0
G1 X-2.8532 Y0.9271 Z0.0 E15.0
G1 X2.8532 Y-0.9271 Z-0.0 E15.0
; Changed extrude rate to: 0.05
; *************************************************************
G1 X3.0902 Y9.5106 Z0.0 E0.5
; Changed extrude rate to: 5
; *************************************************************
G1 X4.8541 Y3.5267 Z0.0 E30.0
G1 X-1.7634 Y2.4271 Z0.0 E15.0
G1 X1.7634 Y-2.4271 Z-0.0 E15.0
; Changed extrude rate to: 0.05
; *************************************************************
G1 X4.8541 Y3.5267 Z0.0 E0.3
G1 Z0.2
; Changed extrude rate to: 5
; *************************************************************
G1 X2.0 Y0.0 Z0.0 E10.0
G1 X0.0 Y3.0 Z0.0 E15.0
G1 X-0.0 Y-3.0 Z-0.0 E15.0
; Changed extrude rate to: 0.05
; *************************************************************
G1 X10.0 Y0.0 Z0.0 E0.5
; Changed extrude rate to: 5
; *************************************************************
G1 X7.2812 Y-5.2901 Z0.0 E45.0
G1 X1.7634 Y2.4271 Z0.0 E15.0
G1 X-1.7634 Y-2.4271 Z-0.0 E15.0
; Changed extrude rate to: 0.05
; *************************************************************
G1 X2.4271 Y-1.7634 Z0.0 E0.15
; Changed extrude rate to: 5
; *************************************************************
G1 X2.4721 Y-7.6085 Z0.0 E40.0
G1 X2.8532 Y0.9271 Z0.0 E15.0
G1 X-2.8532 Y-0.9271 Z-0.0 E15.0
; Changed extrude rate to: 0.05
; *************************************************************
G1 X1.2361 Y-3.8042 Z0.0 E0.2
; Changed extrude rate to: 5
; *************************************************************
G1 X-3.7082 Y-11.4127 Z0.0 E60.0
G1 X2.8532 Y-0.9271 Z0.0 E15.0
G1 X-2.8532 Y0.9271 Z-0.0 E15.0
; Changed extrude rate to: 0.05
; *************************************************************
G1 X-0.0 Y-0.0 Z0.0 E0.0
; Changed extrude rate to: 5
; *************************************************************
G1 X-9.7082 Y-7.0534 Z0.0 E60.0
G1 X1.7634 Y-2.4271 Z0.0 E15.0
G1 X-1.7634 Y2.4271 Z-0.0 E15.0
; Changed extrude rate to: 0.05
; *************************************************************
G1 X-0.0 Y-0.0 Z0.0 E0.0
; Changed extrude rate to: 5
; *************************************************************
G1 X-10.0 Y0.0 Z0.0 E50.0
G1 X-0.0 Y-3.0 Z0.0 E15.0
G1 X0.0 Y3.0 Z-0.0 E15.0
; Changed extrude rate to: 0.05
; *************************************************************
G1 X-2.0 Y0.0 Z0.0 E0.1
; Changed extrude rate to: 5
; *************************************************************
G1 X-3.2361 Y2.3511 Z0.0 E20.0
G1 X-1.7634 Y-2.4271 Z0.0 E15.0
G1 X1.7634 Y2.4271 Z-0.0 E15.0
; Changed extrude rate to: 0.05
; *************************************************************
G1 X-6.4721 Y4.7023 Z0.0 E0.4
; Changed extrude rate to: 5
; *************************************************************
G1 X-3.7082 Y11.4127 Z0.0 E60.0
G1 X-2.8532 Y-0.9271 Z0.0 E15.0
G1 X2.8532 Y0.9271 Z-0.0 E15.0
; Changed extrude rate to: 0.05
; *************************************************************
G1 X-0.0 Y0.0 Z0.0 E0.0
; Changed extrude rate to: 5
; *************************************************************
G1 X0.9271 Y2.8532 Z0.0 E15.0
G1 X-2.8532 Y0.9271 Z0.0 E15.0
G1 X2.8532 Y-0.9271 Z-0.0 E15.0
; Changed extrude rate to: 0.05
; *************************************************************
G1 X2.7812 Y8.5595 Z0.0 E0.45
; Changed extrude rate to: 5
; *************************************************************
G1 X0.809 Y0.5878 Z0.0 E5.0
G1 X-1.7634 Y2.4271 Z0.0 E15.0
G1 X1.7634 Y-2.4271 Z-0.0 E15.0
; Changed extrude rate to: 0.05
; *************************************************************
G1 X8.8992 Y6.4656 Z0.0 E0.55
G1 Z0.2
; Changed extrude rate to: 5
; *************************************************************
G1 X4.0 Y0.0 Z0.0 E20.0
G1 X0.0 Y3.0 Z0.0 E15.0
G1 X-0.0 Y-3.0 Z-0.0 E15.0
; Changed extrude rate to: 0.05
; *************************************************************
G1 X8.0 Y0.0 Z0.0 E0.4
; Changed extrude rate to: 5
; *************************************************************
G1 X9.7082 Y-7.0534 Z0.0 E60.0
G1 X1.7634 Y2.4271 Z0.0 E15.0
G1 X-1.7634 Y-2.4271 Z-0.0 E15.0
; Changed extrude rate to: 0.05
; *************************************************************
G1 X0.0 Y-0.0 Z0.0 E0.0
; Changed extrude rate to: 5
; *************************************************************
G1 X0.618 Y-1.9021 Z0.0 E10.0
G1 X2.8532 Y0.9271 Z0.0 E15.0
G1 X-2.8532 Y-0.9271 Z-0.0 E15.0
; Changed extrude rate to: 0.05
; *************************************************************
G1 X3.0902 Y-9.5106 Z0.0 E0.5
; Changed extrude rate to: 5
; *************************************************************
G1 X-0.618 Y-1.9021 Z0.0 E10.0
G1 X2.8532 Y-0.9271 Z0.0 E15.0
G1 X-2.8532 Y0.9271 Z-0.0 E15.0
; Changed extrude rate to: 0.05
; *************************************************************
G1 X-3.0902 Y-9.5106 Z0.0 E0.5
; Changed extrude rate to: 5
; *************************************************************
G1 X-1.618 Y-1.1756 Z0.0 E10.0
G1 X1.7634 Y-2.4271 Z0.0 E15.0
G1 X-1.7634 Y2.4271 Z-0.0 E15.0
; Changed extrude rate to: 0.05
; *************************************************************
G1 X-8.0902 Y-5.8779 Z0.0 E0.5
; Changed extrude rate to: 5
; *************************************************************
G1 X-5.0 Y0.0 Z0.0 E25.0
G1 X-0.0 Y-3.0 Z0.0 E15.0
G1 X0.0 Y3.0 Z-0.0 E15.0
; Changed extrude rate to: 0.05
; *************************************************************
G1 X-7.0 Y0.0 Z0.0 E0.35
; Changed extrude rate to: 5
; *************************************************************
G1 X-9.7082 Y7.0534 Z0.0 E60.0
G1 X-1.7634 Y-2.4271 Z0.0 E15.0
G1 X1.7634 Y2.4271 Z-0.0 E15.0
; Changed extrude rate to: 0.05
; *************************************************************
G1 X-0.0 Y0.0 Z0.0 E0.0
; Changed extrude rate to: 5
; *************************************************************
G1 X-2.4721 Y7.6085 Z0.0 E40.0
G1 X-2.8532 Y-0.9271 Z0.0 E15.0
G1 X2.8532 Y0.9271 Z-0.0 E15.0
; Changed extrude rate to: 0.05
; *************************************************************
G1 X-1.2361 Y3.8042 Z0.0 E0.2
; Changed extrude rate to: 5
; *************************************************************
G1 X0.618 Y1.9021 Z0.0 E10.0
G1 X-2.8532 Y0.9271 Z0.0 E15.0
G1 X2.8532 Y-0.9271 Z-0.0 E15.0
; Changed extrude rate to: 0.05
; *************************************************************
G1 X3.0902 Y9.5106 Z0.0 E0.5
; Changed extrude rate to: 5
; *************************************************************
G1 X9.7082 Y7.0534 Z0.0 E60.0
G1 X-1.7634 Y2.4271 Z0.0 E15.0
G1 X1.7634 Y-2.4271 Z-0.0 E15.0
; Changed extrude rate to: 0.05
; *************************************************************
G1 X0.0 Y0.0 Z0.0 E0.0
G1 Z0.2
; Changed extrude rate to: 5
; *************************************************************
G1 X10.0 Y0.0 Z0.0 E50.0
G1 X0.0 Y3.0 Z0.0 E15.0
G1 X-0.0 Y-3.0 Z-0.0 E15.0
; Changed extrude rate to: 0.05
; *************************************************************
G1 X2.0 Y0.0 Z0.0 E0.1
; Changed extrude rate to: 5
; *************************************************************
G1 X3.2361 Y-2.3511 Z0.0 E20.0
G1 X1.7634 Y2.4271 Z0.0 E15.0
G1 X-1.7634 Y-2.4271 Z-0.0 E15.0
; Changed extrude rate to: 0.05
; *************************************************************
G1 X6.4721 Y-4.7023 Z0.0 E0.4
; Changed extrude rate to: 5
; *************************************************************
G1 X3.3992 Y-10.4616 Z0.0 E55.0
G1 X2.8532 Y0.9271 Z0.0 E15.0
G1 X-2.8532 Y-0.9271 Z-0.0 E15.0
; Changed extrude rate to: 0.05
; *************************************************************
G1 X0.309 Y-0.9511 Z0.0 E0.05
; Changed extrude rate to: 5
; *************************************************************
G1 X-0.618 Y-1.9021 Z0.0 E10.0
G1 X2.8532 Y-0.9271 Z0.0 E15.0
G1 X-2.8532 Y0.9271 Z-0.0 E15.0
; Changed extrude rate to: 0.05
; *************************************************************
G1 X-3.0902 Y-9.5106 Z0.0 E0.5
; Changed extrude rate to: 5
; *************************************************************
G1 X-0.809 Y-0.5878 Z0.0 E5.0
G1 X1.7634 Y-2.4271 Z0.0 E15.0
G1 X-1.7634 Y2.4271 Z-0.0 E15.0
; Changed extrude rate to: 0.05
; *************************************************************
G1 X-8.8992 Y-6.4656 Z0.0 E0.55
; Changed extrude rate to: 5
; *************************************************************
G1 X-10.0 Y0.0 Z0.0 E50.0
G1 X-0.0 Y-3.0 Z0.0 E15.0
G1 X0.0 Y3.0 Z-0.0 E15.0
; Changed extrude rate to: 0.05
; *************************************************************
G1 X-2.0 Y0.0 Z0.0 E0.1
; Changed extrude rate to: 5
; *************************************************************
G1 X-9.7082 Y7.0534 Z0.0 E60.0
G1 X-1.7634 Y-2.4271 Z0.0 E15.0
G1 X1.7634 Y2.4271 Z-0.0 E15.0
; Changed extrude rate to: 0.05
; *************************************************************
G1 X-0.0 Y0.0 Z0.0 E0.0
; Changed extrude rate to: 5
; *************************************************************
G1 X-0.309 Y0.9511 Z0.0 E5.0
G1 X-2.8532 Y-0.9271 Z0.0 E15.0
G1 X2.8532 Y0.9271 Z-0.0 E15.0
; Changed extrude rate to: 0.05
; *************************************************************
G1 X-3.3992 Y10.4616 Z0.0 E0.55
; Changed extrude rate to: 5
; *************************************************************
G1 X1.2361 Y3.8042 Z0.0 E20.0
G1 X-2.8532 Y0.9271 Z0.0 E15.0
G1 X2.8532 Y-0.9271 Z-0.0 E15.0
; Changed extrude rate to: 0.05
; *************************************************************
G1 X2.4721 Y7.6085 Z0.0 E0.4
; Changed extrude rate to: 5
; *************************************************************
G1 X8.0902 Y5.8779 Z0.0 E50.0
G1 X-1.7634 Y2.4271 Z0.0 E15.0
G1 X1.7634 Y-2.4271 Z-0.0 E15.0
; Changed extrude rate to: 0.05
; *************************************************************
G1 X1.618 Y1.1756 Z0.0 E0.1
G1 Z0.2
; Changed extrude rate to: 5
; *************************************************************
G1 X1.0 Y0.0 Z0.0 E5.0
G1 X0.0 Y3.0 Z0.0 E15.0
G1 X-0.0 Y-3.0 Z-0.0 E15.0
; Changed extrude rate to: 0.05
; *************************************************************
G1 X11.0 Y0.0 Z0.0 E0.55
; Changed extrude rate to: 5
; *************************************************************
G1 X6.4721 Y-4.7023 Z0.0 E40.0
G1 X1.7634 Y2.4271 Z0.0 E15.0
G1 X-1.7634 Y-2.4271 Z-0.0 E15.0
; Changed extrude rate to: 0.05
; *************************************************************
G1 X3.2361 Y-2.3511 Z0.0 E0.2
; Changed extrude rate to: 5
; *************************************************************
G1 X1.8541 Y-5.7063 Z0.0 E30.0
G1 X2.8532 Y0.9271 Z0.0 E15.0
G1 X-2.8532 Y-0.9271 Z-0.0 E15.0
; Changed extrude rate to: 0.05
; *************************************************************
G1 X1.8541 Y-5.7063 Z0.0 E0.3
; Changed extrude rate to: 5
; *************************************************************
G1 X-1.8541 Y-5.7063 Z0.0 E30.0
G1 X2.8532 Y-0.9271 Z0.0 E15.0
G1 X-2.8532 Y0.9271 Z-0.0 E15.0
; Changed extrude rate to: 0.05
; *************************************************************
G1 X-1.8541 Y-5.7063 Z0.0 E0.3
; Changed extrude rate to: 5
; *************************************************************
G1 X-6.4721 Y-4.7023 Z0.0 E40.0
G1 X1.7634 Y-2.4271 Z0.0 E15.0
G1 X-1.7634 Y2.4271 Z-0.0 E15.0
; Changed extrude rate to: 0.05
; *************************************************************
G1 X-3.2361 Y-2.3511 Z0.0 E0.2
; Changed extrude rate to: 5
; *************************************************************
G1 X-12.0 Y0.0 Z0.0 E60.0
G1 X-0.0 Y-3.0 Z0.0 E15.0
G1 X0.0 Y3.0 Z-0.0 E15.0
; Changed extrude rate to: 0.05
; *************************************************************
G1 X-0.0 Y0.0 Z0.0 E0.0
; Changed extrude rate to: 5
; *************************************************************
G1 X-8.8992 Y6.4656 Z0.0 E55.0
G1 X-1.7634 Y-2.4271 Z0.0 E15.0
G1 X1.7634 Y2.4271 Z-0.0 E15.0
; Changed extrude rate to: 0.05
; *************************************************************
G1 X-0.809 Y0.5878 Z0.0 E0.05
; Changed extrude rate to: 5
; *************************************************************
G1 X-3.7082 Y11.4127 Z0.0 E60.0
G1 X-2.8532 Y-0.9271 Z0.0 E15.0
G1 X2.8532 Y0.9271 Z-0.0 E15.0
; Changed extrude rate to: 0.05
; *************************************************************
G1 X-0.0 Y0.0 Z0.0 E0.0
; Changed extrude rate to: 5
; *************************************************************
G1 X1.8541 Y5.7063 Z0.0 E30.0
G1 X-2.8532 Y0.9271 Z0.0 E15.0
G1 X2.8532 Y-0.9271 Z-0.0 E15.0
; Changed extrude rate to: 0.05
; *************************************************************
G1 X1.8541 Y5.7063 Z0.0 E0.3
; Changed extrude rate to: 5
; *************************************************************
G1 X3.2361 Y2.3511 Z0.0 E20.0
G1 X-1.7634 Y2.4271 Z0.0 E15.0
G1 X1.7634 Y-2.4271 Z-0.0 E15.0
; Changed extrude rate to: 0.05
; *************************************************************
G1 X6.4721 Y4.7023 Z0.0 E0.4
G1 Z0.2
; Changed extrude rate to: 5
; *************************************************************
G1 X2.0 Y0.0 Z0.0 E10.0
G1 X0.0 Y3.0 Z0.0 E15.0
G1 X-0.0 Y-3.0 Z-0.0 E15.0
; Changed extrude rate to: 0.05
; *************************************************************
G1 X10.0 Y0.0 Z0.0 E0.5
; Changed extrude rate to: 5
; *************************************************************
G1 X4.8541 Y-3.5267 Z0.0 E30.0
G1 X1.7634 Y2.4271 Z0.0 E15.0
G1 X-1.7634 Y-2.4271 Z-0.0 E15.0
; Changed extrude rate to: 0.05
; *************************************************************
G1 X4.8541 Y-3.5267 Z0.0 E0.3
; Changed extrude rate to: 5
; *************************************************************
G1 X0.9271 Y-2.8532 Z0.0 E15.0
G1 X2.8532 Y0.9271 Z0.0 E15.0
G1 X-2.8532 Y-0.9271 Z-0.0 E15.0
; Changed extrude rate to: 0.05
; *************************************************************
G1 X2.7812 Y-8.5595 Z0.0 E0.45
; Changed extrude rate to: 5
; *************************************************************
G1 X-1.5451 Y-4.7553 Z0.0 E25.0
G1 X2.8532 Y-0.9271 Z0.0 E15.0
G1 X-2.8532 Y0.9271 Z-0.0 E15.0
; Changed extrude rate to: 0.05
; *************************************************************
G1 X-2.1631 Y-6.6574 Z0.0 E0.35
; Changed extrude rate to: 5
; *************************************************************
G1 X-1.618 Y-1.1756 Z0.0 E10.0
G1 X1.7634 Y-2.4271 Z0.0 E15.0
G1 X-1.7634 Y2.4271 Z-0.0 E15.0
; Changed extrude rate to: 0.05
; *************************************************************
G1 X-8.0902 Y-5.8779 Z0.0 E0.5
; Changed extrude rate to: 5
; *************************************************************
G1 X-6.0 Y0.0 Z0.0 E30.0
G1 X-0.0 Y-3.0 Z0.0 E15.0
G1 X0.0 Y3.0 Z-0.0 E15.0
; Changed extrude rate to: 0.05
; *************************************************************
G1 X-6.0 Y0.0 Z0.0 E0.3
; Changed extrude rate to: 5
; *************************************************************
G1 X-4.0451 Y2.9389 Z0.0 E25.0
G1 X-1.7634 Y-2.4271 Z0.0 E15.0
G1 X1.7634 Y2.4271 Z-0.0 E15.0
; Changed extrude rate to: 0.05
; *************************************************************
G1 X-5.6631 Y4.1145 Z0.0 E0.35
; Changed extrude rate to: 5
; *************************************************************
G1 X-0.618 Y1.9021 Z0.0 E10.0
G1 X-2.8532 Y-0.9271 Z0.0 E15.0
G1 X2.8532 Y0.9271 Z-0.0 E15.0
; Changed extrude rate to: 0.05
; *************************************************************
G1 X-3.0902 Y9.5106 Z0.0 E0.5
; Changed extrude rate to: 5
; *************************************************************
G1 X0.309 Y0.9511 Z0.0 E5.0
G1 X-2.8532 Y0.9271 Z0.0 E15.0
G1 X2.8532 Y-0.9271 Z-0.0 E15.0
; Changed extrude rate to: 0.05
; *************************************************************
G1 X3.3992 Y10.4616 Z0.0 E0.55
; Changed extrude rate to: 5
; *************************************************************
G1 X2.4271 Y1.7634 Z0.0 E15.0
G1 X-1.7634 Y2.4271 Z0.0 E15.0
G1 X1.7634 Y-2.4271 Z-0.0 E15.0
; Changed extrude rate to: 0.05
; *************************************************************
G1 X7.2812 Y5.2901 Z0.0 E0.45
G1 Z0.2
; Changed extrude rate to: 5
; *************************************************************
G1 X12.0 Y0.0 Z0.0 E60.0
G1 X0.0 Y3.0 Z0.0 E15.0
G1 X-0.0 Y-3.0 Z-0.0 E15.0
; Changed extrude rate to: 0.05
; *************************************************************
G1 X0.0 Y0.0 Z0.0 E0.0
; Changed extrude rate to: 5
; *************************************************************
G1 X7.2812 Y-5.2901 Z0.0 E45.0
G1 X1.7634 Y2.4271 Z0.0 E15.0
G1 X-1.7634 Y-2.4271 Z-0.0 E15.0
; Changed extrude rate to: 0.05
; *************************************************************
G1 X2.4271 Y-1.7634 Z0.0 E0.15
; Changed extrude rate to: 5
; *************************************************************
G1 X0.9271 Y-2.8532 Z0.0 E15.0
G1 X2.8532 Y0.9271 Z0.0 E15.0
G1 X-2.8532 Y-0.9271 Z-0.0 E15.0
; Changed extrude rate to: 0.05
; *************************************************************
G1 X2.7812 Y-8.5595 Z0.0 E0.45
; Changed extrude rate to: 5
; *************************************************************
G1 X-3.7082 Y-11.4127 Z0.0 E60.0
G1 X2.8532 Y-0.9271 Z0.0 E15.0
G1 X-2.8532 Y0.9271 Z-0.0 E15.0
; Changed extrude rate to: 0.05
; *************************************************************
G1 X-0.0 Y-0.0 Z0.0 E0.0
; Changed extrude rate to: 5
; *************************************************************
G1 X-4.8541 Y-3.5267 Z0.0 E30.0
G1 X1.7634 Y-2.4271 Z0.0 E15.0
G1 X-1.7634 Y2.4271 Z-0.0 E15.0
; Changed extrude rate to: 0.05
; *************************************************************
G1 X-4.8541 Y-3.5267 Z0.0 E0.3
; Changed extrude rate to: 5
; *************************************************************
G1 X-2.0 Y0.0 Z0.0 E10.0
G1 X-0.0 Y-3.0 Z0.0 E15.0
G1 X0.0 Y3.0 Z-0.0 E15.0
; Changed extrude rate to: 0.05
; *************************************************************
G1 X-10.0 Y0.0 Z0.0 E0.5
; Changed extrude rate to: 5
; *************************************************************
G1 X-9.7082 Y7.0534 Z0.0 E60.0
G1 X-1.7634 Y-2.4271 Z0.0 E15.0
G1 X1.7634 Y2.4271 Z-0.0 E15.0
; Changed extrude rate to: 0.05
; *************************************************************
G1 X-0.0 Y0.0 Z0.0 E0.0
; Changed extrude rate to: 5
; *************************************************************
G1 X-2.4721 Y7.6085 Z0.0 E40.0
G1 X-2.8532 Y-0.9271 Z0.0 E15.0
G1 X2.8532 Y0.9271 Z-0.0 E15.0
; Changed extrude rate to: 0.05
; *************************************************************
G1 X-1.2361 Y3.8042 Z0.0 E0.2
; Changed extrude rate to: 5
; *************************************************************
G1 X2.4721 Y7.6085 Z0.0 E40.0
G1 X-2.8532 Y0.9271 Z0.0 E15.0
G1 X2.8532 Y-0.9271 Z-0.0 E15.0
; Changed extrude rate to: 0.05
; *************************************************************
G1 X1.2361 Y3.8042 Z0.0 E0.2
; Changed extrude rate to: 5
; *************************************************************
G1 X5.6631 Y4.1145 Z0.0 E35.0
G1 X-1.7634 Y2.4271 Z0.0 E15.0
G1 X1.7634 Y-2.4271 Z-0.0 E15.0
; Changed extrude rate to: 0.05
; *************************************************************
G1 X4.0451 Y2.9389 Z0.0 E0.25
G1 Z0.2
; Changed extrude rate to: 5
; *************************************************************
G1 X7.0 Y0.0 Z0.0 E35.0
G1 X0.0 Y3.0 Z0.0 E15.0
G1 X-0.0 Y-3.0 Z-0.0 E15.0
; Changed extrude rate to: 0.05
; *************************************************************
G1 X5.0 Y0.0 Z0.0 E0.25
; Changed extrude rate to: 5
; *************************************************************
G1 X1.618 Y-1.1756 Z0.0 E10.0
G1 X1.7634 Y2.4271 Z0.0 E15.0
G1 X-1.7634 Y-2.4271 Z-0.0 E15.0
; Changed extrude rate to: 0.05
; *************************************************************
G1 X8.0902 Y-5.8779 Z0.0 E0.5
; Changed extrude rate to: 5
; *************************************************************
G1 X1.2361 Y-3.8042 Z0.0 E20.0
G1 X2.8532 Y0.9271 Z0.0 E15.0
G1 X-2.8532 Y-0.9271 Z-0.0 E15.0
; Changed extrude rate to: 0.05
; *************************************************************
G1 X2.4721 Y-7.6085 Z0.0 E0.4
; Changed extrude rate to: 5
; *************************************************************
G1 X-3.0902 Y-9.5106 Z0.0 E50.0
G1 X2.8532 Y-0.9271 Z0.0 E15.0
G1 X-2.8532 Y0.9271 Z-0.0 E15.0
; Changed extrude rate to: 0.05
; *************************************************************
G1 X-0.618 Y-1.9021 Z0.0 E0.1
; Changed extrude rate to: 5
; *************************************************************
G1 X-4.0451 Y-2.9389 Z0.0 E25.0
G1 X1.7634 Y-2.4271 Z0.0 E15.0
G1 X-1.7634 Y2.4271 Z-0.0 E15.0
; Changed extrude rate to: 0.05
; *************************************************************
G1 X-5.6631 Y-4.1145 Z0.0 E0.35
; Changed extrude rate to: 5
; *************************************************************
G1 X-6.0 Y0.0 Z0.0 E30.0
G1 X-0.0 Y-3.0 Z0.0 E15.0
G1 X0.0 Y3.0 Z-0.0 E15.0
; Changed extrude rate to: 0.05
; *************************************************************
G1 X-6.0 Y0.0 Z0.0 E0.3
; Changed extrude rate to: 5
; *************************************************************
G1 X-9.7082 Y7.0534 Z0.0 E60.0
G1 X-1.7634 Y-2.4271 Z0.0 E15.0
G1 X1.7634 Y2.4271 Z-0.0 E15.0
; Changed extrude rate to: 0.05
; *************************************************************
G1 X-0.0 Y0.0 Z0.0 E0.0
; Changed extrude rate to: 5
; *************************************************************
G1 X-2.4721 Y7.6085 Z0.0 E40.0
G1 X-2.8532 Y-0.9271 Z0.0 E15.0
G1 X2.8532 Y0.9271 Z-0.0 E15.0
; Changed extrude rate to: 0.05
; *************************************************************
G1 X-1.2361 Y3.8042 Z0.0 E0.2
; Changed extrude rate to: 5
; *************************************************************
G1 X2.1631 Y6.6574 Z0.0 E35.0
G1 X-2.8532 Y0.9271 Z0.0 E15.0
G1 X2.8532 Y-0.9271 Z-0.0 E15.0
; Changed extrude rate to: 0.05
; *************************************************************
G1 X1.5451 Y4.7553 Z0.0 E0.25
; Changed extrude rate to: 5
; *************************************************************
G1 X5.6631 Y4.1145 Z0.0 E35.0
G1 X-1.7634 Y2.4271 Z0.0 E15.0
G1 X1.7634 Y-2.4271 Z-0.0 E15.0
; Changed extrude rate to: 0.05
; *************************************************************
G1 X4.0451 Y2.9389 Z0.0 E0.25
G1 Z0.2
; Changed extrude rate to: 5
; *************************************************************
G1 X7.0 Y0.0 Z0.0 E35.0
G1 X0.0 Y3.0 Z0.0 E15.0
G1 X-0.0 Y-3.0 Z-0.0 E15.0
; Changed extrude rate to: 0.05
; *************************************************************
G1 X5.0 Y0.0 Z0.0 E0.25
; Changed extrude rate to: 5
; *************************************************************
G1 X5.6631 Y-4.1145 Z0.0 E35.0
G1 X1.7634 Y2.4271 Z0.0 E15.0
G1 X-1.7634 Y-2.4271 Z-0.0 E15.0
; Changed extrude rate to: 0.05
; *************************************************************
G1 X4.0451 Y-2.9389 Z0.0 E0.25
; Changed extrude rate to: 5
; *************************************************************
G1 X2.4721 Y-7.6085 Z0.0 E40.0
G1 X2.8532 Y0.9271 Z0.0 E15.0
G1 X-2.8532 Y-0.9271 Z-0.0 E15.0
; Changed extrude rate to: 0.05
; *************************************************************
G1 X1.2361 Y-3.8042 Z0.0 E0.2
; Changed extrude rate to: 5
; *************************************************************
G1 X-1.2361 Y-3.8042 Z0.0 E20.0
G1 X2.8532 Y-0.9271 Z0.0 E15.0
G1 X-2.8532 Y0.9271 Z-0.0 E15.0
; Changed extrude rate to: 0.05
; *************************************************************
G1 X-2.4721 Y-7.6085 Z0.0 E0.4
; Changed extrude rate to: 5
; *************************************************************
G1 X-1.618 Y-1.1756 Z0.0 E10.0
G1 X1.7634 Y-2.4271 Z0.0 E15.0
G1 X-1.7634 Y2.4271 Z-0.0 E15.0
; Changed extrude rate to: 0.05
; *************************************************************
G1 X-8.0902 Y-5.8779 Z0.0 E0.5
; Changed extrude rate to: 5
; *************************************************************
G1 X-10.0 Y0.0 Z0.0 E50.0
G1 X-0.0 Y-3.0 Z0.0 E15.0
G1 X0.0 Y3.0 Z-0.0 E15.0
; Changed extrude rate to: 0.05
; *************************************************************
G1 X-2.0 Y0.0 Z0.0 E0.1
; Changed extrude rate to: 5
; *************************************************************
G1 X-2.4271 Y1.7634 Z0.0 E15.0
G1 X-1.7634 Y-2.4271 Z0.0 E15.0
G1 X1.7634 Y2.4271 Z-0.0 E15.0
; Changed extrude rate to: 0.05
; *************************************************************
G1 X-7.2812 Y5.2901 Z0.0 E0.45
; Changed extrude rate to: 5
; *************************************************************
G1 X-3.3992 Y10.4616 Z0.0 E55.0
G1 X-2.8532 Y-0.9271 Z0.0 E15.0
G1 X2.8532 Y0.9271 Z-0.0 E15.0
; Changed extrude rate to: 0.05
; *************************************************************
G1 X-0.309 Y0.9511 Z0.0 E0.05
; Changed extrude rate to: 5
; *************************************************************
G1 X2.7812 Y8.5595 Z0.0 E45.0
G1 X-2.8532 Y0.9271 Z0.0 E15.0
G1 X2.8532 Y-0.9271 Z-0.0 E15.0
; Changed extrude rate to: 0.05
; *************************************************************
G1 X0.9271 Y2.8532 Z0.0 E0.15
; Changed extrude rate to: 5
; *************************************************************
G1 X6.4721 Y4.7023 Z0.0 E40.0
G1 X-1.7634 Y2.4271 Z0.0 E15.0
G1 X1.7634 Y-2.4271 Z-0.0 E15.0
; Changed extrude rate to: 0.05
; *************************************************************
G1 X3.2361 Y2.3511 Z0.0 E0.2
G1 Z0.2
; Changed extrude rate to: 5
; *************************************************************
G1 X5.0 Y0.0 Z0.0 E25.0
G1 X0.0 Y3.0 Z0.0 E15.0
G1 X-0.0 Y-3.0 Z-0.0 E15.0
; Changed extrude rate to: 0.05
; *************************************************************
G1 X7.0 Y0.0 Z0.0 E0.35
; Changed extrude rate to: 5
; *************************************************************
G1 X8.8992 Y-6.4656 Z0.0 E55.0
G1 X1.7634 Y2.4271 Z0.0 E15.0
G1 X-1.7634 Y-2.4271 Z-0.0 E15.0
; Changed extrude rate to: 0.05
; *************************************************************
G1 X0.809 Y-0.5878 Z0.0 E0.05
; Changed extrude rate to: 5
; *************************************************************
G1 X1.5451 Y-4.7553 Z0.0 E25.0
G1 X2.8532 Y0.9271 Z0.0 E15.0
G1 X-2.8532 Y-0.9271 Z-0.0 E15.0
; Changed extrude rate to: 0.05
; *************************************************************
G1 X2.1631 Y-6.6574 Z0.0 E0.35
; Changed extrude rate to: 5
; *************************************************************
G1 X-0.9271 Y-2.8532 Z0.0 E15.0
G1 X2.8532 Y-0.9271 Z0.0 E15.0
G1 X-2.8532 Y0.9271 Z-0.0 E15.0
; Changed extrude rate to: 0.05
; *************************************************************
G1 X-2.7812 Y-8.5595 Z0.0 E0.45
; Changed extrude rate to: 5
; *************************************************************
G1 X-0.809 Y-0.5878 Z0.0 E5.0
G1 X1.7634 Y-2.4271 Z0.0 E15.0
G1 X-1.7634 Y2.4271 Z-0.0 E15.0
; Changed extrude rate to: 0.05
; *************************************************************
G1 X-8.8992 Y-6.4656 Z0.0 E0.55
; Changed extrude rate to: 5
; *************************************************************
G1 X-12.0 Y0.0 Z0.0 E60.0
G1 X-0.0 Y-3.0 Z0.0 E15.0
G1 X0.0 Y3.0 Z-0.0 E15.0
; Changed extrude rate to: 0.05
; *************************************************************
G1 X-0.0 Y0.0 Z0.0 E0.0
; Changed extrude rate to: 5
; *************************************************************
G1 X-5.6631 Y4.1145 Z0.0 E35.0
G1 X-1.7634 Y-2.4271 Z0.0 E15.0
G1 X1.7634 Y2.4271 Z-0.0 E15.0
; Changed extrude rate to: 0.05
; *************************************************************
G1 X-4.0451 Y2.9389 Z0.0 E0.25
; Changed extrude rate to: 5
; *************************************************************
G1 X-3.3992 Y10.4616 Z0.0 E55.0
G1 X-2.8532 Y-0.9271 Z0.0 E15.0
G1 X2.8532 Y0.9271 Z-0.0 E15.0
; Changed extrude rate to: 0.05
; *************************************************************
G1 X-0.309 Y0.9511 Z0.0 E0.05
; Changed extrude rate to: 5
; *************************************************************
G1 X0.618 Y1.9021 Z0.0 E10.0
G1 X-2.8532 Y0.9271 Z0.0 E15.0
G1 X2.8532 Y-0.9271 Z-0.0 E15.0
; Changed extrude rate to: 0.05
; *************************************************************
G1 X3.0902 Y9.5106 Z0.0 E0.5
; Changed extrude rate to: 5
; *************************************************************
G1 X5.6631 Y4.1145 Z0.0 E35.0
G1 X-1.7634 Y2.4271 Z0.0 E15.0
G1 X1.7634 Y-2.4271 Z-0.0 E15.0
; Changed extrude rate to: 0.05
; *************************************************************
G1 X4.0451 Y2.9389 Z0.0 E0.25
G1 Z0.2
; Changed extrude rate to: 5
; *************************************************************
G1 X9.0 Y0.0 Z0.0 E45.0
G1 X0.0 Y3.0 Z0.0 E15.0
G1 X-0.0 Y-3.0 Z-0.0 E15.0
; Changed extrude rate to: 0.05
; *************************************************************
G1 X3.0 Y0.0 Z0.0 E0.15
; Changed extrude rate to: 5
; *************************************************************
G1 X5.6631 Y-4.1145 Z0.0 E35.0
G1 X1.7634 Y2.4271 Z0.0 E15.0
G1 X-1.7634 Y-2.4271 Z-0.0 E15.0
; Changed extrude rate to: 0.05
; *************************************************************
G1 X4.0451 Y-2.9389 Z0.0 E0.25
; Changed extrude rate to: 5
; *************************************************************
G1 X3.0902 Y-9.5106 Z0.0 E50.0
G1 X2.8532 Y0.9271 Z0.0 E15.0
G1 X-2.8532 Y-0.9271 Z-0.0 E15.0
; Changed extrude rate to: 0.05
; *************************************************************
G1 X0.618 Y-1.9021 Z0.0 E0.1
; Changed extrude rate to: 5
; *************************************************************
G1 X-3.7082 Y-11.4127 Z0.0 E60.0
G1 X2.8532 Y-0.9271 Z0.0 E15.0
G1 X-2.8532 Y0.9271 Z-0.0 E15.0
; Changed extrude rate to: 0.05
; *************************************************************
G1 X-0.0 Y-0.0 Z0.0 E0.0
; Changed extrude rate to: 5
; *************************************************************
G1 X-8.8992 Y-6.4656 Z0.0 E55.0
G1 X1.7634 Y-2.4271 Z0.0 E15.0
G1 X-1.7634 Y2.4271 Z-0.0 E15.0
; Changed extrude rate to: 0.05
; *************************************************************
G1 X-0.809 Y-0.5878 Z0.0 E0.05
; Changed extrude rate to: 5
; *************************************************************
G1 X-6.0 Y0.0 Z0.0 E30.0
G1 X-0.0 Y-3.0 Z0.0 E15.0
G1 X0.0 Y3.0 Z-0.0 E15.0
; Changed extrude rate to: 0.05
; *************************************************************
G1 X-6.0 Y0.0 Z0.0 E0.3
; Changed extrude rate to: 5
; *************************************************************
G1 X-3.2361 Y2.3511 Z0.0 E20.0
G1 X-1.7634 Y-2.4271 Z0.0 E15.0
G1 X1.7634 Y2.4271 Z-0.0 E15.0
; Changed extrude rate to: 0.05
; *************************************************************
G1 X-6.4721 Y4.7023 Z0.0 E0.4
; Changed extrude rate to: 5
; *************************************************************
G1 X-0.618 Y1.9021 Z0.0 E10.0
G1 X-2.8532 Y-0.9271 Z0.0 E15.0
G1 X2.8532 Y0.9271 Z-0.0 E15.0
; Changed extrude rate to: 0.05
; *************************************************************
G1 X-3.0902 Y9.5106 Z0.0 E0.5
; Changed extrude rate to: 5
; *************************************************************
G1 X0.618 Y1.9021 Z0.0 E10.0
G1 X-2.8532 Y0.9271 Z0.0 E15.0
G1 X2.8532 Y-0.9271 Z-0.0 E15.0
; Changed extrude rate to: 0.05
; *************************************************************
G1 X3.0902 Y9.5106 Z0.0 E0.5
; Changed extrude rate to: 5
; *************************************************************
G1 X4.0451 Y2.9389 Z0.0 E25.0
G1 X-1.7634 Y2.4271 Z0.0 E15.0
G1 X1.7634 Y-2.4271 Z-0.0 E15.0
; Changed extrude rate to: 0.05
; *************************************************************
G1 X5.6631 Y4.1145 Z0.0 E0.35
G1 Z0.2
; Changed extrude rate to: 5
; *************************************************************
G1 X1.0 Y0.0 Z0.0 E5.0
G1 X0.0 Y3.0 Z0.0 E15.0
G1 X-0.0 Y-3.0 Z-0.0 E15.0
; Changed extrude rate to: 0.05
; *************************************************************
G1 X11.0 Y0.0 Z0.0 E0.55
; Changed extrude rate to: 5
; *************************************************************
G1 X9.7082 Y-7.0534 Z0.0 E60.0
G1 X1.7634 Y2.4271 Z0.0 E15.0
G1 X-1.7634 Y-2.4271 Z-0.0 E15.0
; Changed extrude rate to: 0.05
; *************************************************************
G1 X0.0 Y-0.0 Z0.0 E0.0
; Changed extrude rate to: 5
; *************************************************************
G1 X3.7082 Y-11.4127 Z0.0 E60.0
G1 X2.8532 Y0.9271 Z0.0 E15.0
G1 X-2.8532 Y-0.9271 Z-0.0 E15.0
; Changed extrude rate to: 0.05
; *************************************************************
G1 X0.0 Y-0.0 Z0.0 E0.0
; Changed extrude rate to: 5
; *************************************************************
G1 X-2.4721 Y-7.6085 Z0.0 E40.0
G1 X2.8532 Y-0.9271 Z0.0 E15.0
G1 X-2.8532 Y0.9271 Z-0.0 E15.0
; Changed extrude rate to: 0.05
; *************************************************************
G1 X-1.2361 Y-3.8042 Z0.0 E0.2
; Changed extrude rate to: 5
; *************************************************************
G1 X-6.4721 Y-4.7023 Z0.0 E40.0
G1 X1.7634 Y-2.4271 Z0.0 E15.0
G1 X-1.7634 Y2.4271 Z-0.0 E15.0
; Changed extrude rate to: 0.05
; *************************************************************
G1 X-3.2361 Y-2.3511 Z0.0 E0.2
; Changed extrude rate to: 5
; *************************************************************
G1 X-7.0 Y0.0 Z0.0 E35.0
G1 X-0.0 Y-3.0 Z0.0 E15.0
G1 X0.0 Y3.0 Z-0.0 E15.0
; Changed extrude rate to: 0.05
; *************************************************************
G1 X-5.0 Y0.0 Z0.0 E0.25
; Changed extrude rate to: 5
; *************************************************************
G1 X-0.809 Y0.5878 Z0.0 E5.0
G1 X-1.7634 Y-2.4271 Z0.0 E15.0
G1 X1.7634 Y2.4271 Z-0.0 E15.0
; Changed extrude rate to: 0.05
; *************************************************************
G1 X-8.8992 Y6.4656 Z0.0 E0.55
; Changed extrude rate to: 5
; *************************************************************
G1 X-3.0902 Y9.5106 Z0.0 E50.0
G1 X-2.8532 Y-0.9271 Z0.0 E15.0
G1 X2.8532 Y0.9271 Z-0.0 E15.0
; Changed extrude rate to: 0.05
; *************************************************************
G1 X-0.618 Y1.9021 Z0.0 E0.1
; Changed extrude rate to: 5
; *************************************************************
G1 X0.618 Y1.9021 Z0.0 E10.0
G1 X-2.8532 Y0.9271 Z0.0 E15.0
G1 X2.8532 Y-0.9271 Z-0.0 E15.0
; Changed extrude rate to: 0.05
; *************************************************************
G1 X3.0902 Y9.5106 Z0.0 E0.5
; Changed extrude rate to: 5
; *************************************************************
G1 X4.0451 Y2.9389 Z0.0 E25.0
G1 X-1.7634 Y2.4271 Z0.0 E15.0
G1 X1.7634 Y-2.4271 Z-0.0 E15.0
; Changed extrude rate to: 0.05
; *************************************************************
G1 X5.6631 Y4.1145 Z0.0 E0.35
G1 Z0.2
; Changed extrude rate to: 5
; *************************************************************
G1 X11.0 Y0.0 Z0.0 E55.0
G1 X0.0 Y3.0 Z0.0 E15.0
G1 X-0.0 Y-3.0 Z-0.0 E15.0
; Changed extrude rate to: 0.05
; *************************************************************
G1 X1.0 Y0.0 Z0.0 E0.05
; Changed extrude rate to: 5
; *************************************************************
G1 X7.2812 Y-5.2901 Z0.0 E45.0
G1 X1.7634 Y2.4271 Z0.0 E15.0
G1 X-1.7634 Y-2.4271 Z-0.0 E15.0
; Changed extrude rate to: 0.05
; *************************************************************
G1 X2.4271 Y-1.7634 Z0.0 E0.15
; Changed extrude rate to: 5
; *************************************************************
G1 X2.7812 Y-8.5595 Z0.0 E45.0
G1 X2.8532 Y0.9271 Z0.0 E15.0
G1 X-2.8532 Y-0.9271 Z-0.0 E15.0
; Changed extrude rate to: 0.05
; *************************************************************
G1 X0.9271 Y-2.8532 Z0.0 E0.15
; Changed extrude rate to: 5
; *************************************************************
G1 X-1.5451 Y-4.7553 Z0.0 E25.0
G1 X2.8532 Y-0.9271 Z0.0 E15.0
G1 X-2.8532 Y0.9271 Z-0.0 E15.0
; Changed extrude rate to: 0.05
; *************************************************************
G1 X-2.1631 Y-6.6574 Z0.0 E0.35
; Changed extrude rate to: 5
; *************************************************************
G1 X-3.2361 Y-2.3511 Z0.0 E20.0
G1 X1.7634 Y-2.4271 Z0.0 E15.0
G1 X-1.7634 Y2.4271 Z-0.0 E15.0
; Changed extrude rate to: 0.05
; *************************************************************
G1 X-6.4721 Y-4.7023 Z0.0 E0.4
; Changed extrude rate to: 5
; *************************************************************
G1 X-9.0 Y0.0 Z0.0 E45.0
G1 X-0.0 Y-3.0 Z0.0 E15.0
G1 X0.0 Y3.0 Z-0.0 E15.0
; Changed extrude rate to: 0.05
; *************************************************************
G1 X-3.0 Y0.0 Z0.0 E0.15
; Changed extrude rate to: 5
; *************************************************************
G1 X-8.0902 Y5.8779 Z0.0 E50.0
G1 X-1.7634 Y-2.4271 Z0.0 E15.0
G1 X1.7634 Y2.4271 Z-0.0 E15.0
; Changed extrude rate to: 0.05
; *************************************************************
G1 X-1.618 Y1.1756 Z0.0 E0.1
; Changed extrude rate to: 5
; *************************************************************
G1 X-1.8541 Y5.7063 Z0.0 E30.0
G1 X-2.8532 Y-0.9271 Z0.0 E15.0
G1 X2.8532 Y0.9271 Z-0.0 E15.0
; Changed extrude rate to: 0.05
; *************************************************************
G1 X-1.8541 Y5.7063 Z0.0 E0.3
; Changed extrude rate to: 5
; *************************************************************
G1 X3.3992 Y10.4616 Z0.0 E55.0
G1 X-2.8532 Y0.9271 Z0.0 E15.0
G1 X2.8532 Y-0.9271 Z-0.0 E15.0
; Changed extrude rate to: 0.05
; *************************************************************
G1 X0.309 Y0.9511 Z0.0 E0.05
; Changed extrude rate to: 5
; *************************************************************
G1 X8.8992 Y6.4656 Z0.0 E55.0
G1 X-1.7634 Y2.4271 Z0.0 E15.0
G1 X1.7634 Y-2.4271 Z-0.0 E15.0
; Changed extrude rate to: 0.05
; *************************************************************
G1 X0.809 Y0.5878 Z0.0 E0.05
G1 Z0.2
; Changed extrude rate to: 5
; *************************************************************
G1 X6.0 Y0.0 Z0.0 E30.0
G1 X0.0 Y3.0 Z0.0 E15.0
G1 X-0.0 Y-3.0 Z-0.0 E15.0
; Changed extrude rate to: 0.05
; *************************************************************
G1 X6.0 Y0.0 Z0.0 E0.3
; Changed extrude rate to: 5
; *************************************************************
G1 X0.809 Y-0.5878 Z0.0 E5.0
G1 X1.7634 Y2.4271 Z0.0 E15.0
G1 X-1.7634 Y-2.4271 Z-0.0 E15.0
; Changed extrude rate to: 0.05
; *************************************************************
G1 X8.8992 Y-6.4656 Z0.0 E0.55
; Changed extrude rate to: 5
; *************************************************************
G1 X2.4721 Y-7.6085 Z0.0 E40.0
G1 X2.8532 Y0.9271 Z0.0 E15.0
G1 X-2.8532 Y-0.9271 Z-0.0 E15.0
; Changed extrude rate to: 0.05
; *************************************************************
G1 X1.2361 Y-3.8042 Z0.0 E0.2
; Changed extrude rate to: 5
; *************************************************************
G1 X-3.3992 Y-10.4616 Z0.0 E55.0
G1 X2.8532 Y-0.9271 Z0.0 E15.0
G1 X-2.8532 Y0.9271 Z-0.0 E15.0
; Changed extrude rate to: 0.05
; *************************************************************
G1 X-0.309 Y-0.9511 Z0.0 E0.05
; Changed extrude rate to: 5
; *************************************************************
G1 X-8.8992 Y-6.4656 Z0.0 E55.0
G1 X1.7634 Y-2.4271 Z0.0 E15.0
G1 X-1.7634 Y2.4271 Z-0.0 E15.0
; Changed extrude rate to: 0.05
; *************************************************************
G1 X-0.809 Y-0.5878 Z0.0 E0.05
; Changed extrude rate to: 5
; *************************************************************
G1 X-7.0 Y0.0 Z0.0 E35.0
G1 X-0.0 Y-3.0 Z0.0 E15.0
G1 X0.0 Y3.0 Z-0.0 E15.0
; Changed extrude rate to: 0.05
; *************************************************************
G1 X-5.0 Y0.0 Z0.0 E0.25
; Changed extrude rate to: 5
; *************************************************************
G1 X-7.2812 Y5.2901 Z0.0 E45.0
G1 X-1.7634 Y-2.4271 Z0.0 E15.0
G1 X1.7634 Y2.4271 Z-0.0 E15.0
; Changed extrude rate to: 0.05
; *************************************************************
G1 X-2.4271 Y1.7634 Z0.0 E0.15
; Changed extrude rate to: 5
; *************************************************************
G1 X-2.4721 Y7.6085 Z0.0 E40.0
G1 X-2.8532 Y-0.9271 Z0.0 E15.0
G1 X2.8532 Y0.9271 Z-0.0 E15.0
; Changed extrude rate to: 0.05
; *************************************************************
G1 X-1.2361 Y3.8042 Z0.0 E0.2
; Changed extrude rate to: 5
; *************************************************************
G1 X0.618 Y1.9021 Z0.0 E10.0
G1 X-2.8532 Y0.9271 Z0.0 E15.0
G1 X2.8532 Y-0.9271 Z-0.0 E15.0
; Changed extrude rate to: 0.05
; *************************************************************
G1 X3.0902 Y9.5106 Z0.0 E0.5
; Changed extrude rate to: 5
; *************************************************************
G1 X8.0902 Y5.8779 Z0.0 E50.0
G1 X-1.7634 Y2.4271 Z0.0 E15.0
G1 X1.7634 Y-2.4271 Z-0.0 E15.0
; Changed extrude rate to: 0.05
; *************************************************************
G1 X1.618 Y1.1756 Z0.0 E0.1
G1 Z0.2
; Changed extrude rate to: 5
; *************************************************************
G1 X7.0 Y0.0 Z0.0 E35.0
G1 X0.0 Y3.0 Z0.0 E15.0
G1 X-0.0 Y-3.0 Z-0.0 E15.0
; Changed extrude rate to: 0.05
; *************************************************************
G1 X5.0 Y0.0 Z0.0 E0.25
; Changed extrude rate to: 5
; *************************************************************
G1 X8.0902 Y-5.8779 Z0.0 E50.0
G1 X1.7634 Y2.4271 Z0.0 E15.0
G1 X-1.7634 Y-2.4271 Z-0.0 E15.0
; Changed extrude rate to: 0.05
; *************************************************************
G1 X1.618 Y-1.1756 Z0.0 E0.1
; Changed extrude rate to: 5
; *************************************************************
G1 X0.618 Y-1.9021 Z0.0 E10.0
G1 X2.8532 Y0.9271 Z0.0 E15.0
G1 X-2.8532 Y-0.9271 Z-0.0 E15.0
; Changed extrude rate to: 0.05
; *************************************************************
G1 X3.0902 Y-9.5106 Z0.0 E0.5
; Changed extrude rate to: 5
; *************************************************************
G1 X-3.0902 Y-9.5106 Z0.0 E50.0
G1 X2.8532 Y-0.9271 Z0.0 E15.0
G1 X-2.8532 Y0.9271 Z-0.0 E15.0
; Changed extrude rate to: 0.05
; *************************************************************
G1 X-0.618 Y-1.9021 Z0.0 E0.1
; Changed extrude rate to: 5
; *************************************************************
G1 X-6.4721 Y-4.7023 Z0.0 E40.0
G1 X1.7634 Y-2.4271 Z0.0 E15.0
G1 X-1.7634 Y2.4271 Z-0.0 E15.0
; Changed extrude rate to: 0.05
; *************************************************************
G1 X-3.2361 Y-2.3511 Z0.0 E0.2
; Changed extrude rate to: 5
; *************************************************************
G1 X-8.0 Y0.0 Z0.0 E40.0
G1 X-0.0 Y-3.0 Z0.0 E15.0
G1 X0.0 Y3.0 Z-0.0 E15.0
; Changed extrude rate to: 0.05
; *************************************************************
G1 X-4.0 Y0.0 Z0.0 E0.2
; Changed extrude rate to: 5
; *************************************************************
G1 X-8.0902 Y5.8779 Z0.0 E50.0
G1 X-1.7634 Y-2.4271 Z0.0 E15.0
G1 X1.7634 Y2.4271 Z-0.0 E15.0
; Changed extrude rate to: 0.05
; *************************************************************
G1 X-1.618 Y1.1756 Z0.0 E0.1
; Changed extrude rate to: 5
; *************************************************************
G1 X-3.7082 Y11.4127 Z0.0 E60.0
G1 X-2.8532 Y-0.9271 Z0.0 E15.0
G1 X2.8532 Y0.9271 Z-0.0 E15.0
; Changed extrude rate to: 0.05
; *************************************************************
G1 X-0.0 Y0.0 Z0.0 E0.0
; Changed extrude rate to: 5
; *************************************************************
G1 X1.8541 Y5.7063 Z0.0 E30.0
G1 X-2.8532 Y0.9271 Z0.0 E15.0
G1 X2.8532 Y-0.9271 Z-0.0 E15.0
; Changed extrude rate to: 0.05
; *************************************************************
G1 X1.8541 Y5.7063 Z0.0 E0.3
; Changed extrude rate to: 5
; *************************************************************
G1 X8.0902 Y5.8779 Z0.0 E50.0
G1 X-1.7634 Y2.4271 Z0.0 E15.0
G1 X1.7634 Y-2.4271 Z-0.0 E15.0
; Changed extrude rate to: 0.05
; *************************************************************
G1 X1.618 Y1.1756 Z0.0 E0.1
G1 Z0.2
; Changed extrude rate to: 5
; *************************************************************
G1 X2.0 Y0.0 Z0.0 E10.0
G1 X0.0 Y3.0 Z0.0 E15.0
G1 X-0.0 Y-3.0 Z-0.0 E15.0
; Changed extrude rate to: 0.05
; *************************************************************
G1 X10.0 Y0.0 Z0.0 E0.5
; Changed extrude rate to: 5
; *************************************************************
G1 X3.2361 Y-2.3511 Z0.0 E20.0
G1 X1.7634 Y2.4271 Z0.0 E15.0
G1 X-1.7634 Y-2.4271 Z-0.0 E15.0
; Changed extrude rate to: 0.05
; *************************************************************
G1 X6.4721 Y-4.7023 Z0.0 E0.4
; Changed extrude rate to: 5
; *************************************************************
G1 X1.8541 Y-5.7063 Z0.0 E30.0
G1 X2.8532 Y0.9271 Z0.0 E15.0
G1 X-2.8532 Y-0.9271 Z-0.0 E15.0
; Changed extrude rate to: 0.05
; *************************************************************
G1 X1.8541 Y-5.7063 Z0.0 E0.3
; Changed extrude rate to: 5
; *************************************************************
G1 X-0.618 Y-1.9021 Z0.0 E10.0
G1 X2.8532 Y-0.9271 Z0.0 E15.0
G1 X-2.8532 Y0.9271 Z-0.0 E15.0
; Changed extrude rate to: 0.05
; *************************************************************
G1 X-3.0902 Y-9.5106 Z0.0 E0.5
; Changed extrude rate to: 5
; *************************************************************
G1 X-3.2361 Y-2.3511 Z0.0 E20.0
G1 X1.7634 Y-2.4271 Z0.0 E15.0
G1 X-1.7634 Y2.4271 Z-0.0 E15.0
; Changed extrude rate to: 0.05
; *************************************************************
G1 X-6.4721 Y-4.7023 Z0.0 E0.4
; Changed extrude rate to: 5
; *************************************************************
G1 X-8.0 Y0.0 Z0.0 E40.0
G1 X-0.0 Y-3.0 Z0.0 E15.0
G1 X0.0 Y3.0 Z-0.0 E15.0
; Changed extrude rate to: 0.05
; *************************************************************
G1 X-4.0 Y0.0 Z0.0 E0.2
; Changed extrude rate to: 5
; *************************************************************
G1 X-5.6631 Y4.1145 Z0.0 E35.0
G1 X-1.7634 Y-2.4271 Z0.0 E15.0
G1 X1.7634 Y2.4271 Z-0.0 E15.0
; Changed extrude rate to: 0.05
; *************************************************************
G1 X-4.0451 Y2.9389 Z0.0 E0.25
; Changed extrude rate to: 5
; *************************************************************
G1 X-1.5451 Y4.7553 Z0.0 E25.0
G1 X-2.8532 Y-0.9271 Z0.0 E15.0
G1 X2.8532 Y0.9271 Z-0.0 E15.0
; Changed extrude rate to: 0.05
; *************************************************************
G1 X-2.1631 Y6.6574 Z0.0 E0.35
; Changed extrude rate to: 5
; *************************************************************
G1 X2.1631 Y6.6574 Z0.0 E35.0
G1 X-2.8532 Y0.9271 Z0.0 E15.0
G1 X2.8532 Y-0.9271 Z-0.0 E15.0
; Changed extrude rate to: 0.05
; *************************************************************
G1 X1.5451 Y4.7553 Z0.0 E0.25
; Changed extrude rate to: 5
; *************************************************************
G1 X5.6631 Y4.1145 Z0.0 E35.0
G1 X-1.7634 Y2.4271 Z0.0 E15.0
G1 X1.7634 Y-2.4271 Z-0.0 E15.0
; Changed extrude rate to: 0.05
; *************************************************************
G1 X4.0451 Y2.9389 Z0.0 E0.25
G1 Z0.2
; Changed extrude rate to: 5
; *************************************************************
G1 X1.0 Y0.0 Z0.0 E5.0
G1 X0.0 Y3.0 Z0.0 E15.0
G1 X-0.0 Y-3.0 Z-0.0 E15.0
; Changed extrude rate to: 0.05
; *************************************************************
G1 X11.0 Y0.0 Z0.0 E0.55
; Changed extrude rate to: 5
; *************************************************************
G1 X1.618 Y-1.1756 Z0.0 E10.0
G1 X1.7634 Y2.4271 Z0.0 E15.0
G1 X-1.7634 Y-2.4271 Z-0.0 E15.0
; Changed extrude rate to: 0.05
; *************************************************************
G1 X8.0902 Y-5.8779 Z0.0 E0.5
; Changed extrude rate to: 5
; *************************************************************
G1 X1.8541 Y-5.7063 Z0.0 E30.0
G1 X2.8532 Y0.9271 Z0.0 E15.0
G1 X-2.8532 Y-0.9271 Z-0.0 E15.0
; Changed extrude rate to: 0.05
; *************************************************************
G1 X1.8541 Y-5.7063 Z0.0 E0.3
; Changed extrude rate to: 5
; *************************************************************
G1 X-0.618 Y-1.9021 Z0.0 E10.0
G1 X2.8532 Y-0.9271 Z0.0 E15.0
G1 X-2.8532 Y0.9271 Z-0.0 E15.0
; Changed extrude rate to: 0.05
; *************************************************************
G1 X-3.0902 Y-9.5106 Z0.0 E0.5
; Changed extrude rate to: 5
; *************************************************************
G1 X-8.0902 Y-5.8779 Z0.0 E50.0
G1 X1.7634 Y-2.4271 Z0.0 E15.0
G1 X-1.7634 Y2.4271 Z-0.0 E15.0
; Changed extrude rate to: 0.05
; *************************************************************
G1 X-1.618 Y-1.1756 Z0.0 E0.1
; Changed extrude rate to: 5
; *************************************************************
G1 X-7.0 Y0.0 Z0.0 E35.0
G1 X-0.0 Y-3.0 Z0.0 E15.0
G1 X0.0 Y3.0 Z-0.0 E15.0
; Changed extrude rate to: 0.05
; *************************************************************
G1 X-5.0 Y0.0 Z0.0 E0.25
; Changed extrude rate to: 5
; *************************************************************
G1 X-2.4271 Y1.7634 Z0.0 E15.0
G1 X-1.7634 Y-2.4271 Z0.0 E15.0
G1 X1.7634 Y2.4271 Z-0.0 E15.0
; Changed extrude rate to: 0.05
; *************************************************************
G1 X-7.2812 Y5.2901 Z0.0 E0.45
; Changed extrude rate to: 5
; *************************************************************
G1 X-0.309 Y0.9511 Z0.0 E5.0
G1 X-2.8532 Y-0.9271 Z0.0 E15.0
G1 X2.8532 Y0.9271 Z-0.0 E15.0
; Changed extrude rate to: 0.05
; *************************************************************
G1 X-3.3992 Y10.4616 Z0.0 E0.55
; Changed extrude rate to: 5
; *************************************************************
G1 X3.3992 Y10.4616 Z0.0 E55.0
G1 X-2.8532 Y0.9271 Z0.0 E15.0
G1 X2.8532 Y-0.9271 Z-0.0 E15.0
; Changed extrude rate to: 0.05
; *************************************************************
G1 X0.309 Y0.9511 Z0.0 E0.05
; Changed extrude rate to: 5
; *************************************************************
G1 X3.2361 Y2.3511 Z0.0 E20.0
G1 X-1.7634 Y2.4271 Z0.0 E15.0
G1 X1.7634 Y-2.4271 Z-0.0 E15.0
; Changed extrude rate to: 0.05
; *************************************************************
G1 X6.4721 Y4.7023 Z0.0 E0.4
G1 Z0.2
; Changed extrude rate to: 5
; *************************************************************
G1 X1.0 Y0.0 Z0.0 E5.0
G1 X0.0 Y3.0 Z0.0 E15.0
G1 X-0.0 Y-3.0 Z-0.0 E15.0
; Changed extrude rate to: 0.05
; *************************************************************
G1 X11.0 Y0.0 Z0.0 E0.55
; Changed extrude rate to: 5
; *************************************************************
G1 X4.0451 Y-2.9389 Z0.0 E25.0
G1 X1.7634 Y2.4271 Z0.0 E15.0
G1 X-1.7634 Y-2.4271 Z-0.0 E15.0
; Changed extrude rate to: 0.05
; *************************************************************
G1 X5.6631 Y-4.1145 Z0.0 E0.35
; Changed extrude rate to: 5
; *************************************************************
G1 X0.618 Y-1.9021 Z0.0 E10.0
G1 X2.8532 Y0.9271 Z0.0 E15.0
G1 X-2.8532 Y-0.9271 Z-0.0 E15.0
; Changed extrude rate to: 0.05
; *************************************************************
G1 X3.0902 Y-9.5106 Z0.0 E0.5
; Changed extrude rate to: 5
; *************************************************************
G1 X-1.8541 Y-5.7063 Z0.0 E30.0
G1 X2.8532 Y-0.9271 Z0.0 E15.0
G1 X-2.8532 Y0.9271 Z-0.0 E15.0
; Changed extrude rate to: 0.05
; *************************************************************
G1 X-1.8541 Y-5.7063 Z0.0 E0.3
; Changed extrude rate to: 5
; *************************************************************
G1 X-4.8541 Y-3.5267 Z0.0 E30.0
G1 X1.7634 Y-2.4271 Z0.0 E15.0
G1 X-1.7634 Y2.4271 Z-0.0 E15.0
; Changed extrude rate to: 0.05
; *************************************************************
G1 X-4.8541 Y-3.5267 Z0.0 E0.3
; Changed extrude rate to: 5
; *************************************************************
G1 X-10.0 Y0.0 Z0.0 E50.0
G1 X-0.0 Y-3.0 Z0.0 E15.0
G1 X0.0 Y3.0 Z-0.0 E15.0
; Changed extrude rate to: 0.05
; *************************************************************
G1 X-2.0 Y0.0 Z0.0 E0.1
; Changed extrude rate to: 5
; *************************************************************
G1 X-4.8541 Y3.5267 Z0.0 E30.0
G1 X-1.7634 Y-2.4271 Z0.0 E15.0
G1 X1.7634 Y2.4271 Z-0.0 E15.0
; Changed extrude rate to: 0.05
; *************************************************************
G1 X-4.8541 Y3.5267 Z0.0 E0.3
; Changed extrude rate to: 5
; *************************************************************
G1 X-2.7812 Y8.5595 Z0.0 E45.0
G1 X-2.8532 Y-0.9271 Z0.0 E15.0
G1 X2.8532 Y0.9271 Z-0.0 E15.0
; Changed extrude rate to: 0.05
; *************************************************************
G1 X-0.9271 Y2.8532 Z0.0 E0.15
; Changed extrude rate to: 5
; *************************************************************
G1 X0.9271 Y2.8532 Z0.0 E15.0
G1 X-2.8532 Y0.9271 Z0.0 E15.0
G1 X2.8532 Y-0.9271 Z-0.0 E15.0
; Changed extrude rate to: 0.05
; *************************************************************
G1 X2.7812 Y8.5595 Z0.0 E0.45
; Changed extrude rate to: 5
; *************************************************************
G1 X3.2361 Y2.3511 Z0.0 E20.0
G1 X-1.7634 Y2.4271 Z0.0 E15.0
G1 X1.7634 Y-2.4271 Z-0.0 E15.0
; Changed extrude rate to: 0.05
; *************************************************************
G1 X6.4721 Y4.7023 Z0.0 E0.4
G1 Z0.2
; Changed extrude rate to: 5
; *************************************************************
G1 X12.0 Y0.0 Z0.0 E60.0
G1 X0.0 Y3.0 Z0.0 E15.0
G1 X-0.0 Y-3.0 Z-0.0 E15.0
; Changed extrude rate to: 0.05
; *************************************************************
G1 X0.0 Y0.0 Z0.0 E0.0
; Changed extrude rate to: 5
; *************************************************************
G1 X4.8541 Y-3.5267 Z0.0 E30.0
G1 X1.7634 Y2.4271 Z0.0 E15.0
G1 X-1.7634 Y-2.4271 Z-0.0 E15.0
; Changed extrude rate to: 0.05
; *************************************************************
G1 X4.8541 Y-3.5267 Z0.0 E0.3
; Changed extrude rate to: 5
; *************************************************************
G1 X3.7082 Y-11.4127 Z0.0 E60.0
G1 X2.8532 Y0.9271 Z0.0 E15.0
G1 X-2.8532 Y-0.9271 Z-0.0 E15.0
; Changed extrude rate to: 0.05
; *************************************************************
G1 X0.0 Y-0.0 Z0.0 E0.0
; Changed extrude rate to: 5
; *************************************************************
G1 X-1.5451 Y-4.7553 Z0.0 E25.0
G1 X2.8532 Y-0.9271 Z0.0 E15.0
G1 X-2.8532 Y0.9271 Z-0.0 E15.0
; Changed extrude rate to: 0.05
; *************************************************************
G1 X-2.1631 Y-6.6574 Z0.0 E0.35
; Changed extrude rate to: 5
; *************************************************************
G1 X-8.8992 Y-6.4656 Z0.0 E55.0
G1 X1.7634 Y-2.4271 Z0.0 E15.0
G1 X-1.7634 Y2.4271 Z-0.0 E15.0
; Changed extrude rate to: 0.05
; *************************************************************
G1 X-0.809 Y-0.5878 Z0.0 E0.05
; Changed extrude rate to: 5
; *************************************************************
G1 X-12.0 Y0.0 Z0.0 E60.0
G1 X-0.0 Y-3.0 Z0.0 E15.0
G1 X0.0 Y3.0 Z-0.0 E15.0
; Changed extrude rate to: 0.05
; *************************************************************
G1 X-0.0 Y0.0 Z0.0 E0.0
; Changed extrude rate to: 5
; *************************************************************
G1 X-8.8992 Y6.4656 Z0.0 E55.0
G1 X-1.7634 Y-2.4271 Z0.0 E15.0
G1 X1.7634 Y2.4271 Z-0.0 E15.0
; Changed extrude rate to: 0.05
; *************************************************************
G1 X-0.809 Y0.5878 Z0.0 E0.05
; Changed extrude rate to: 5
; *************************************************************
G1 X-0.618 Y1.9021 Z0.0 E10.0
G1 X-2.8532 Y-0.9271 Z0.0 E15.0
G1 X2.8532 Y0.9271 Z-0.0 E15.0
; Changed extrude rate to: 0.05
; *************************************************************
G1 X-3.0902 Y9.5106 Z0.0 E0.5
; Changed extrude rate to: 5
; *************************************************************
G1 X3.7082 Y11.4127 Z0.0 E60.0
G1 X-2.8532 Y0.9271 Z0.0 E15.0
G1 X2.8532 Y-0.9271 Z-0.0 E15.0
; Changed extrude rate to: 0.05
; *************************************************************
G1 X0.0 Y0.0 Z0.0 E0.0
; Changed extrude rate to: 5
; *************************************************************
G1 X3.2361 Y2.3511 Z0.0 E20.0
G1 X-1.7634 Y2.4271 Z0.0 E15.0
G1 X1.7634 Y-2.4271 Z-0.0 E15.0
; Changed extrude rate to: 0.05
; *************************************************************
G1 X6.4721 Y4.7023 Z0.0 E0.4
G1 Z0.2
; Changed extrude rate to: 5
; *************************************************************
G1 X6.0 Y0.0 Z0.0 E30.0
G1 X0.0 Y3.0 Z0.0 E15.0
G1 X-0.0 Y-3.0 Z-0.0 E15.0
; Changed extrude rate to: 0.05
; *************************************************************
G1 X6.0 Y0.0 Z0.0 E0.3
; Changed extrude rate to: 5
; *************************************************************
G1 X7.2812 Y-5.2901 Z0.0 E45.0
G1 X1.7634 Y2.4271 Z0.0 E15.0
G1 X-1.7634 Y-2.4271 Z-0.0 E15.0
; Changed extrude rate to: 0.05
; *************************************************************
G1 X2.4271 Y-1.7634 Z0.0 E0.15
; Changed extrude rate to: 5
; *************************************************************
G1 X0.9271 Y-2.8532 Z0.0 E15.0
G1 X2.8532 Y0.9271 Z0.0 E15.0
G1 X-2.8532 Y-0.9271 Z-0.0 E15.0
; Changed extrude rate to: 0.05
; *************************************************************
G1 X2.7812 Y-8.5595 Z0.0 E0.45
; Changed extrude rate to: 5
; *************************************************************
G1 X-3.3992 Y-10.4616 Z0.0 E55.0
G1 X2.8532 Y-0.9271 Z0.0 E15.0
G1 X-2.8532 Y0.9271 Z-0.0 E15.0
; Changed extrude rate to: 0.05
; *************************************************************
G1 X-0.309 Y-0.9511 Z0.0 E0.05
; Changed extrude rate to: 5
; *************************************************************
G1 X-5.6631 Y-4.1145 Z0.0 E35.0
G1 X1.7634 Y-2.4271 Z0.0 E15.0
G1 X-1.7634 Y2.4271 Z-0.0 E15.0
; Changed extrude rate to: 0.05
; *************************************************************
G1 X-4.0451 Y-2.9389 Z0.0 E0.25
; Changed extrude rate to: 5
; *************************************************************
G1 X-4.0 Y0.0 Z0.0 E20.0
G1 X-0.0 Y-3.0 Z0.0 E15.0
G1 X0.0 Y3.0 Z-0.0 E15.0
; Changed extrude rate to: 0.05
; *************************************************************
G1 X-8.0 Y0.0 Z0.0 E0.4
; Changed extrude rate to: 5
; *************************************************************
G1 X-1.618 Y1.1756 Z0.0 E10.0
G1 X-1.7634 Y-2.4271 Z0.0 E15.0
G1 X1.7634 Y2.4271 Z-0.0 E15.0
; Changed extrude rate to: 0.05
; *************************************************************
G1 X-8.0902 Y5.8779 Z0.0 E0.5
; Changed extrude rate to: 5
; *************************************************************
G1 X-1.2361 Y3.8042 Z0.0 E20.0
G1 X-2.8532 Y-0.9271 Z0.0 E15.0
G1 X2.8532 Y0.9271 Z-0.0 E15.0
; Changed extrude rate to: 0.05
; *************************************************************
G1 X-2.4721 Y7.6085 Z0.0 E0.4
; Changed extrude rate to: 5
; *************************************************************
G1 X1.8541 Y5.7063 Z0.0 E30.0
G1 X-2.8532 Y0.9271 Z0.0 E15.0
G1 X2.8532 Y-0.9271 Z-0.0 E15.0
; Changed extrude rate to: 0.05
; *************************************************************
G1 X1.8541 Y5.7063 Z0.0 E0.3
; Changed extrude rate to: 5
; *************************************************************
G1 X5.6631 Y4.1145 Z0.0 E35.0
G1 X-1.7634 Y2.4271 Z0.0 E15.0
G1 X1.7634 Y-2.4271 Z-0.0 E15.0
; Changed extrude rate to: 0.05
; *************************************************************
G1 X4.0451 Y2.9389 Z0.0 E0.25
G1 Z0.2
; Changed extrude rate to: 5
; *************************************************************
G1 X5.0 Y0.0 Z0.0 E25.0
G1 X0.0 Y3.0 Z0.0 E15.0
G1 X-0.0 Y-3.0 Z-0.0 E15.0
; Changed extrude rate to: 0.05
; *************************************************************
G1 X7.0 Y0.0 Z0.0 E0.35
; Changed extrude rate to: 5
; *************************************************************
G1 X3.2361 Y-2.3511 Z0.0 E20.0
G1 X1.7634 Y2.4271 Z0.0 E15.0
G1 X-1.7634 Y-2.4271 Z-0.0 E15.0
; Changed extrude rate to: 0.05
; *************************************************************
G1 X6.4721 Y-4.7023 Z0.0 E0.4
; Changed extrude rate to: 5
; *************************************************************
G1 X0.618 Y-1.9021 Z0.0 E10.0
G1 X2.8532 Y0.9271 Z0.0 E15.0
G1 X-2.8532 Y-0.9271 Z-0.0 E15.0
; Changed extrude rate to: 0.05
; *************************************************************
G1 X3.0902 Y-9.5106 Z0.0 E0.5
; Changed extrude rate to: 5
; *************************************************************
G1 X-0.618 Y-1.9021 Z0.0 E10.0
G1 X2.8532 Y-0.9271 Z0.0 E15.0
G1 X-2.8532 Y0.9271 Z-0.0 E15.0
; Changed extrude rate to: 0.05
; *************************************************************
G1 X-3.0902 Y-9.5106 Z0.0 E0.5
; Changed extrude rate to: 5
; *************************************************************
G1 X-0.809 Y-0.5878 Z0.0 E5.0
G1 X1.7634 Y-2.4271 Z0.0 E15.0
G1 X-1.7634 Y2.4271 Z-0.0 E15.0
; Changed extrude rate to: 0.05
; *************************************************************
G1 X-8.8992 Y-6.4656 Z0.0 E0.55
; Changed extrude rate to: 5
; *************************************************************
G1 X-2.0 Y0.0 Z0.0 E10.0
G1 X-0.0 Y-3.0 Z0.0 E15.0
G1 X0.0 Y3.0 Z-0.0 E15.0
; Changed extrude rate to: 0.05
; *************************************************************
G1 X-10.0 Y0.0 Z0.0 E0.5
; Changed extrude rate to: 5
; *************************************************************
G1 X-4.0451 Y2.9389 Z0.0 E25.0
G1 X-1.7634 Y-2.4271 Z0.0 E15.0
G1 X1.7634 Y2.4271 Z-0.0 E15.0
; Changed extrude rate to: 0.05
; *************************************************************
G1 X-5.6631 Y4.1145 Z0.0 E0.35
; Changed extrude rate to: 5
; *************************************************************
G1 X-2.4721 Y7.6085 Z0.0 E40.0
G1 X-2.8532 Y-0.9271 Z0.0 E15.0
G1 X2.8532 Y0.9271 Z-0.0 E15.0
; Changed extrude rate to: 0.05
; *************************************************************
G1 X-1.2361 Y3.8042 Z0.0 E0.2
; Changed extrude rate to: 5
; *************************************************************
G1 X2.1631 Y6.6574 Z0.0 E35.0
G1 X-2.8532 Y0.9271 Z0.0 E15.0
G1 X2.8532 Y-0.9271 Z-0.0 E15.0
; Changed extrude rate to: 0.05
; *************************************************************
G1 X1.5451 Y4.7553 Z0.0 E0.25
; Changed extrude rate to: 5
; *************************************************************
G1 X8.0902 Y5.8779 Z0.0 E50.0
G1 X-1.7634 Y2.4271 Z0.0 E15.0
G1 X1.7634 Y-2.4271 Z-0.0 E15.0
; Changed extrude rate to: 0.05
; *************************************************************
G1 X1.618 Y1.1756 Z0.0 E0.1
G1 Z0.2
; Changed extrude rate to: 5
; *************************************************************
G1 X12.0 Y0.0 Z0.0 E60.0
G1 X0.0 Y3.0 Z0.0 E15.0
G1 X-0.0 Y-3.0 Z-0.0 E15.0
; Changed extrude rate to: 0.05
; *************************************************************
G1 X0.0 Y0.0 Z0.0 E0.0
; Changed extrude rate to: 5
; *************************************************************
G1 X5.6631 Y-4.1145 Z0.0 E35.0
G1 X1.7634 Y2.4271 Z0.0 E15.0
G1 X-1.7634 Y-2.4271 Z-0.0 E15.0
; Changed extrude rate to: 0.05
; *************************************************************
G1 X4.0451 Y-2.9389 Z0.0 E0.25
; Changed extrude rate to: 5
; *************************************************************
G1 X2.1631 Y-6.6574 Z0.0 E35.0
G1 X2.8532 Y0.9271 Z0.0 E15.0
G1 X-2.8532 Y-0.9271 Z-0.0 E15.0
; Changed extrude rate to: 0.05
; *************************************************************
G1 X1.5451 Y-4.7553 Z0.0 E0.25
; Changed extrude rate to: 5
; *************************************************************
G1 X-3.0902 Y-9.5106 Z0.0 E50.0
G1 X2.8532 Y-0.9271 Z0.0 E15.0
G1 X-2.8532 Y0.9271 Z-0.0 E15.0
; Changed extrude rate to: 0.05
; *************************************************************
G1 X-0.618 Y-1.9021 Z0.0 E0.1
; Changed extrude rate to: 5
; *************************************************************
G1 X-6.4721 Y-4.7023 Z0.0 E40.0
G1 X1.7634 Y-2.4271 Z0.0 E15.0
G1 X-1.7634 Y2.4271 Z-0.0 E15.0
; Changed extrude rate to: 0.05
; *************************************************************
G1 X-3.2361 Y-2.3511 Z0.0 E0.2
; Changed extrude rate to: 5
; *************************************************************
G1 X-11.0 Y0.0 Z0.0 E55.0
G1 X-0.0 Y-3.0 Z0.0 E15.0
G1 X0.0 Y3.0 Z-0.0 E15.0
; Changed extrude rate to: 0.05
; *************************************************************
G1 X-1.0 Y0.0 Z0.0 E0.05
; Changed extrude rate to: 5
; *************************************************************
G1 X-1.618 Y1.1756 Z0.0 E10.0
G1 X-1.7634 Y-2.4271 Z0.0 E15.0
G1 X1.7634 Y2.4271 Z-0.0 E15.0
; Changed extrude rate to: 0.05
; *************************************************************
G1 X-8.0902 Y5.8779 Z0.0 E0.5
; Changed extrude rate to: 5
; *************************************************************
G1 X-3.7082 Y11.4127 Z0.0 E60.0
G1 X-2.8532 Y-0.9271 Z0.0 E15.0
G1 X2.8532 Y0.9271 Z-0.0 E15.0
; Changed extrude rate to: 0.05
; *************************************************************
G1 X-0.0 Y0.0 Z0.0 E0.0
; Changed extrude rate to: 5
; *************************************************************
G1 X2.1631 Y6.6574 Z0.0 E35.0
G1 X-2.8532 Y0.9271 Z0.0 E15.0
G1 X2.8532 Y-0.9271 Z-0.0 E15.0
; Changed extrude rate to: 0.05
; *************************************************************
G1 X1.5451 Y4.7553 Z0.0 E0.25
; Changed extrude rate to: 5
; *************************************************************
G1 X6.4721 Y4.7023 Z0.0 E40.0
G1 X-1.7634 Y2.4271 Z0.0 E15.0
G1 X1.7634 Y-2.4271 Z-0.0 E15.0
; Changed extrude rate to: 0.05
; *************************************************************
G1 X3.2361 Y2.3511 Z0.0 E0.2
G1 Z0.2
; Changed extrude rate to: 5
; *************************************************************
G1 X5.0 Y0.0 Z0.0 E25.0
G1 X0.0 Y3.0 Z0.0 E15.0
G1 X-0.0 Y-3.0 Z-0.0 E15.0
; Changed extrude rate to: 0.05
; *************************************************************
G1 X7.0 Y0.0 Z0.0 E0.35
; Changed extrude rate to: 5
; *************************************************************
G1 X6.4721 Y-4.7023 Z0.0 E40.0
G1 X1.7634 Y2.4271 Z0.0 E15.0
G1 X-1.7634 Y-2.4271 Z-0.0 E15.0
; Changed extrude rate to: 0.05
; *************************************************************
G1 X3.2361 Y-2.3511 Z0.0 E0.2
; Changed extrude rate to: 5
; *************************************************************
G1 X0.618 Y-1.9021 Z0.0 E10.0
G1 X2.8532 Y0.9271 Z0.0 E15.0
G1 X-2.8532 Y-0.9271 Z-0.0 E15.0
; Changed extrude rate to: 0.05
; *************************************************************
G1 X3.0902 Y-9.5106 Z0.0 E0.5
; Changed extrude rate to: 5
; *************************************************************
G1 X-3.3992 Y-10.4616 Z0.0 E55.0
G1 X2.8532 Y-0.9271 Z0.0 E15.0
G1 X-2.8532 Y0.9271 Z-0.0 E15.0
; Changed extrude rate to: 0.05
; *************************************************************
G1 X-0.309 Y-0.9511 Z0.0 E0.05
; Changed extrude rate to: 5
; *************************************************************
G1 X-3.2361 Y-2.3511 Z0.0 E20.0
G1 X1.7634 Y-2.4271 Z0.0 E15.0
G1 X-1.7634 Y2.4271 Z-0.0 E15.0
; Changed extrude rate to: 0.05
; *************************************************************
G1 X-6.4721 Y-4.7023 Z0.0 E0.4
; Changed extrude rate to: 5
; *************************************************************
G1 X-12.0 Y0.0 Z0.0 E60.0
G1 X-0.0 Y-3.0 Z0.0 E15.0
G1 X0.0 Y3.0 Z-0.0 E15.0
; Changed extrude rate to: 0.05
; *************************************************************
G1 X-0.0 Y0.0 Z0.0 E0.0
; Changed extrude rate to: 5
; *************************************************************
G1 X-9.7082 Y7.0534 Z0.0 E60.0
G1 X-1.7634 Y-2.4271 Z0.0 E15.0
G1 X1.7634 Y2.4271 Z-0.0 E15.0
; Changed extrude rate to: 0.05
; *************************************************************
G1 X-0.0 Y0.0 Z0.0 E0.0
; Changed extrude rate to: 5
; *************************************************************
G1 X-0.309 Y0.9511 Z0.0 E5.0
G1 X-2.8532 Y-0.9271 Z0.0 E15.0
G1 X2.8532 Y0.9271 Z-0.0 E15.0
; Changed extrude rate to: 0.05
; *************************************************************
G1 X-3.3992 Y10.4616 Z0.0 E0.55
; Changed extrude rate to: 5
; *************************************************************
G1 X2.4721 Y7.6085 Z0.0 E40.0
G1 X-2.8532 Y0.9271 Z0.0 E15.0
G1 X2.8532 Y-0.9271 Z-0.0 E15.0
; Changed extrude rate to: 0.05
; *************************************************************
G1 X1.2361 Y3.8042 Z0.0 E0.2
; Changed extrude rate to: 5
; *************************************************************
G1 X3.2361 Y2.3511 Z0.0 E20.0
G1 X-1.7634 Y2.4271 Z0.0 E15.0
G1 X1.7634 Y-2.4271 Z-0.0 E15.0
; Changed extrude rate to: 0.05
; *************************************************************
G1 X6.4721 Y4.7023 Z0.0 E0.4
G1 Z0.2
; Changed extrude rate to: 5
; *************************************************************
G1 X12.0 Y0.0 Z0.0 E60.0
G1 X0.0 Y3.0 Z0.0 E15.0
G1 X-0.0 Y-3.0 Z-0.0 E15.0
; Changed extrude rate to: 0.05
; *************************************************************
G1 X0.0 Y0.0 Z0.0 E0.0
; Changed extrude rate to: 5
; *************************************************************
G1 X7.2812 Y-5.2901 Z0.0 E45.0
G1 X1.7634 Y2.4271 Z0.0 E15.0
G1 X-1.7634 Y-2.4271 Z-0.0 E15.0
; Changed extrude rate to: 0.05
; *************************************************************
G1 X2.4271 Y-1.7634 Z0.0 E0.15
; Changed extrude rate to: 5
; *************************************************************
G1 X0.9271 Y-2.8532 Z0.0 E15.0
G1 X2.8532 Y0.9271 Z0.0 E15.0
G1 X-2.8532 Y-0.9271 Z-0.0 E15.0
; Changed extrude rate to: 0.05
; *************************************************************
G1 X2.7812 Y-8.5595 Z0.0 E0.45
; Changed extrude rate to: 5
; *************************************************************
G1 X-0.309 Y-0.9511 Z0.0 E5.0
G1 X2.8532 Y-0.9271 Z0.0 E15.0
G1 X-2.8532 Y0.9271 Z-0.0 E15.0
; Changed extrude rate to: 0.05
; *************************************************************
G1 X-3.3992 Y-10.4616 Z0.0 E0.55
; Changed extrude rate to: 5
; *************************************************************
G1 X-9.7082 Y-7.0534 Z0.0 E60.0
G1 X1.7634 Y-2.4271 Z0.0 E15.0
G1 X-1.7634 Y2.4271 Z-0.0 E15.0
; Changed extrude rate to: 0.05
; *************************************************************
G1 X-0.0 Y-0.0 Z0.0 E0.0
; Changed extrude rate to: 5
; *************************************************************
G1 X-10.0 Y0.0 Z0.0 E50.0
G1 X-0.0 Y-3.0 Z0.0 E15.0
G1 X0.0 Y3.0 Z-0.0 E15.0
; Changed extrude rate to: 0.05
; *************************************************************
G1 X-2.0 Y0.0 Z0.0 E0.1
; Changed extrude rate to: 5
; *************************************************************
G1 X-4.0451 Y2.9389 Z0.0 E25.0
G1 X-1.7634 Y-2.4271 Z0.0 E15.0
G1 X1.7634 Y2.4271 Z-0.0 E15.0
; Changed extrude rate to: 0.05
; *************************************************************
G1 X-5.6631 Y4.1145 Z0.0 E0.35
; Changed extrude rate to: 5
; *************************************************************
G1 X-2.7812 Y8.5595 Z0.0 E45.0
G1 X-2.8532 Y-0.9271 Z0.0 E15.0
G1 X2.8532 Y0.9271 Z-0.0 E15.0
; Changed extrude rate to: 0.05
; *************************************************************
G1 X-0.9271 Y2.8532 Z0.0 E0.15
; Changed extrude rate to: 5
; *************************************************************
G1 X1.2361 Y3.8042 Z0.0 E20.0
G1 X-2.8532 Y0.9271 Z0.0 E15.0
G1 X2.8532 Y-0.9271 Z-0.0 E15.0
; Changed extrude rate to: 0.05
; *************************************************************
G1 X2.4721 Y7.6085 Z0.0 E0.4
; Changed extrude rate to: 5
; *************************************************************
G1 X9.7082 Y7.0534 Z0.0 E60.0
G1 X-1.7634 Y2.4271 Z0.0 E15.0
G1 X1.7634 Y-2.4271 Z-0.0 E15.0
; Changed extrude rate to: 0.05
; *************************************************************
G1 X0.0 Y0.0 Z0.0 E0.0
G1 Z0.2
; Changed extrude rate to: 5
; *************************************************************
G1 X5.0 Y0.0 Z0.0 E25.0
G1 X0.0 Y3.0 Z0.0 E15.0
G1 X-0.0 Y-3.0 Z-0.0 E15.0
; Changed extrude rate to: 0.05
; *************************************************************
G1 X7.0 Y0.0 Z0.0 E0.35
; Changed extrude rate to: 5
; *************************************************************
G1 X0.809 Y-0.5878 Z0.0 E5.0
G1 X1.7634 Y2.4271 Z0.0 E15.0
G1 X-1.7634 Y-2.4271 Z-0.0 E15.0
; Changed extrude rate to: 0.05
; *************************************************************
G1 X8.8992 Y-6.4656 Z0.0 E0.55
; Changed extrude rate to: 5
; *************************************************************
G1 X3.0902 Y-9.5106 Z0.0 E50.0
G1 X2.8532 Y0.9271 Z0.0 E15.0
G1 X-2.8532 Y-0.9271 Z-0.0 E15.0
; Changed extrude rate to: 0.05
; *************************************************************
G1 X0.618 Y-1.9021 Z0.0 E0.1
; Changed extrude rate to: 5
; *************************************************************
G1 X-0.618 Y-1.9021 Z0.0 E10.0
G1 X2.8532 Y-0.9271 Z0.0 E15.0
G1 X-2.8532 Y0.9271 Z-0.0 E15.0
; Changed extrude rate to: 0.05
; *************************************************************
G1 X-3.0902 Y-9.5106 Z0.0 E0.5
; Changed extrude rate to: 5
; *************************************************************
G1 X-4.8541 Y-3.5267 Z0.0 E30.0
G1 X1.7634 Y-2.4271 Z0.0 E15.0
G1 X-1.7634 Y2.4271 Z-0.0 E15.0
; Changed extrude rate to: 0.05
; *************************************************************
G1 X-4.8541 Y-3.5267 Z0.0 E0.3
; Changed extrude rate to: 5
; *************************************************************
G1 X-5.0 Y0.0 Z0.0 E25.0
G1 X-0.0 Y-3.0 Z0.0 E15.0
G1 X0.0 Y3.0 Z-0.0 E15.0
; Changed extrude rate to: 0.05
; *************************************************************
G1 X-7.0 Y0.0 Z0.0 E0.35
; Changed extrude rate to: 5
; *************************************************************
G1 X-7.2812 Y5.2901 Z0.0 E45.0
G1 X-1.7634 Y-2.4271 Z0.0 E15.0
G1 X1.7634 Y2.4271 Z-0.0 E15.0
; Changed extrude rate to: 0.05
; *************************************************************
G1 X-2.4271 Y1.7634 Z0.0 E0.15
; Changed extrude rate to: 5
; *************************************************************
G1 X-1.8541 Y5.7063 Z0.0 E30.0
G1 X-2.8532 Y-0.9271 Z0.0 E15.0
G1 X2.8532 Y0.9271 Z-0.0 E15.0
; Changed extrude rate to: 0.05
; *************************************************************
G1 X-1.8541 Y5.7063 Z0.0 E0.3
; Changed extrude rate to: 5
; *************************************************************
G1 X2.4721 Y7.6085 Z0.0 E40.0
G1 X-2.8532 Y0.9271 Z0.0 E15.0
G1 X2.8532 Y-0.9271 Z-0.0 E15.0
; Changed extrude rate to: 0.05
; *************************************************************
G1 X1.2361 Y3.8042 Z0.0 E0.2
; Changed extrude rate to: 5
; *************************************************************
G1 X7.2812 Y5.2901 Z0.0 E45.0
G1 X-1.7634 Y2.4271 Z0.0 E15.0
G1 X1.7634 Y-2.4271 Z-0.0 E15.0
; Changed extrude rate to: 0.05
; *************************************************************
G1 X2.4271 Y1.7634 Z0.0 E0.15
G1 Z0.2
; Changed extrude rate to: 5
; *************************************************************
G1 X6.0 Y0.0 Z0.0 E30.0
G1 X0.0 Y3.0 Z0.0 E15.0
G1 X-0.0 Y-3.0 Z-0.0 E15.0
; Changed extrude rate to: 0.05
; *************************************************************
G1 X6.0 Y0.0 Z0.0 E0.3
; Changed extrude rate to: 5
; *************************************************************
G1 X1.618 Y-1.1756 Z0.0 E10.0
G1 X1.7634 Y2.4271 Z0.0 E15.0
G1 X-1.7634 Y-2.4271 Z-0.0 E15.0
; Changed extrude rate to: 0.05
; *************************************************************
G1 X8.0902 Y-5.8779 Z0.0 E0.5
; Changed extrude rate to: 5
; *************************************************************
G1 X2.1631 Y-6.6574 Z0.0 E35.0
G1 X2.8532 Y0.9271 Z0.0 E15.0
G1 X-2.8532 Y-0.9271 Z-0.0 E15.0
; Changed extrude rate to: 0.05
; *************************************************************
G1 X1.5451 Y-4.7553 Z0.0 E0.25
; Changed extrude rate to: 5
; *************************************************************
G1 X-3.7082 Y-11.4127 Z0.0 E60.0
G1 X2.8532 Y-0.9271 Z0.0 E15.0
G1 X-2.8532 Y0.9271 Z-0.0 E15.0
; Changed extrude rate to: 0.05
; *************************************************************
G1 X-0.0 Y-0.0 Z0.0 E0.0
; Changed extrude rate to: 5
; *************************************************************
G1 X-2.4271 Y-1.7634 Z0.0 E15.0
G1 X1.7634 Y-2.4271 Z0.0 E15.0
G1 X-1.7634 Y2.4271 Z-0.0 E15.0
; Changed extrude rate to: 0.05
; *************************************************************
G1 X-7.2812 Y-5.2901 Z0.0 E0.45
; Changed extrude rate to: 5
; *************************************************************
G1 X-6.0 Y0.0 Z0.0 E30.0
G1 X-0.0 Y-3.0 Z0.0 E15.0
G1 X0.0 Y3.0 Z-0.0 E15.0
; Changed extrude rate to: 0.05
; *************************************************************
G1 X-6.0 Y0.0 Z0.0 E0.3
; Changed extrude rate to: 5
; *************************************************************
G1 X-8.8992 Y6.4656 Z0.0 E55.0
G1 X-1.7634 Y-2.4271 Z0.0 E15.0
G1 X1.7634 Y2.4271 Z-0.0 E15.0
; Changed extrude rate to: 0.05
; *************************************************************
G1 X-0.809 Y0.5878 Z0.0 E0.05
; Changed extrude rate to: 5
; *************************************************************
G1 X-3.0902 Y9.5106 Z0.0 E50.0
G1 X-2.8532 Y-0.9271 Z0.0 E15.0
G1 X2.8532 Y0.9271 Z-0.0 E15.0
; Changed extrude rate to: 0.05
; *************************************************************
G1 X-0.618 Y1.9021 Z0.0 E0.1
; Changed extrude rate to: 5
; *************************************************************
G1 X1.2361 Y3.8042 Z0.0 E20.0
G1 X-2.8532 Y0.9271 Z0.0 E15.0
G1 X2.8532 Y-0.9271 Z-0.0 E15.0
; Changed extrude rate to: 0.05
; *************************************************************
G1 X2.4721 Y7.6085 Z0.0 E0.4
; Changed extrude rate to: 5
; *************************************************************
G1 X8.0902 Y5.8779 Z0.0 E50.0
G1 X-1.7634 Y2.4271 Z0.0 E15.0
G1 X1.7634 Y-2.4271 Z-0.0 E15.0
; Changed extrude rate to: 0.05
; *************************************************************
G1 X1.618 Y1.1756 Z0.0 E0.1
G1 Z0.2
; Changed extrude rate to: 5
; *************************************************************
G1 X2.0 Y0.0 Z0.0 E10.0
G1 X0.0 Y3.0 Z0.0 E15.0
G1 X-0.0 Y-3.0 Z-0.0 E15.0
; Changed extrude rate to: 0.05
; *************************************************************
G1 X10.0 Y0.0 Z0.0 E0.5
; Changed extrude rate to: 5
; *************************************************************
G1 X5.6631 Y-4.1145 Z0.0 E35.0
G1 X1.7634 Y2.4271 Z0.0 E15.0
G1 X-1.7634 Y-2.4271 Z-0.0 E15.0
; Changed extrude rate to: 0.05
; *************************************************************
G1 X4.0451 Y-2.9389 Z0.0 E0.25
; Changed extrude rate to: 5
; *************************************************************
G1 X1.8541 Y-5.7063 Z0.0 E30.0
G1 X2.8532 Y0.9271 Z0.0 E15.0
G1 X-2.8532 Y-0.9271 Z-0.0 E15.0
; Changed extrude rate to: 0.05
; *************************************************************
G1 X1.8541 Y-5.7063 Z0.0 E0.3
; Changed extrude rate to: 5
; *************************************************************
G1 X-2.1631 Y-6.6574 Z0.0 E35.0
G1 X2.8532 Y-0.9271 Z0.0 E15.0
G1 X-2.8532 Y0.9271 Z-0.0 E15.0
; Changed extrude rate to: 0.05
; *************************************************************
G1 X-1.5451 Y-4.7553 Z0.0 E0.25
; Changed extrude rate to: 5
; *************************************************************
G1 X-7.2812 Y-5.2901 Z0.0 E45.0
G1 X1.7634 Y-2.4271 Z0.0 E15.0
G1 X-1.7634 Y2.4271 Z-0.0 E15.0
; Changed extrude rate to: 0.05
; *************************************************************
G1 X-2.4271 Y-1.7634 Z0.0 E0.15
; Changed extrude rate to: 5
; *************************************************************
G1 X-8.0 Y0.0 Z0.0 E40.0
G1 X-0.0 Y-3.0 Z0.0 E15.0
G1 X0.0 Y3.0 Z-0.0 E15.0
; Changed extrude rate to: 0.05
; *************************************************************
G1 X-4.0 Y0.0 Z0.0 E0.2
; Changed extrude rate to: 5
; *************************************************************
G1 X-8.8992 Y6.4656 Z0.0 E55.0
G1 X-1.7634 Y-2.4271 Z0.0 E15.0
G1 X1.7634 Y2.4271 Z-0.0 E15.0
; Changed extrude rate to: 0.05
; *************************************************************
G1 X-0.809 Y0.5878 Z0.0 E0.05
; Changed extrude rate to: 5
; *************************************************************
G1 X-0.9271 Y2.8532 Z0.0 E15.0
G1 X-2.8532 Y-0.9271 Z0.0 E15.0
G1 X2.8532 Y0.9271 Z-0.0 E15.0
; Changed extrude rate to: 0.05
; *************************************************************
G1 X-2.7812 Y8.5595 Z0.0 E0.45
; Changed extrude rate to: 5
; *************************************************************
G1 X0.618 Y1.9021 Z0.0 E10.0
G1 X-2.8532 Y0.9271 Z0.0 E15.0
G1 X2.8532 Y-0.9271 Z-0.0 E15.0
; Changed extrude rate to: 0.05
; *************************************************************
G1 X3.0902 Y9.5106 Z0.0 E0.5
; Changed extrude rate to: 5
; *************************************************************
G1 X1.618 Y1.1756 Z0.0 E10.0
G1 X-1.7634 Y2.4271 Z0.0 E15.0
G1 X1.7634 Y-2.4271 Z-0.0 E15.0
; Changed extrude rate to: 0.05
; *************************************************************
G1 X8.0902 Y5.8779 Z0.0 E0.5
G1 Z0.2
; Changed extrude rate to: 5
; *************************************************************
G1 X4.0 Y0.0 Z0.0 E20.0
G1 X0.0 Y3.0 Z0.0 E15.0
G1 X-0.0 Y-3.0 Z-0.0 E15.0
; Changed extrude rate to: 0.05
; *************************************************************
G1 X8.0 Y0.0 Z0.0 E0.4
; Changed extrude rate to: 5
; *************************************************************
G1 X1.618 Y-1.1756 Z0.0 E10.0
G1 X1.7634 Y2.4271 Z0.0 E15.0
G1 X-1.7634 Y-2.4271 Z-0.0 E15.0
; Changed extrude rate to: 0.05
; *************************************************************
G1 X8.0902 Y-5.8779 Z0.0 E0.5
; Changed extrude rate to: 5
; *************************************************************
G1 X3.7082 Y-11.4127 Z0.0 E60.0
G1 X2.8532 Y0.9271 Z0.0 E15.0
G1 X-2.8532 Y-0.9271 Z-0.0 E15.0
; Changed extrude rate to: 0.05
; *************************************************************
G1 X0.0 Y-0.0 Z0.0 E0.0
; Changed extrude rate to: 5
; *************************************************************
G1 X-2.1631 Y-6.6574 Z0.0 E35.0
G1 X2.8532 Y-0.9271 Z0.0 E15.0
G1 X-2.8532 Y0.9271 Z-0.0 E15.0
; Changed extrude rate to: 0.05
; *************************************************************
G1 X-1.5451 Y-4.7553 Z0.0 E0.25
; Changed extrude rate to: 5
; *************************************************************
G1 X-3.2361 Y-2.3511 Z0.0 E20.0
G1 X1.7634 Y-2.4271 Z0.0 E15.0
G1 X-1.7634 Y2.4271 Z-0.0 E15.0
; Changed extrude rate to: 0.05
; *************************************************************
G1 X-6.4721 Y-4.7023 Z0.0 E0.4
; Changed extrude rate to: 5
; *************************************************************
G1 X-12.0 Y0.0 Z0.0 E60.0
G1 X-0.0 Y-3.0 Z0.0 E15.0
G1 X0.0 Y3.0 Z-0.0 E15.0
; Changed extrude rate to: 0.05
; *************************************************************
G1 X-0.0 Y0.0 Z0.0 E0.0
; Changed extrude rate to: 5
; *************************************************************
G1 X-4.8541 Y3.5267 Z0.0 E30.0
G1 X-1.7634 Y-2.4271 Z0.0 E15.0
G1 X1.7634 Y2.4271 Z-0.0 E15.0
; Changed extrude rate to: 0.05
; *************************************************************
G1 X-4.8541 Y3.5267 Z0.0 E0.3
; Changed extrude rate to: 5
; *************************************************************
G1 X-3.0902 Y9.5106 Z0.0 E50.0
G1 X-2.8532 Y-0.9271 Z0.0 E15.0
G1 X2.8532 Y0.9271 Z-0.0 E15.0
; Changed extrude rate to: 0.05
; *************************************************************
G1 X-0.618 Y1.9021 Z0.0 E0.1
; Changed extrude rate to: 5
; *************************************************************
G1 X2.7812 Y8.5595 Z0.0 E45.0
G1 X-2.8532 Y0.9271 Z0.0 E15.0
G1 X2.8532 Y-0.9271 Z-0.0 E15.0
; Changed extrude rate to: 0.05
; *************************************************************
G1 X0.9271 Y2.8532 Z0.0 E0.15
; Changed extrude rate to: 5
; *************************************************************
G1 X9.7082 Y7.0534 Z0.0 E60.0
G1 X-1.7634 Y2.4271 Z0.0 E15.0
G1 X1.7634 Y-2.4271 Z-0.0 E15.0
; Changed extrude rate to: 0.05
; *************************************************************
G1 X0.0 Y0.0 Z0.0 E0.0
G1 Z0.2
; Changed extrude rate to: 5
; *************************************************************
G1 X8.0 Y0.0 Z0.0 E40.0
G1 X0.0 Y3.0 Z0.0 E15.0
G1 X-0.0 Y-3.0 Z-0.0 E15.0
; Changed extrude rate to: 0.05
; *************************************************************
G1 X4.0 Y0.0 Z0.0 E0.2
; Changed extrude rate to: 5
; *************************************************************
G1 X9.7082 Y-7.0534 Z0.0 E60.0
G1 X1.7634 Y2.4271 Z0.0 E15.0
G1 X-1.7634 Y-2.4271 Z-0.0 E15.0
; Changed extrude rate to: 0.05
; *************************************************************
G1 X0.0 Y-0.0 Z0.0 E0.0
; Changed extrude rate to: 5
; *************************************************************
G1 X3.3992 Y-10.4616 Z0.0 E55.0
G1 X2.8532 Y0.9271 Z0.0 E15.0
G1 X-2.8532 Y-0.9271 Z-0.0 E15.0
; Changed extrude rate to: 0.05
; *************************************************************
G1 X0.309 Y-0.9511 Z0.0 E0.05
; Changed extrude rate to: 5
; *************************************************************
G1 X-3.7082 Y-11.4127 Z0.0 E60.0
G1 X2.8532 Y-0.9271 Z0.0 E15.0
G1 X-2.8532 Y0.9271 Z-0.0 E15.0
; Changed extrude rate to: 0.05
; *************************************************************
G1 X-0.0 Y-0.0 Z0.0 E0.0
; Changed extrude rate to: 5
; *************************************************************
G1 X-8.8992 Y-6.4656 Z0.0 E55.0
G1 X1.7634 Y-2.4271 Z0.0 E15.0
G1 X-1.7634 Y2.4271 Z-0.0 E15.0
; Changed extrude rate to: 0.05
; *************************************************************
G1 X-0.809 Y-0.5878 Z0.0 E0.05
; Changed extrude rate to: 5
; *************************************************************
G1 X-1.0 Y0.0 Z0.0 E5.0
G1 X-0.0 Y-3.0 Z0.0 E15.0
G1 X0.0 Y3.0 Z-0.0 E15.0
; Changed extrude rate to: 0.05
; *************************************************************
G1 X-11.0 Y0.0 Z0.0 E0.55
; Changed extrude rate to: 5
; *************************************************************
G1 X-7.2812 Y5.2901 Z0.0 E45.0
G1 X-1.7634 Y-2.4271 Z0.0 E15.0
G1 X1.7634 Y2.4271 Z-0.0 E15.0
; Changed extrude rate to: 0.05
; *************************************************************
G1 X-2.4271 Y1.7634 Z0.0 E0.15
; Changed extrude rate to: 5
; *************************************************************
G1 X-3.3992 Y10.4616 Z0.0 E55.0
G1 X-2.8532 Y-0.9271 Z0.0 E15.0
G1 X2.8532 Y0.9271 Z-0.0 E15.0
; Changed extrude rate to: 0.05
; *************************************************************
G1 X-0.309 Y0.9511 Z0.0 E0.05
; Changed extrude rate to: 5
; *************************************************************
G1 X3.7082 Y11.4127 Z0.0 E60.0
G1 X-2.8532 Y0.9271 Z0.0 E15.0
G1 X2.8532 Y-0.9271 Z-0.0 E15.0
; Changed extrude rate to: 0.05
; *************************************************************
G1 X0.0 Y0.0 Z0.0 E0.0
; Changed extrude rate to: 5
; *************************************************************
G1 X7.2812 Y5.2901 Z0.0 E45.0
G1 X-1.7634 Y2.4271 Z0.0 E15.0
G1 X1.7634 Y-2.4271 Z-0.0 E15.0
; Changed extrude rate to: 0.05
; *************************************************************
G1 X2.4271 Y1.7634 Z0.0 E0.15
G1 Z0.2
; Changed extrude rate to: 5
; *************************************************************
G1 X5.0 Y0.0 Z0.0 E25.0
G1 X0.0 Y3.0 Z0.0 E15.0
G1 X-0.0 Y-3.0 Z-0.0 E15.0
; Changed extrude rate to: 0.05
; *************************************************************
G1 X7.0 Y0.0 Z0.0 E0.35
; Changed extrude rate to: 5
; *************************************************************
G1 X1.618 Y-1.1756 Z0.0 E10.0
G1 X1.7634 Y2.4271 Z0.0 E15.0
G1 X-1.7634 Y-2.4271 Z-0.0 E15.0
; Changed extrude rate to: 0.05
; *************************************************************
G1 X8.0902 Y-5.8779 Z0.0 E0.5
; Changed extrude rate to: 5
; *************************************************************
G1 X1.8541 Y-5.7063 Z0.0 E30.0
G1 X2.8532 Y0.9271 Z0.0 E15.0
G1 X-2.8532 Y-0.9271 Z-0.0 E15.0
; Changed extrude rate to: 0.05
; *************************************************************
G1 X1.8541 Y-5.7063 Z0.0 E0.3
; Changed extrude rate to: 5
; *************************************************************
G1 X-0.309 Y-0.9511 Z0.0 E5.0
G1 X2.8532 Y-0.9271 Z0.0 E15.0
G1 X-2.8532 Y0.9271 Z-0.0 E15.0
; Changed extrude rate to: 0.05
; *************************************************************
G1 X-3.3992 Y-10.4616 Z0.0 E0.55
; Changed extrude rate to: 5
; *************************************************************
G1 X-1.618 Y-1.1756 Z0.0 E10.0
G1 X1.7634 Y-2.4271 Z0.0 E15.0
G1 X-1.7634 Y2.4271 Z-0.0 E15.0
; Changed extrude rate to: 0.05
; *************************************************************
G1 X-8.0902 Y-5.8779 Z0.0 E0.5
; Changed extrude rate to: 5
; *************************************************************
G1 X-10.0 Y0.0 Z0.0 E50.0
G1 X-0.0 Y-3.0 Z0.0 E15.0
G1 X0.0 Y3.0 Z-0.0 E15.0
; Changed extrude rate to: 0.05
; *************************************************************
G1 X-2.0 Y0.0 Z0.0 E0.1
; Changed extrude rate to: 5
; *************************************************************
G1 X-8.8992 Y6.4656 Z0.0 E55.0
G1 X-1.7634 Y-2.4271 Z0.0 E15.0
G1 X1.7634 Y2.4271 Z-0.0 E15.0
; Changed extrude rate to: 0.05
; *************************************************************
G1 X-0.809 Y0.5878 Z0.0 E0.05
; Changed extrude rate to: 5
; *************************************************************
G1 X-3.0902 Y9.5106 Z0.0 E50.0
G1 X-2.8532 Y-0.9271 Z0.0 E15.0
G1 X2.8532 Y0.9271 Z-0.0 E15.0
; Changed extrude rate to: 0.05
; *************************************************************
G1 X-0.618 Y1.9021 Z0.0 E0.1
; Changed extrude rate to: 5
; *************************************************************
G1 X1.8541 Y5.7063 Z0.0 E30.0
G1 X-2.8532 Y0.9271 Z0.0 E15.0
G1 X2.8532 Y-0.9271 Z-0.0 E15.0
; Changed extrude rate to: 0.05
; *************************************************************
G1 X1.8541 Y5.7063 Z0.0 E0.3
; Changed extrude rate to: 5
; *************************************************************
G1 X1.618 Y1.1756 Z0.0 E10.0
G1 X-1.7634 Y2.4271 Z0.0 E15.0
G1 X1.7634 Y-2.4271 Z-0.0 E15.0
; Changed extrude rate to: 0.05
; *************************************************************
G1 X8.0902 Y5.8779 Z0.0 E0.5
G1 Z0.2
; Changed extrude rate to: 5
; *************************************************************
G1 X9.0 Y0.0 Z0.0 E45.0
G1 X0.0 Y3.0 Z0.0 E15.0
G1 X-0.0 Y-3.0 Z-0.0 E15.0
; Changed extrude rate to: 0.05
; *************************************************************
G1 X3.0 Y0.0 Z0.0 E0.15
; Changed extrude rate to: 5
; *************************************************************
G1 X4.8541 Y-3.5267 Z0.0 E30.0
G1 X1.7634 Y2.4271 Z0.0 E15.0
G1 X-1.7634 Y-2.4271 Z-0.0 E15.0
; Changed extrude rate to: 0.05
; *************************************************************
G1 X4.8541 Y-3.5267 Z0.0 E0.3
; Changed extrude rate to: 5
; *************************************************************
G1 X3.7082 Y-11.4127 Z0.0 E60.0
G1 X2.8532 Y0.9271 Z0.0 E15.0
G1 X-2.8532 Y-0.9271 Z-0.0 E15.0
; Changed extrude rate to: 0.05
; *************************************************************
G1 X0.0 Y-0.0 Z0.0 E0.0
; Changed extrude rate to: 5
; *************************************************************
G1 X-2.1631 Y-6.6574 Z0.0 E35.0
G1 X2.8532 Y-0.9271 Z0.0 E15.0
G1 X-2.8532 Y0.9271 Z-0.0 E15.0
; Changed extrude rate to: 0.05
; *************************************************************
G1 X-1.5451 Y-4.7553 Z0.0 E0.25
; Changed extrude rate to: 5
; *************************************************************
G1 X-8.8992 Y-6.4656 Z0.0 E55.0
G1 X1.7634 Y-2.4271 Z0.0 E15.0
G1 X-1.7634 Y2.4271 Z-0.0 E15.0
; Changed extrude rate to: 0.05
; *************************************************************
G1 X-0.809 Y-0.5878 Z0.0 E0.05
; Changed extrude rate to: 5
; *************************************************************
G1 X-8.0 Y0.0 Z0.0 E40.0
G1 X-0.0 Y-3.0 Z0.0 E15.0
G1 X0.0 Y3.0 Z-0.0 E15.0
; Changed extrude rate to: 0.05
; *************************************************************
G1 X-4.0 Y0.0 Z0.0 E0.2
; Changed extrude rate to: 5
; *************************************************************
G1 X-9.7082 Y7.0534 Z0.0 E60.0
G1 X-1.7634 Y-2.4271 Z0.0 E15.0
G1 X1.7634 Y2.4271 Z-0.0 E15.0
; Changed extrude rate to: 0.05
; *************************************************************
G1 X-0.0 Y0.0 Z0.0 E0.0
; Changed extrude rate to: 5
; *************************************************************
G1 X-1.8541 Y5.7063 Z0.0 E30.0
G1 X-2.8532 Y-0.9271 Z0.0 E15.0
G1 X2.8532 Y0.9271 Z-0.0 E15.0
; Changed extrude rate to: 0.05
; *************************************************************
G1 X-1.8541 Y5.7063 Z0.0 E0.3
; Changed extrude rate to: 5
; *************************************************************
G1 X3.7082 Y11.4127 Z0.0 E60.0
G1 X-2.8532 Y0.9271 Z0.0 E15.0
G1 X2.8532 Y-0.9271 Z-0.0 E15.0
; Changed extrude rate to: 0.05
; *************************************************************
G1 X0.0 Y0.0 Z0.0 E0.0
; Changed extrude rate to: 5
; *************************************************************
G1 X9.7082 Y7.0534 Z0.0 E60.0
G1 X-1.7634 Y2.4271 Z0.0 E15.0
G1 X1.7634 Y-2.4271 Z-0.0 E15.0
; Changed extrude rate to: 0.05
; *************************************************************
G1 X0.0 Y0.0 Z0.0 E0.0
G1 Z0.2
; Changed extrude rate to: 5
; *************************************************************
G1 X6.0 Y0.0 Z0.0 E30.0
G1 X0.0 Y3.0 Z0.0 E15.0
G1 X-0.0 Y-3.0 Z-0.0 E15.0
; Changed extrude rate to: 0.05
; *************************************************************
G1 X6.0 Y0.0 Z0.0 E0.3
; Changed extrude rate to: 5
; *************************************************************
G1 X7.2812 Y-5.2901 Z0.0 E45.0
G1 X1.7634 Y2.4271 Z0.0 E15.0
G1 X-1.7634 Y-2.4271 Z-0.0 E15.0
; Changed extrude rate to: 0.05
; *************************************************************
G1 X2.4271 Y-1.7634 Z0.0 E0.15
; Changed extrude rate to: 5
; *************************************************************
G1 X1.8541 Y-5.7063 Z0.0 E30.0
G1 X2.8532 Y0.9271 Z0.0 E15.0
G1 X-2.8532 Y-0.9271 Z-0.0 E15.0
; Changed extrude rate to: 0.05
; *************************************************************
G1 X1.8541 Y-5.7063 Z0.0 E0.3
; Changed extrude rate to: 5
; *************************************************************
G1 X-2.4721 Y-7.6085 Z0.0 E40.0
G1 X2.8532 Y-0.9271 Z0.0 E15.0
G1 X-2.8532 Y0.9271 Z-0.0 E15.0
; Changed extrude rate to: 0.05
; *************************************************************
G1 X-1.2361 Y-3.8042 Z0.0 E0.2
; Changed extrude rate to: 5
; *************************************************************
G1 X-8.0902 Y-5.8779 Z0.0 E50.0
G1 X1.7634 Y-2.4271 Z0.0 E15.0
G1 X-1.7634 Y2.4271 Z-0.0 E15.0
; Changed extrude rate to: 0.05
; *************************************************************
G1 X-1.618 Y-1.1756 Z0.0 E0.1
; Changed extrude rate to: 5
; *************************************************************
G1 X-1.0 Y0.0 Z0.0 E5.0
G1 X-0.0 Y-3.0 Z0.0 E15.0
G1 X0.0 Y3.0 Z-0.0 E15.0
; Changed extrude rate to: 0.05
; *************************************************************
G1 X-11.0 Y0.0 Z0.0 E0.55
; Changed extrude rate to: 5
; *************************************************************
G1 X-3.2361 Y2.3511 Z0.0 E20.0
G1 X-1.7634 Y-2.4271 Z0.0 E15.0
G1 X1.7634 Y2.4271 Z-0.0 E15.0
; Changed extrude rate to: 0.05
; *************************************************************
G1 X-6.4721 Y4.7023 Z0.0 E0.4
; Changed extrude rate to: 5
; *************************************************************
G1 X-1.5451 Y4.7553 Z0.0 E25.0
G1 X-2.8532 Y-0.9271 Z0.0 E15.0
G1 X2.8532 Y0.9271 Z-0.0 E15.0
; Changed extrude rate to: 0.05
; *************************************************************
G1 X-2.1631 Y6.6574 Z0.0 E0.35
; Changed extrude rate to: 5
; *************************************************************
G1 X1.5451 Y4.7553 Z0.0 E25.0
G1 X-2.8532 Y0.9271 Z0.0 E15.0
G1 X2.8532 Y-0.9271 Z-0.0 E15.0
; Changed extrude rate to: 0.05
