; *************************************************
; *************************************************
; ******* File generated by Extruder Turtle *******
; ******* written by Leah Buechley and  ***********
; ******* and Franklin Pezutti-Dyer ***************
; **** Hand and Machine Lab, UNM, 2021-present ****
; *************************************************
; *************************************************
; ********** Default printer parameters ***********
; Printer: ender
; Nozzle size: 0.2
; Extrude width: 0.4
; Layer height: 0.2
; Extrude rate: 0.05
; Speed: 1000
; Mix Factor: 0.9
; *************** Ender initialization **************
G92 E0 ; Reset Extruder 
G28 ; Home all axes
G90 ; Absolute coordinates for X,Y,Z   
M190 S60 ; Set bed temperature and wait 
M109 S205 ; Set extruder temperature and wait 
G1 Z2.0 F3000 ; Move Z to 2mm above bed 
G1 X0.1 Y20 Z0.3 F5000.0 ; Move to start position
G1 X0.1 Y200.0 Z0.3 F1500.0 E15 ; Draw the first line
G1 X0.4 Y200.0 Z0.3 F5000.0 ; Move to side a little
G1 X0.4 Y20 Z0.3 F1500.0 E30 ; Draw the second line
G92 E0 ; Reset Extruder
G1 Z2.0 F3000 ; Move Z Axis up little to prevent scratching of Heat Bed 
G1 X5 Y20 Z0.3 F5000.0 ; Move over to prevent blob squish 
G92 E0 ; Reset extruder position to zero 
G1 F300 E-3 
G1 F2000
G1 0 0 .3               ; Lift nozzle above bed a little
G1 X100 Y100 Z.1        ; Go to the starting position 
F300 E3                 ; Extrude to get ready
M83 					; Relative extrustion
G91                     ; Relative coordinates for X,Y,Z axes
G1 F1000
; ********** End printer initialization ***********
; *************************************************

; *************** Begin print *********************
G1 X17.0 Y0.0 Z0.0
G1 X0.0 Y-0.1 Z0.0 E0.005
G1 X-0.0017 Y-0.1 Z0.0 E0.005
G1 X-0.0035 Y-0.0999 Z0.0 E0.005
G1 X-0.0052 Y-0.0999 Z0.0 E0.005
G1 X-0.007 Y-0.0998 Z0.0 E0.005
G1 X-0.0087 Y-0.0996 Z0.0 E0.005
G1 X-0.0105 Y-0.0995 Z0.0 E0.005
G1 X-0.0122 Y-0.0993 Z0.0 E0.005
G1 X-0.0139 Y-0.099 Z0.0 E0.005
G1 X-0.0156 Y-0.0988 Z0.0 E0.005
G1 X-0.0174 Y-0.0985 Z0.0 E0.005
G1 X-0.0191 Y-0.0982 Z0.0 E0.005
G1 X-0.0208 Y-0.0978 Z0.0 E0.005
G1 X-0.0225 Y-0.0974 Z0.0 E0.005
G1 X-0.0242 Y-0.097 Z0.0 E0.005
G1 X-0.0259 Y-0.0966 Z0.0 E0.005
G1 X-0.0276 Y-0.0961 Z0.0 E0.005
G1 X-0.0292 Y-0.0956 Z0.0 E0.005
G1 X-0.0309 Y-0.0951 Z0.0 E0.005
G1 X-0.0326 Y-0.0946 Z0.0 E0.005
G1 X-0.0342 Y-0.094 Z0.0 E0.005
G1 X-0.0358 Y-0.0934 Z0.0 E0.005
G1 X-0.0375 Y-0.0927 Z0.0 E0.005
G1 X-0.0391 Y-0.0921 Z0.0 E0.005
G1 X-0.0407 Y-0.0914 Z0.0 E0.005
G1 X-0.0423 Y-0.0906 Z0.0 E0.005
G1 X-0.0438 Y-0.0899 Z0.0 E0.005
G1 X-0.0454 Y-0.0891 Z0.0 E0.005
G1 X-0.0469 Y-0.0883 Z0.0 E0.005
G1 X-0.0485 Y-0.0875 Z0.0 E0.005
G1 X-0.05 Y-0.0866 Z0.0 E0.005
G1 X-0.0515 Y-0.0857 Z0.0 E0.005
G1 X-0.053 Y-0.0848 Z0.0 E0.005
G1 X-0.0545 Y-0.0839 Z0.0 E0.005
G1 X-0.0559 Y-0.0829 Z0.0 E0.005
G1 X-0.0574 Y-0.0819 Z0.0 E0.005
G1 X-0.0588 Y-0.0809 Z0.0 E0.005
G1 X-0.0602 Y-0.0799 Z0.0 E0.005
G1 X-0.0616 Y-0.0788 Z0.0 E0.005
G1 X-0.0629 Y-0.0777 Z0.0 E0.005
G1 X-0.0643 Y-0.0766 Z0.0 E0.005
G1 X-0.0656 Y-0.0755 Z0.0 E0.005
G1 X-0.0669 Y-0.0743 Z0.0 E0.005
G1 X-0.0682 Y-0.0731 Z0.0 E0.005
G1 X-0.0695 Y-0.0719 Z0.0 E0.005
G1 X-0.0707 Y-0.0707 Z0.0 E0.005
G1 X-0.0719 Y-0.0695 Z0.0 E0.005
G1 X-0.0731 Y-0.0682 Z0.0 E0.005
G1 X-0.0743 Y-0.0669 Z0.0 E0.005
G1 X-0.0755 Y-0.0656 Z0.0 E0.005
G1 X-0.0766 Y-0.0643 Z0.0 E0.005
G1 X-0.0777 Y-0.0629 Z0.0 E0.005
G1 X-0.0788 Y-0.0616 Z0.0 E0.005
G1 X-0.0799 Y-0.0602 Z0.0 E0.005
G1 X-0.0809 Y-0.0588 Z0.0 E0.005
G1 X-0.0819 Y-0.0574 Z0.0 E0.005
G1 X-0.0829 Y-0.0559 Z0.0 E0.005
G1 X-0.0839 Y-0.0545 Z0.0 E0.005
G1 X-0.0848 Y-0.053 Z0.0 E0.005
G1 X-0.0857 Y-0.0515 Z0.0 E0.005
G1 X-0.0866 Y-0.05 Z0.0 E0.005
G1 X-0.0875 Y-0.0485 Z0.0 E0.005
G1 X-0.0883 Y-0.0469 Z0.0 E0.005
G1 X-0.0891 Y-0.0454 Z0.0 E0.005
G1 X-0.0899 Y-0.0438 Z0.0 E0.005
G1 X-0.0906 Y-0.0423 Z0.0 E0.005
G1 X-0.0914 Y-0.0407 Z0.0 E0.005
G1 X-0.0921 Y-0.0391 Z0.0 E0.005
G1 X-0.0927 Y-0.0375 Z0.0 E0.005
G1 X-0.0934 Y-0.0358 Z0.0 E0.005
G1 X-0.094 Y-0.0342 Z0.0 E0.005
G1 X-0.0946 Y-0.0326 Z0.0 E0.005
G1 X-0.0951 Y-0.0309 Z0.0 E0.005
G1 X-0.0956 Y-0.0292 Z0.0 E0.005
G1 X-0.0961 Y-0.0276 Z0.0 E0.005
G1 X-0.0966 Y-0.0259 Z0.0 E0.005
G1 X-0.097 Y-0.0242 Z0.0 E0.005
G1 X-0.0974 Y-0.0225 Z0.0 E0.005
G1 X-0.0978 Y-0.0208 Z0.0 E0.005
G1 X-0.0982 Y-0.0191 Z0.0 E0.005
G1 X-0.0985 Y-0.0174 Z0.0 E0.005
G1 X-0.0988 Y-0.0156 Z0.0 E0.005
G1 X-0.099 Y-0.0139 Z0.0 E0.005
G1 X-0.0993 Y-0.0122 Z0.0 E0.005
G1 X-0.0995 Y-0.0105 Z0.0 E0.005
G1 X-0.0996 Y-0.0087 Z0.0 E0.005
G1 X-0.0998 Y-0.007 Z0.0 E0.005
G1 X-0.0999 Y-0.0052 Z0.0 E0.005
G1 X-0.0999 Y-0.0035 Z0.0 E0.005
G1 X-0.1 Y-0.0017 Z0.0 E0.005
G1 X-0.1 Y-0.0 Z0.0 E0.005
G1 X-0.1 Y0.0017 Z0.0 E0.005
G1 X-0.0999 Y0.0035 Z0.0 E0.005
G1 X-0.0999 Y0.0052 Z0.0 E0.005
G1 X-0.0998 Y0.007 Z0.0 E0.005
G1 X-0.0996 Y0.0087 Z0.0 E0.005
G1 X-0.0995 Y0.0105 Z0.0 E0.005
G1 X-0.0993 Y0.0122 Z0.0 E0.005
G1 X-0.099 Y0.0139 Z0.0 E0.005
G1 X-0.0988 Y0.0156 Z0.0 E0.005
G1 X-0.0985 Y0.0174 Z0.0 E0.005
G1 X-0.0982 Y0.0191 Z0.0 E0.005
G1 X-0.0978 Y0.0208 Z0.0 E0.005
G1 X-0.0974 Y0.0225 Z0.0 E0.005
G1 X-0.097 Y0.0242 Z0.0 E0.005
G1 X-0.0966 Y0.0259 Z0.0 E0.005
G1 X-0.0961 Y0.0276 Z0.0 E0.005
G1 X-0.0956 Y0.0292 Z0.0 E0.005
G1 X-0.0951 Y0.0309 Z0.0 E0.005
G1 X-0.0946 Y0.0326 Z0.0 E0.005
G1 X-0.094 Y0.0342 Z0.0 E0.005
G1 X-0.0934 Y0.0358 Z0.0 E0.005
G1 X-0.0927 Y0.0375 Z0.0 E0.005
G1 X-0.0921 Y0.0391 Z0.0 E0.005
G1 X-0.0914 Y0.0407 Z0.0 E0.005
G1 X-0.0906 Y0.0423 Z0.0 E0.005
G1 X-0.0899 Y0.0438 Z0.0 E0.005
G1 X-0.0891 Y0.0454 Z0.0 E0.005
G1 X-0.0883 Y0.0469 Z0.0 E0.005
G1 X-0.0875 Y0.0485 Z0.0 E0.005
G1 X-0.0866 Y0.05 Z0.0 E0.005
G1 X-0.0857 Y0.0515 Z0.0 E0.005
G1 X-0.0848 Y0.053 Z0.0 E0.005
G1 X-0.0839 Y0.0545 Z0.0 E0.005
G1 X-0.0829 Y0.0559 Z0.0 E0.005
G1 X-0.0819 Y0.0574 Z0.0 E0.005
G1 X-0.0809 Y0.0588 Z0.0 E0.005
G1 X-0.0799 Y0.0602 Z0.0 E0.005
G1 X-0.0788 Y0.0616 Z0.0 E0.005
G1 X-0.0777 Y0.0629 Z0.0 E0.005
G1 X-0.0766 Y0.0643 Z0.0 E0.005
G1 X-0.0755 Y0.0656 Z0.0 E0.005
G1 X-0.0743 Y0.0669 Z0.0 E0.005
G1 X-0.0731 Y0.0682 Z0.0 E0.005
G1 X-0.0719 Y0.0695 Z0.0 E0.005
G1 X-0.0707 Y0.0707 Z0.0 E0.005
G1 X-0.0695 Y0.0719 Z0.0 E0.005
G1 X-0.0682 Y0.0731 Z0.0 E0.005
G1 X-0.0669 Y0.0743 Z0.0 E0.005
G1 X-0.0656 Y0.0755 Z0.0 E0.005
G1 X-0.0643 Y0.0766 Z0.0 E0.005
G1 X-0.0629 Y0.0777 Z0.0 E0.005
G1 X-0.0616 Y0.0788 Z0.0 E0.005
G1 X-0.0602 Y0.0799 Z0.0 E0.005
G1 X-0.0588 Y0.0809 Z0.0 E0.005
G1 X-0.0574 Y0.0819 Z0.0 E0.005
G1 X-0.0559 Y0.0829 Z0.0 E0.005
G1 X-0.0545 Y0.0839 Z0.0 E0.005
G1 X-0.053 Y0.0848 Z0.0 E0.005
G1 X-0.0515 Y0.0857 Z0.0 E0.005
G1 X-0.05 Y0.0866 Z0.0 E0.005
G1 X-0.0485 Y0.0875 Z0.0 E0.005
G1 X-0.0469 Y0.0883 Z0.0 E0.005
G1 X-0.0454 Y0.0891 Z0.0 E0.005
G1 X-0.0438 Y0.0899 Z0.0 E0.005
G1 X-0.0423 Y0.0906 Z0.0 E0.005
G1 X-0.0407 Y0.0914 Z0.0 E0.005
G1 X-0.0391 Y0.0921 Z0.0 E0.005
G1 X-0.0375 Y0.0927 Z0.0 E0.005
G1 X-0.0358 Y0.0934 Z0.0 E0.005
G1 X-0.0342 Y0.094 Z0.0 E0.005
G1 X-0.0326 Y0.0946 Z0.0 E0.005
G1 X-0.0309 Y0.0951 Z0.0 E0.005
G1 X-0.0292 Y0.0956 Z0.0 E0.005
G1 X-0.0276 Y0.0961 Z0.0 E0.005
G1 X-0.0259 Y0.0966 Z0.0 E0.005
G1 X-0.0242 Y0.097 Z0.0 E0.005
G1 X-0.0225 Y0.0974 Z0.0 E0.005
G1 X-0.0208 Y0.0978 Z0.0 E0.005
G1 X-0.0191 Y0.0982 Z0.0 E0.005
G1 X-0.0174 Y0.0985 Z0.0 E0.005
G1 X-0.0156 Y0.0988 Z0.0 E0.005
G1 X-0.0139 Y0.099 Z0.0 E0.005
G1 X-0.0122 Y0.0993 Z0.0 E0.005
G1 X-0.0105 Y0.0995 Z0.0 E0.005
G1 X-0.0087 Y0.0996 Z0.0 E0.005
G1 X-0.007 Y0.0998 Z0.0 E0.005
G1 X-0.0052 Y0.0999 Z0.0 E0.005
G1 X-0.0035 Y0.0999 Z0.0 E0.005
G1 X-0.0017 Y0.1 Z0.0 E0.005
G1 X-0.05 Y-0.0866 Z0.0 E0.005
G1 X-0.0515 Y-0.0857 Z0.0 E0.005
G1 X-0.053 Y-0.0848 Z0.0 E0.005
G1 X-0.0545 Y-0.0839 Z0.0 E0.005
G1 X-0.0559 Y-0.0829 Z0.0 E0.005
G1 X-0.0574 Y-0.0819 Z0.0 E0.005
G1 X-0.0588 Y-0.0809 Z0.0 E0.005
G1 X-0.0602 Y-0.0799 Z0.0 E0.005
G1 X-0.0616 Y-0.0788 Z0.0 E0.005
G1 X-0.0629 Y-0.0777 Z0.0 E0.005
G1 X-0.0643 Y-0.0766 Z0.0 E0.005
G1 X-0.0656 Y-0.0755 Z0.0 E0.005
G1 X-0.0669 Y-0.0743 Z0.0 E0.005
G1 X-0.0682 Y-0.0731 Z0.0 E0.005
G1 X-0.0695 Y-0.0719 Z0.0 E0.005
G1 X-0.0707 Y-0.0707 Z0.0 E0.005
G1 X-0.0719 Y-0.0695 Z0.0 E0.005
G1 X-0.0731 Y-0.0682 Z0.0 E0.005
G1 X-0.0743 Y-0.0669 Z0.0 E0.005
G1 X-0.0755 Y-0.0656 Z0.0 E0.005
G1 X-0.0766 Y-0.0643 Z0.0 E0.005
G1 X-0.0777 Y-0.0629 Z0.0 E0.005
G1 X-0.0788 Y-0.0616 Z0.0 E0.005
G1 X-0.0799 Y-0.0602 Z0.0 E0.005
G1 X-0.0809 Y-0.0588 Z0.0 E0.005
G1 X-0.0819 Y-0.0574 Z0.0 E0.005
G1 X-0.0829 Y-0.0559 Z0.0 E0.005
G1 X-0.0839 Y-0.0545 Z0.0 E0.005
G1 X-0.0848 Y-0.053 Z0.0 E0.005
G1 X-0.0857 Y-0.0515 Z0.0 E0.005
G1 X-0.0866 Y-0.05 Z0.0 E0.005
G1 X-0.0875 Y-0.0485 Z0.0 E0.005
G1 X-0.0883 Y-0.0469 Z0.0 E0.005
G1 X-0.0891 Y-0.0454 Z0.0 E0.005
G1 X-0.0899 Y-0.0438 Z0.0 E0.005
G1 X-0.0906 Y-0.0423 Z0.0 E0.005
G1 X-0.0914 Y-0.0407 Z0.0 E0.005
G1 X-0.0921 Y-0.0391 Z0.0 E0.005
G1 X-0.0927 Y-0.0375 Z0.0 E0.005
G1 X-0.0934 Y-0.0358 Z0.0 E0.005
G1 X-0.094 Y-0.0342 Z0.0 E0.005
G1 X-0.0946 Y-0.0326 Z0.0 E0.005
G1 X-0.0951 Y-0.0309 Z0.0 E0.005
G1 X-0.0956 Y-0.0292 Z0.0 E0.005
G1 X-0.0961 Y-0.0276 Z0.0 E0.005
G1 X-0.0966 Y-0.0259 Z0.0 E0.005
G1 X-0.097 Y-0.0242 Z0.0 E0.005
G1 X-0.0974 Y-0.0225 Z0.0 E0.005
G1 X-0.0978 Y-0.0208 Z0.0 E0.005
G1 X-0.0982 Y-0.0191 Z0.0 E0.005
G1 X-0.0985 Y-0.0174 Z0.0 E0.005
G1 X-0.0988 Y-0.0156 Z0.0 E0.005
G1 X-0.099 Y-0.0139 Z0.0 E0.005
G1 X-0.0993 Y-0.0122 Z0.0 E0.005
G1 X-0.0995 Y-0.0105 Z0.0 E0.005
G1 X-0.0996 Y-0.0087 Z0.0 E0.005
G1 X-0.0998 Y-0.007 Z0.0 E0.005
G1 X-0.0999 Y-0.0052 Z0.0 E0.005
G1 X-0.0999 Y-0.0035 Z0.0 E0.005
G1 X-0.1 Y-0.0017 Z0.0 E0.005
G1 X-0.1 Y-0.0 Z0.0 E0.005
G1 X-0.1 Y0.0017 Z0.0 E0.005
G1 X-0.0999 Y0.0035 Z0.0 E0.005
G1 X-0.0999 Y0.0052 Z0.0 E0.005
G1 X-0.0998 Y0.007 Z0.0 E0.005
G1 X-0.0996 Y0.0087 Z0.0 E0.005
G1 X-0.0995 Y0.0105 Z0.0 E0.005
G1 X-0.0993 Y0.0122 Z0.0 E0.005
G1 X-0.099 Y0.0139 Z0.0 E0.005
G1 X-0.0988 Y0.0156 Z0.0 E0.005
G1 X-0.0985 Y0.0174 Z0.0 E0.005
G1 X-0.0982 Y0.0191 Z0.0 E0.005
G1 X-0.0978 Y0.0208 Z0.0 E0.005
G1 X-0.0974 Y0.0225 Z0.0 E0.005
G1 X-0.097 Y0.0242 Z0.0 E0.005
G1 X-0.0966 Y0.0259 Z0.0 E0.005
G1 X-0.0961 Y0.0276 Z0.0 E0.005
G1 X-0.0956 Y0.0292 Z0.0 E0.005
G1 X-0.0951 Y0.0309 Z0.0 E0.005
G1 X-0.0946 Y0.0326 Z0.0 E0.005
G1 X-0.094 Y0.0342 Z0.0 E0.005
G1 X-0.0934 Y0.0358 Z0.0 E0.005
G1 X-0.0927 Y0.0375 Z0.0 E0.005
G1 X-0.0921 Y0.0391 Z0.0 E0.005
G1 X-0.0914 Y0.0407 Z0.0 E0.005
G1 X-0.0906 Y0.0423 Z0.0 E0.005
G1 X-0.0899 Y0.0438 Z0.0 E0.005
G1 X-0.0891 Y0.0454 Z0.0 E0.005
G1 X-0.0883 Y0.0469 Z0.0 E0.005
G1 X-0.0875 Y0.0485 Z0.0 E0.005
G1 X-0.0866 Y0.05 Z0.0 E0.005
G1 X-0.0857 Y0.0515 Z0.0 E0.005
G1 X-0.0848 Y0.053 Z0.0 E0.005
G1 X-0.0839 Y0.0545 Z0.0 E0.005
G1 X-0.0829 Y0.0559 Z0.0 E0.005
G1 X-0.0819 Y0.0574 Z0.0 E0.005
G1 X-0.0809 Y0.0588 Z0.0 E0.005
G1 X-0.0799 Y0.0602 Z0.0 E0.005
G1 X-0.0788 Y0.0616 Z0.0 E0.005
G1 X-0.0777 Y0.0629 Z0.0 E0.005
G1 X-0.0766 Y0.0643 Z0.0 E0.005
G1 X-0.0755 Y0.0656 Z0.0 E0.005
G1 X-0.0743 Y0.0669 Z0.0 E0.005
G1 X-0.0731 Y0.0682 Z0.0 E0.005
G1 X-0.0719 Y0.0695 Z0.0 E0.005
G1 X-0.0707 Y0.0707 Z0.0 E0.005
G1 X-0.0695 Y0.0719 Z0.0 E0.005
G1 X-0.0682 Y0.0731 Z0.0 E0.005
G1 X-0.0669 Y0.0743 Z0.0 E0.005
G1 X-0.0656 Y0.0755 Z0.0 E0.005
G1 X-0.0643 Y0.0766 Z0.0 E0.005
G1 X-0.0629 Y0.0777 Z0.0 E0.005
G1 X-0.0616 Y0.0788 Z0.0 E0.005
G1 X-0.0602 Y0.0799 Z0.0 E0.005
G1 X-0.0588 Y0.0809 Z0.0 E0.005
G1 X-0.0574 Y0.0819 Z0.0 E0.005
G1 X-0.0559 Y0.0829 Z0.0 E0.005
G1 X-0.0545 Y0.0839 Z0.0 E0.005
G1 X-0.053 Y0.0848 Z0.0 E0.005
G1 X-0.0515 Y0.0857 Z0.0 E0.005
G1 X-0.05 Y0.0866 Z0.0 E0.005
G1 X-0.0485 Y0.0875 Z0.0 E0.005
G1 X-0.0469 Y0.0883 Z0.0 E0.005
G1 X-0.0454 Y0.0891 Z0.0 E0.005
G1 X-0.0438 Y0.0899 Z0.0 E0.005
G1 X-0.0423 Y0.0906 Z0.0 E0.005
G1 X-0.0407 Y0.0914 Z0.0 E0.005
G1 X-0.0391 Y0.0921 Z0.0 E0.005
G1 X-0.0375 Y0.0927 Z0.0 E0.005
G1 X-0.0358 Y0.0934 Z0.0 E0.005
G1 X-0.0342 Y0.094 Z0.0 E0.005
G1 X-0.0326 Y0.0946 Z0.0 E0.005
G1 X-0.0309 Y0.0951 Z0.0 E0.005
G1 X-0.0292 Y0.0956 Z0.0 E0.005
G1 X-0.0276 Y0.0961 Z0.0 E0.005
G1 X-0.0259 Y0.0966 Z0.0 E0.005
G1 X-0.0242 Y0.097 Z0.0 E0.005
G1 X-0.0225 Y0.0974 Z0.0 E0.005
G1 X-0.0208 Y0.0978 Z0.0 E0.005
G1 X-0.0191 Y0.0982 Z0.0 E0.005
G1 X-0.0174 Y0.0985 Z0.0 E0.005
G1 X-0.0156 Y0.0988 Z0.0 E0.005
G1 X-0.0139 Y0.099 Z0.0 E0.005
G1 X-0.0122 Y0.0993 Z0.0 E0.005
G1 X-0.0105 Y0.0995 Z0.0 E0.005
G1 X-0.0087 Y0.0996 Z0.0 E0.005
G1 X-0.007 Y0.0998 Z0.0 E0.005
G1 X-0.0052 Y0.0999 Z0.0 E0.005
G1 X-0.0035 Y0.0999 Z0.0 E0.005
G1 X-0.0017 Y0.1 Z0.0 E0.005
G1 X-0.0 Y0.1 Z0.0 E0.005
G1 X0.0017 Y0.1 Z0.0 E0.005
G1 X0.0035 Y0.0999 Z0.0 E0.005
G1 X0.0052 Y0.0999 Z0.0 E0.005
G1 X0.007 Y0.0998 Z0.0 E0.005
G1 X0.0087 Y0.0996 Z0.0 E0.005
G1 X0.0105 Y0.0995 Z0.0 E0.005
G1 X0.0122 Y0.0993 Z0.0 E0.005
G1 X0.0139 Y0.099 Z0.0 E0.005
G1 X0.0156 Y0.0988 Z0.0 E0.005
G1 X0.0174 Y0.0985 Z0.0 E0.005
G1 X0.0191 Y0.0982 Z0.0 E0.005
G1 X0.0208 Y0.0978 Z0.0 E0.005
G1 X0.0225 Y0.0974 Z0.0 E0.005
G1 X0.0242 Y0.097 Z0.0 E0.005
G1 X0.0259 Y0.0966 Z0.0 E0.005
G1 X0.0276 Y0.0961 Z0.0 E0.005
G1 X0.0292 Y0.0956 Z0.0 E0.005
G1 X0.0309 Y0.0951 Z0.0 E0.005
G1 X0.0326 Y0.0946 Z0.0 E0.005
G1 X0.0342 Y0.094 Z0.0 E0.005
G1 X0.0358 Y0.0934 Z0.0 E0.005
G1 X0.0375 Y0.0927 Z0.0 E0.005
G1 X0.0391 Y0.0921 Z0.0 E0.005
G1 X0.0407 Y0.0914 Z0.0 E0.005
G1 X0.0423 Y0.0906 Z0.0 E0.005
G1 X0.0438 Y0.0899 Z0.0 E0.005
G1 X0.0454 Y0.0891 Z0.0 E0.005
G1 X0.0469 Y0.0883 Z0.0 E0.005
G1 X0.0485 Y0.0875 Z0.0 E0.005
G1 X-0.0866 Y-0.05 Z0.0 E0.005
G1 X-0.0875 Y-0.0485 Z0.0 E0.005
G1 X-0.0883 Y-0.0469 Z0.0 E0.005
G1 X-0.0891 Y-0.0454 Z0.0 E0.005
G1 X-0.0899 Y-0.0438 Z0.0 E0.005
G1 X-0.0906 Y-0.0423 Z0.0 E0.005
G1 X-0.0914 Y-0.0407 Z0.0 E0.005
G1 X-0.0921 Y-0.0391 Z0.0 E0.005
G1 X-0.0927 Y-0.0375 Z0.0 E0.005
G1 X-0.0934 Y-0.0358 Z0.0 E0.005
G1 X-0.094 Y-0.0342 Z0.0 E0.005
G1 X-0.0946 Y-0.0326 Z0.0 E0.005
G1 X-0.0951 Y-0.0309 Z0.0 E0.005
G1 X-0.0956 Y-0.0292 Z0.0 E0.005
G1 X-0.0961 Y-0.0276 Z0.0 E0.005
G1 X-0.0966 Y-0.0259 Z0.0 E0.005
G1 X-0.097 Y-0.0242 Z0.0 E0.005
G1 X-0.0974 Y-0.0225 Z0.0 E0.005
G1 X-0.0978 Y-0.0208 Z0.0 E0.005
G1 X-0.0982 Y-0.0191 Z0.0 E0.005
G1 X-0.0985 Y-0.0174 Z0.0 E0.005
G1 X-0.0988 Y-0.0156 Z0.0 E0.005
G1 X-0.099 Y-0.0139 Z0.0 E0.005
G1 X-0.0993 Y-0.0122 Z0.0 E0.005
G1 X-0.0995 Y-0.0105 Z0.0 E0.005
G1 X-0.0996 Y-0.0087 Z0.0 E0.005
G1 X-0.0998 Y-0.007 Z0.0 E0.005
G1 X-0.0999 Y-0.0052 Z0.0 E0.005
G1 X-0.0999 Y-0.0035 Z0.0 E0.005
G1 X-0.1 Y-0.0017 Z0.0 E0.005
G1 X-0.1 Y-0.0 Z0.0 E0.005
G1 X-0.1 Y0.0017 Z0.0 E0.005
G1 X-0.0999 Y0.0035 Z0.0 E0.005
G1 X-0.0999 Y0.0052 Z0.0 E0.005
G1 X-0.0998 Y0.007 Z0.0 E0.005
G1 X-0.0996 Y0.0087 Z0.0 E0.005
G1 X-0.0995 Y0.0105 Z0.0 E0.005
G1 X-0.0993 Y0.0122 Z0.0 E0.005
G1 X-0.099 Y0.0139 Z0.0 E0.005
G1 X-0.0988 Y0.0156 Z0.0 E0.005
G1 X-0.0985 Y0.0174 Z0.0 E0.005
G1 X-0.0982 Y0.0191 Z0.0 E0.005
G1 X-0.0978 Y0.0208 Z0.0 E0.005
G1 X-0.0974 Y0.0225 Z0.0 E0.005
G1 X-0.097 Y0.0242 Z0.0 E0.005
G1 X-0.0966 Y0.0259 Z0.0 E0.005
G1 X-0.0961 Y0.0276 Z0.0 E0.005
G1 X-0.0956 Y0.0292 Z0.0 E0.005
G1 X-0.0951 Y0.0309 Z0.0 E0.005
G1 X-0.0946 Y0.0326 Z0.0 E0.005
G1 X-0.094 Y0.0342 Z0.0 E0.005
G1 X-0.0934 Y0.0358 Z0.0 E0.005
G1 X-0.0927 Y0.0375 Z0.0 E0.005
G1 X-0.0921 Y0.0391 Z0.0 E0.005
G1 X-0.0914 Y0.0407 Z0.0 E0.005
G1 X-0.0906 Y0.0423 Z0.0 E0.005
G1 X-0.0899 Y0.0438 Z0.0 E0.005
G1 X-0.0891 Y0.0454 Z0.0 E0.005
G1 X-0.0883 Y0.0469 Z0.0 E0.005
G1 X-0.0875 Y0.0485 Z0.0 E0.005
G1 X-0.0866 Y0.05 Z0.0 E0.005
G1 X-0.0857 Y0.0515 Z0.0 E0.005
G1 X-0.0848 Y0.053 Z0.0 E0.005
G1 X-0.0839 Y0.0545 Z0.0 E0.005
G1 X-0.0829 Y0.0559 Z0.0 E0.005
G1 X-0.0819 Y0.0574 Z0.0 E0.005
G1 X-0.0809 Y0.0588 Z0.0 E0.005
G1 X-0.0799 Y0.0602 Z0.0 E0.005
G1 X-0.0788 Y0.0616 Z0.0 E0.005
G1 X-0.0777 Y0.0629 Z0.0 E0.005
G1 X-0.0766 Y0.0643 Z0.0 E0.005
G1 X-0.0755 Y0.0656 Z0.0 E0.005
G1 X-0.0743 Y0.0669 Z0.0 E0.005
G1 X-0.0731 Y0.0682 Z0.0 E0.005
G1 X-0.0719 Y0.0695 Z0.0 E0.005
G1 X-0.0707 Y0.0707 Z0.0 E0.005
G1 X-0.0695 Y0.0719 Z0.0 E0.005
G1 X-0.0682 Y0.0731 Z0.0 E0.005
G1 X-0.0669 Y0.0743 Z0.0 E0.005
G1 X-0.0656 Y0.0755 Z0.0 E0.005
G1 X-0.0643 Y0.0766 Z0.0 E0.005
G1 X-0.0629 Y0.0777 Z0.0 E0.005
G1 X-0.0616 Y0.0788 Z0.0 E0.005
G1 X-0.0602 Y0.0799 Z0.0 E0.005
G1 X-0.0588 Y0.0809 Z0.0 E0.005
G1 X-0.0574 Y0.0819 Z0.0 E0.005
G1 X-0.0559 Y0.0829 Z0.0 E0.005
G1 X-0.0545 Y0.0839 Z0.0 E0.005
G1 X-0.053 Y0.0848 Z0.0 E0.005
G1 X-0.0515 Y0.0857 Z0.0 E0.005
G1 X-0.05 Y0.0866 Z0.0 E0.005
G1 X-0.0485 Y0.0875 Z0.0 E0.005
G1 X-0.0469 Y0.0883 Z0.0 E0.005
G1 X-0.0454 Y0.0891 Z0.0 E0.005
G1 X-0.0438 Y0.0899 Z0.0 E0.005
G1 X-0.0423 Y0.0906 Z0.0 E0.005
G1 X-0.0407 Y0.0914 Z0.0 E0.005
G1 X-0.0391 Y0.0921 Z0.0 E0.005
G1 X-0.0375 Y0.0927 Z0.0 E0.005
G1 X-0.0358 Y0.0934 Z0.0 E0.005
G1 X-0.0342 Y0.094 Z0.0 E0.005
G1 X-0.0326 Y0.0946 Z0.0 E0.005
G1 X-0.0309 Y0.0951 Z0.0 E0.005
G1 X-0.0292 Y0.0956 Z0.0 E0.005
G1 X-0.0276 Y0.0961 Z0.0 E0.005
G1 X-0.0259 Y0.0966 Z0.0 E0.005
G1 X-0.0242 Y0.097 Z0.0 E0.005
G1 X-0.0225 Y0.0974 Z0.0 E0.005
G1 X-0.0208 Y0.0978 Z0.0 E0.005
G1 X-0.0191 Y0.0982 Z0.0 E0.005
G1 X-0.0174 Y0.0985 Z0.0 E0.005
G1 X-0.0156 Y0.0988 Z0.0 E0.005
G1 X-0.0139 Y0.099 Z0.0 E0.005
G1 X-0.0122 Y0.0993 Z0.0 E0.005
G1 X-0.0105 Y0.0995 Z0.0 E0.005
G1 X-0.0087 Y0.0996 Z0.0 E0.005
G1 X-0.007 Y0.0998 Z0.0 E0.005
G1 X-0.0052 Y0.0999 Z0.0 E0.005
G1 X-0.0035 Y0.0999 Z0.0 E0.005
G1 X-0.0017 Y0.1 Z0.0 E0.005
G1 X-0.0 Y0.1 Z0.0 E0.005
G1 X0.0017 Y0.1 Z0.0 E0.005
G1 X0.0035 Y0.0999 Z0.0 E0.005
G1 X0.0052 Y0.0999 Z0.0 E0.005
G1 X0.007 Y0.0998 Z0.0 E0.005
G1 X0.0087 Y0.0996 Z0.0 E0.005
G1 X0.0105 Y0.0995 Z0.0 E0.005
G1 X0.0122 Y0.0993 Z0.0 E0.005
G1 X0.0139 Y0.099 Z0.0 E0.005
G1 X0.0156 Y0.0988 Z0.0 E0.005
G1 X0.0174 Y0.0985 Z0.0 E0.005
G1 X0.0191 Y0.0982 Z0.0 E0.005
G1 X0.0208 Y0.0978 Z0.0 E0.005
G1 X0.0225 Y0.0974 Z0.0 E0.005
G1 X0.0242 Y0.097 Z0.0 E0.005
G1 X0.0259 Y0.0966 Z0.0 E0.005
G1 X0.0276 Y0.0961 Z0.0 E0.005
G1 X0.0292 Y0.0956 Z0.0 E0.005
G1 X0.0309 Y0.0951 Z0.0 E0.005
G1 X0.0326 Y0.0946 Z0.0 E0.005
G1 X0.0342 Y0.094 Z0.0 E0.005
G1 X0.0358 Y0.0934 Z0.0 E0.005
G1 X0.0375 Y0.0927 Z0.0 E0.005
G1 X0.0391 Y0.0921 Z0.0 E0.005
G1 X0.0407 Y0.0914 Z0.0 E0.005
G1 X0.0423 Y0.0906 Z0.0 E0.005
G1 X0.0438 Y0.0899 Z0.0 E0.005
G1 X0.0454 Y0.0891 Z0.0 E0.005
G1 X0.0469 Y0.0883 Z0.0 E0.005
G1 X0.0485 Y0.0875 Z0.0 E0.005
G1 X0.05 Y0.0866 Z0.0 E0.005
G1 X0.0515 Y0.0857 Z0.0 E0.005
G1 X0.053 Y0.0848 Z0.0 E0.005
G1 X0.0545 Y0.0839 Z0.0 E0.005
G1 X0.0559 Y0.0829 Z0.0 E0.005
G1 X0.0574 Y0.0819 Z0.0 E0.005
G1 X0.0588 Y0.0809 Z0.0 E0.005
G1 X0.0602 Y0.0799 Z0.0 E0.005
G1 X0.0616 Y0.0788 Z0.0 E0.005
G1 X0.0629 Y0.0777 Z0.0 E0.005
G1 X0.0643 Y0.0766 Z0.0 E0.005
G1 X0.0656 Y0.0755 Z0.0 E0.005
G1 X0.0669 Y0.0743 Z0.0 E0.005
G1 X0.0682 Y0.0731 Z0.0 E0.005
G1 X0.0695 Y0.0719 Z0.0 E0.005
G1 X0.0707 Y0.0707 Z0.0 E0.005
G1 X0.0719 Y0.0695 Z0.0 E0.005
G1 X0.0731 Y0.0682 Z0.0 E0.005
G1 X0.0743 Y0.0669 Z0.0 E0.005
G1 X0.0755 Y0.0656 Z0.0 E0.005
G1 X0.0766 Y0.0643 Z0.0 E0.005
G1 X0.0777 Y0.0629 Z0.0 E0.005
G1 X0.0788 Y0.0616 Z0.0 E0.005
G1 X0.0799 Y0.0602 Z0.0 E0.005
G1 X0.0809 Y0.0588 Z0.0 E0.005
G1 X0.0819 Y0.0574 Z0.0 E0.005
G1 X0.0829 Y0.0559 Z0.0 E0.005
G1 X0.0839 Y0.0545 Z0.0 E0.005
G1 X0.0848 Y0.053 Z0.0 E0.005
G1 X0.0857 Y0.0515 Z0.0 E0.005
G1 X-0.1 Y-0.0 Z0.0 E0.005
G1 X-0.1 Y0.0017 Z0.0 E0.005
G1 X-0.0999 Y0.0035 Z0.0 E0.005
G1 X-0.0999 Y0.0052 Z0.0 E0.005
G1 X-0.0998 Y0.007 Z0.0 E0.005
G1 X-0.0996 Y0.0087 Z0.0 E0.005
G1 X-0.0995 Y0.0105 Z0.0 E0.005
G1 X-0.0993 Y0.0122 Z0.0 E0.005
G1 X-0.099 Y0.0139 Z0.0 E0.005
G1 X-0.0988 Y0.0156 Z0.0 E0.005
G1 X-0.0985 Y0.0174 Z0.0 E0.005
G1 X-0.0982 Y0.0191 Z0.0 E0.005
G1 X-0.0978 Y0.0208 Z0.0 E0.005
G1 X-0.0974 Y0.0225 Z0.0 E0.005
G1 X-0.097 Y0.0242 Z0.0 E0.005
G1 X-0.0966 Y0.0259 Z0.0 E0.005
G1 X-0.0961 Y0.0276 Z0.0 E0.005
G1 X-0.0956 Y0.0292 Z0.0 E0.005
G1 X-0.0951 Y0.0309 Z0.0 E0.005
G1 X-0.0946 Y0.0326 Z0.0 E0.005
G1 X-0.094 Y0.0342 Z0.0 E0.005
G1 X-0.0934 Y0.0358 Z0.0 E0.005
G1 X-0.0927 Y0.0375 Z0.0 E0.005
G1 X-0.0921 Y0.0391 Z0.0 E0.005
G1 X-0.0914 Y0.0407 Z0.0 E0.005
G1 X-0.0906 Y0.0423 Z0.0 E0.005
G1 X-0.0899 Y0.0438 Z0.0 E0.005
G1 X-0.0891 Y0.0454 Z0.0 E0.005
G1 X-0.0883 Y0.0469 Z0.0 E0.005
G1 X-0.0875 Y0.0485 Z0.0 E0.005
G1 X-0.0866 Y0.05 Z0.0 E0.005
G1 X-0.0857 Y0.0515 Z0.0 E0.005
G1 X-0.0848 Y0.053 Z0.0 E0.005
G1 X-0.0839 Y0.0545 Z0.0 E0.005
G1 X-0.0829 Y0.0559 Z0.0 E0.005
G1 X-0.0819 Y0.0574 Z0.0 E0.005
G1 X-0.0809 Y0.0588 Z0.0 E0.005
G1 X-0.0799 Y0.0602 Z0.0 E0.005
G1 X-0.0788 Y0.0616 Z0.0 E0.005
G1 X-0.0777 Y0.0629 Z0.0 E0.005
G1 X-0.0766 Y0.0643 Z0.0 E0.005
G1 X-0.0755 Y0.0656 Z0.0 E0.005
G1 X-0.0743 Y0.0669 Z0.0 E0.005
G1 X-0.0731 Y0.0682 Z0.0 E0.005
G1 X-0.0719 Y0.0695 Z0.0 E0.005
G1 X-0.0707 Y0.0707 Z0.0 E0.005
G1 X-0.0695 Y0.0719 Z0.0 E0.005
G1 X-0.0682 Y0.0731 Z0.0 E0.005
G1 X-0.0669 Y0.0743 Z0.0 E0.005
G1 X-0.0656 Y0.0755 Z0.0 E0.005
G1 X-0.0643 Y0.0766 Z0.0 E0.005
G1 X-0.0629 Y0.0777 Z0.0 E0.005
G1 X-0.0616 Y0.0788 Z0.0 E0.005
G1 X-0.0602 Y0.0799 Z0.0 E0.005
G1 X-0.0588 Y0.0809 Z0.0 E0.005
G1 X-0.0574 Y0.0819 Z0.0 E0.005
G1 X-0.0559 Y0.0829 Z0.0 E0.005
G1 X-0.0545 Y0.0839 Z0.0 E0.005
G1 X-0.053 Y0.0848 Z0.0 E0.005
G1 X-0.0515 Y0.0857 Z0.0 E0.005
G1 X-0.05 Y0.0866 Z0.0 E0.005
G1 X-0.0485 Y0.0875 Z0.0 E0.005
G1 X-0.0469 Y0.0883 Z0.0 E0.005
G1 X-0.0454 Y0.0891 Z0.0 E0.005
G1 X-0.0438 Y0.0899 Z0.0 E0.005
G1 X-0.0423 Y0.0906 Z0.0 E0.005
G1 X-0.0407 Y0.0914 Z0.0 E0.005
G1 X-0.0391 Y0.0921 Z0.0 E0.005
G1 X-0.0375 Y0.0927 Z0.0 E0.005
G1 X-0.0358 Y0.0934 Z0.0 E0.005
G1 X-0.0342 Y0.094 Z0.0 E0.005
G1 X-0.0326 Y0.0946 Z0.0 E0.005
G1 X-0.0309 Y0.0951 Z0.0 E0.005
G1 X-0.0292 Y0.0956 Z0.0 E0.005
G1 X-0.0276 Y0.0961 Z0.0 E0.005
G1 X-0.0259 Y0.0966 Z0.0 E0.005
G1 X-0.0242 Y0.097 Z0.0 E0.005
G1 X-0.0225 Y0.0974 Z0.0 E0.005
G1 X-0.0208 Y0.0978 Z0.0 E0.005
G1 X-0.0191 Y0.0982 Z0.0 E0.005
G1 X-0.0174 Y0.0985 Z0.0 E0.005
G1 X-0.0156 Y0.0988 Z0.0 E0.005
G1 X-0.0139 Y0.099 Z0.0 E0.005
G1 X-0.0122 Y0.0993 Z0.0 E0.005
G1 X-0.0105 Y0.0995 Z0.0 E0.005
G1 X-0.0087 Y0.0996 Z0.0 E0.005
G1 X-0.007 Y0.0998 Z0.0 E0.005
G1 X-0.0052 Y0.0999 Z0.0 E0.005
G1 X-0.0035 Y0.0999 Z0.0 E0.005
G1 X-0.0017 Y0.1 Z0.0 E0.005
G1 X-0.0 Y0.1 Z0.0 E0.005
G1 X0.0017 Y0.1 Z0.0 E0.005
G1 X0.0035 Y0.0999 Z0.0 E0.005
G1 X0.0052 Y0.0999 Z0.0 E0.005
G1 X0.007 Y0.0998 Z0.0 E0.005
G1 X0.0087 Y0.0996 Z0.0 E0.005
G1 X0.0105 Y0.0995 Z0.0 E0.005
G1 X0.0122 Y0.0993 Z0.0 E0.005
G1 X0.0139 Y0.099 Z0.0 E0.005
G1 X0.0156 Y0.0988 Z0.0 E0.005
G1 X0.0174 Y0.0985 Z0.0 E0.005
G1 X0.0191 Y0.0982 Z0.0 E0.005
G1 X0.0208 Y0.0978 Z0.0 E0.005
G1 X0.0225 Y0.0974 Z0.0 E0.005
G1 X0.0242 Y0.097 Z0.0 E0.005
G1 X0.0259 Y0.0966 Z0.0 E0.005
G1 X0.0276 Y0.0961 Z0.0 E0.005
G1 X0.0292 Y0.0956 Z0.0 E0.005
G1 X0.0309 Y0.0951 Z0.0 E0.005
G1 X0.0326 Y0.0946 Z0.0 E0.005
G1 X0.0342 Y0.094 Z0.0 E0.005
G1 X0.0358 Y0.0934 Z0.0 E0.005
G1 X0.0375 Y0.0927 Z0.0 E0.005
G1 X0.0391 Y0.0921 Z0.0 E0.005
G1 X0.0407 Y0.0914 Z0.0 E0.005
G1 X0.0423 Y0.0906 Z0.0 E0.005
G1 X0.0438 Y0.0899 Z0.0 E0.005
G1 X0.0454 Y0.0891 Z0.0 E0.005
G1 X0.0469 Y0.0883 Z0.0 E0.005
G1 X0.0485 Y0.0875 Z0.0 E0.005
G1 X0.05 Y0.0866 Z0.0 E0.005
G1 X0.0515 Y0.0857 Z0.0 E0.005
G1 X0.053 Y0.0848 Z0.0 E0.005
G1 X0.0545 Y0.0839 Z0.0 E0.005
G1 X0.0559 Y0.0829 Z0.0 E0.005
G1 X0.0574 Y0.0819 Z0.0 E0.005
G1 X0.0588 Y0.0809 Z0.0 E0.005
G1 X0.0602 Y0.0799 Z0.0 E0.005
G1 X0.0616 Y0.0788 Z0.0 E0.005
G1 X0.0629 Y0.0777 Z0.0 E0.005
G1 X0.0643 Y0.0766 Z0.0 E0.005
G1 X0.0656 Y0.0755 Z0.0 E0.005
G1 X0.0669 Y0.0743 Z0.0 E0.005
G1 X0.0682 Y0.0731 Z0.0 E0.005
G1 X0.0695 Y0.0719 Z0.0 E0.005
G1 X0.0707 Y0.0707 Z0.0 E0.005
G1 X0.0719 Y0.0695 Z0.0 E0.005
G1 X0.0731 Y0.0682 Z0.0 E0.005
G1 X0.0743 Y0.0669 Z0.0 E0.005
G1 X0.0755 Y0.0656 Z0.0 E0.005
G1 X0.0766 Y0.0643 Z0.0 E0.005
G1 X0.0777 Y0.0629 Z0.0 E0.005
G1 X0.0788 Y0.0616 Z0.0 E0.005
G1 X0.0799 Y0.0602 Z0.0 E0.005
G1 X0.0809 Y0.0588 Z0.0 E0.005
G1 X0.0819 Y0.0574 Z0.0 E0.005
G1 X0.0829 Y0.0559 Z0.0 E0.005
G1 X0.0839 Y0.0545 Z0.0 E0.005
G1 X0.0848 Y0.053 Z0.0 E0.005
G1 X0.0857 Y0.0515 Z0.0 E0.005
G1 X0.0866 Y0.05 Z0.0 E0.005
G1 X0.0875 Y0.0485 Z0.0 E0.005
G1 X0.0883 Y0.0469 Z0.0 E0.005
G1 X0.0891 Y0.0454 Z0.0 E0.005
G1 X0.0899 Y0.0438 Z0.0 E0.005
G1 X0.0906 Y0.0423 Z0.0 E0.005
G1 X0.0914 Y0.0407 Z0.0 E0.005
G1 X0.0921 Y0.0391 Z0.0 E0.005
G1 X0.0927 Y0.0375 Z0.0 E0.005
G1 X0.0934 Y0.0358 Z0.0 E0.005
G1 X0.094 Y0.0342 Z0.0 E0.005
G1 X0.0946 Y0.0326 Z0.0 E0.005
G1 X0.0951 Y0.0309 Z0.0 E0.005
G1 X0.0956 Y0.0292 Z0.0 E0.005
G1 X0.0961 Y0.0276 Z0.0 E0.005
G1 X0.0966 Y0.0259 Z0.0 E0.005
G1 X0.097 Y0.0242 Z0.0 E0.005
G1 X0.0974 Y0.0225 Z0.0 E0.005
G1 X0.0978 Y0.0208 Z0.0 E0.005
G1 X0.0982 Y0.0191 Z0.0 E0.005
G1 X0.0985 Y0.0174 Z0.0 E0.005
G1 X0.0988 Y0.0156 Z0.0 E0.005
G1 X0.099 Y0.0139 Z0.0 E0.005
G1 X0.0993 Y0.0122 Z0.0 E0.005
G1 X0.0995 Y0.0105 Z0.0 E0.005
G1 X0.0996 Y0.0087 Z0.0 E0.005
G1 X0.0998 Y0.007 Z0.0 E0.005
G1 X0.0999 Y0.0052 Z0.0 E0.005
G1 X0.0999 Y0.0035 Z0.0 E0.005
G1 X0.1 Y0.0017 Z0.0 E0.005
G1 X-0.0866 Y0.05 Z0.0 E0.005
G1 X-0.0857 Y0.0515 Z0.0 E0.005
G1 X-0.0848 Y0.053 Z0.0 E0.005
G1 X-0.0839 Y0.0545 Z0.0 E0.005
G1 X-0.0829 Y0.0559 Z0.0 E0.005
G1 X-0.0819 Y0.0574 Z0.0 E0.005
G1 X-0.0809 Y0.0588 Z0.0 E0.005
G1 X-0.0799 Y0.0602 Z0.0 E0.005
G1 X-0.0788 Y0.0616 Z0.0 E0.005
G1 X-0.0777 Y0.0629 Z0.0 E0.005
G1 X-0.0766 Y0.0643 Z0.0 E0.005
G1 X-0.0755 Y0.0656 Z0.0 E0.005
G1 X-0.0743 Y0.0669 Z0.0 E0.005
G1 X-0.0731 Y0.0682 Z0.0 E0.005
G1 X-0.0719 Y0.0695 Z0.0 E0.005
G1 X-0.0707 Y0.0707 Z0.0 E0.005
G1 X-0.0695 Y0.0719 Z0.0 E0.005
G1 X-0.0682 Y0.0731 Z0.0 E0.005
G1 X-0.0669 Y0.0743 Z0.0 E0.005
G1 X-0.0656 Y0.0755 Z0.0 E0.005
G1 X-0.0643 Y0.0766 Z0.0 E0.005
G1 X-0.0629 Y0.0777 Z0.0 E0.005
G1 X-0.0616 Y0.0788 Z0.0 E0.005
G1 X-0.0602 Y0.0799 Z0.0 E0.005
G1 X-0.0588 Y0.0809 Z0.0 E0.005
G1 X-0.0574 Y0.0819 Z0.0 E0.005
G1 X-0.0559 Y0.0829 Z0.0 E0.005
G1 X-0.0545 Y0.0839 Z0.0 E0.005
G1 X-0.053 Y0.0848 Z0.0 E0.005
G1 X-0.0515 Y0.0857 Z0.0 E0.005
G1 X-0.05 Y0.0866 Z0.0 E0.005
G1 X-0.0485 Y0.0875 Z0.0 E0.005
G1 X-0.0469 Y0.0883 Z0.0 E0.005
G1 X-0.0454 Y0.0891 Z0.0 E0.005
G1 X-0.0438 Y0.0899 Z0.0 E0.005
G1 X-0.0423 Y0.0906 Z0.0 E0.005
G1 X-0.0407 Y0.0914 Z0.0 E0.005
G1 X-0.0391 Y0.0921 Z0.0 E0.005
G1 X-0.0375 Y0.0927 Z0.0 E0.005
G1 X-0.0358 Y0.0934 Z0.0 E0.005
G1 X-0.0342 Y0.094 Z0.0 E0.005
G1 X-0.0326 Y0.0946 Z0.0 E0.005
G1 X-0.0309 Y0.0951 Z0.0 E0.005
G1 X-0.0292 Y0.0956 Z0.0 E0.005
G1 X-0.0276 Y0.0961 Z0.0 E0.005
G1 X-0.0259 Y0.0966 Z0.0 E0.005
G1 X-0.0242 Y0.097 Z0.0 E0.005
G1 X-0.0225 Y0.0974 Z0.0 E0.005
G1 X-0.0208 Y0.0978 Z0.0 E0.005
G1 X-0.0191 Y0.0982 Z0.0 E0.005
G1 X-0.0174 Y0.0985 Z0.0 E0.005
G1 X-0.0156 Y0.0988 Z0.0 E0.005
G1 X-0.0139 Y0.099 Z0.0 E0.005
G1 X-0.0122 Y0.0993 Z0.0 E0.005
G1 X-0.0105 Y0.0995 Z0.0 E0.005
G1 X-0.0087 Y0.0996 Z0.0 E0.005
G1 X-0.007 Y0.0998 Z0.0 E0.005
G1 X-0.0052 Y0.0999 Z0.0 E0.005
G1 X-0.0035 Y0.0999 Z0.0 E0.005
G1 X-0.0017 Y0.1 Z0.0 E0.005
G1 X-0.0 Y0.1 Z0.0 E0.005
G1 X0.0017 Y0.1 Z0.0 E0.005
G1 X0.0035 Y0.0999 Z0.0 E0.005
G1 X0.0052 Y0.0999 Z0.0 E0.005
G1 X0.007 Y0.0998 Z0.0 E0.005
G1 X0.0087 Y0.0996 Z0.0 E0.005
G1 X0.0105 Y0.0995 Z0.0 E0.005
G1 X0.0122 Y0.0993 Z0.0 E0.005
G1 X0.0139 Y0.099 Z0.0 E0.005
G1 X0.0156 Y0.0988 Z0.0 E0.005
G1 X0.0174 Y0.0985 Z0.0 E0.005
G1 X0.0191 Y0.0982 Z0.0 E0.005
G1 X0.0208 Y0.0978 Z0.0 E0.005
G1 X0.0225 Y0.0974 Z0.0 E0.005
G1 X0.0242 Y0.097 Z0.0 E0.005
G1 X0.0259 Y0.0966 Z0.0 E0.005
G1 X0.0276 Y0.0961 Z0.0 E0.005
G1 X0.0292 Y0.0956 Z0.0 E0.005
G1 X0.0309 Y0.0951 Z0.0 E0.005
G1 X0.0326 Y0.0946 Z0.0 E0.005
G1 X0.0342 Y0.094 Z0.0 E0.005
G1 X0.0358 Y0.0934 Z0.0 E0.005
G1 X0.0375 Y0.0927 Z0.0 E0.005
G1 X0.0391 Y0.0921 Z0.0 E0.005
G1 X0.0407 Y0.0914 Z0.0 E0.005
G1 X0.0423 Y0.0906 Z0.0 E0.005
G1 X0.0438 Y0.0899 Z0.0 E0.005
G1 X0.0454 Y0.0891 Z0.0 E0.005
G1 X0.0469 Y0.0883 Z0.0 E0.005
G1 X0.0485 Y0.0875 Z0.0 E0.005
G1 X0.05 Y0.0866 Z0.0 E0.005
G1 X0.0515 Y0.0857 Z0.0 E0.005
G1 X0.053 Y0.0848 Z0.0 E0.005
G1 X0.0545 Y0.0839 Z0.0 E0.005
G1 X0.0559 Y0.0829 Z0.0 E0.005
G1 X0.0574 Y0.0819 Z0.0 E0.005
G1 X0.0588 Y0.0809 Z0.0 E0.005
G1 X0.0602 Y0.0799 Z0.0 E0.005
G1 X0.0616 Y0.0788 Z0.0 E0.005
G1 X0.0629 Y0.0777 Z0.0 E0.005
G1 X0.0643 Y0.0766 Z0.0 E0.005
G1 X0.0656 Y0.0755 Z0.0 E0.005
G1 X0.0669 Y0.0743 Z0.0 E0.005
G1 X0.0682 Y0.0731 Z0.0 E0.005
G1 X0.0695 Y0.0719 Z0.0 E0.005
G1 X0.0707 Y0.0707 Z0.0 E0.005
G1 X0.0719 Y0.0695 Z0.0 E0.005
G1 X0.0731 Y0.0682 Z0.0 E0.005
G1 X0.0743 Y0.0669 Z0.0 E0.005
G1 X0.0755 Y0.0656 Z0.0 E0.005
G1 X0.0766 Y0.0643 Z0.0 E0.005
G1 X0.0777 Y0.0629 Z0.0 E0.005
G1 X0.0788 Y0.0616 Z0.0 E0.005
G1 X0.0799 Y0.0602 Z0.0 E0.005
G1 X0.0809 Y0.0588 Z0.0 E0.005
G1 X0.0819 Y0.0574 Z0.0 E0.005
G1 X0.0829 Y0.0559 Z0.0 E0.005
G1 X0.0839 Y0.0545 Z0.0 E0.005
G1 X0.0848 Y0.053 Z0.0 E0.005
G1 X0.0857 Y0.0515 Z0.0 E0.005
G1 X0.0866 Y0.05 Z0.0 E0.005
G1 X0.0875 Y0.0485 Z0.0 E0.005
G1 X0.0883 Y0.0469 Z0.0 E0.005
G1 X0.0891 Y0.0454 Z0.0 E0.005
G1 X0.0899 Y0.0438 Z0.0 E0.005
G1 X0.0906 Y0.0423 Z0.0 E0.005
G1 X0.0914 Y0.0407 Z0.0 E0.005
G1 X0.0921 Y0.0391 Z0.0 E0.005
G1 X0.0927 Y0.0375 Z0.0 E0.005
G1 X0.0934 Y0.0358 Z0.0 E0.005
G1 X0.094 Y0.0342 Z0.0 E0.005
G1 X0.0946 Y0.0326 Z0.0 E0.005
G1 X0.0951 Y0.0309 Z0.0 E0.005
G1 X0.0956 Y0.0292 Z0.0 E0.005
G1 X0.0961 Y0.0276 Z0.0 E0.005
G1 X0.0966 Y0.0259 Z0.0 E0.005
G1 X0.097 Y0.0242 Z0.0 E0.005
G1 X0.0974 Y0.0225 Z0.0 E0.005
G1 X0.0978 Y0.0208 Z0.0 E0.005
G1 X0.0982 Y0.0191 Z0.0 E0.005
G1 X0.0985 Y0.0174 Z0.0 E0.005
G1 X0.0988 Y0.0156 Z0.0 E0.005
G1 X0.099 Y0.0139 Z0.0 E0.005
G1 X0.0993 Y0.0122 Z0.0 E0.005
G1 X0.0995 Y0.0105 Z0.0 E0.005
G1 X0.0996 Y0.0087 Z0.0 E0.005
G1 X0.0998 Y0.007 Z0.0 E0.005
G1 X0.0999 Y0.0052 Z0.0 E0.005
G1 X0.0999 Y0.0035 Z0.0 E0.005
G1 X0.1 Y0.0017 Z0.0 E0.005
G1 X0.1 Y0.0 Z0.0 E0.005
G1 X0.1 Y-0.0017 Z0.0 E0.005
G1 X0.0999 Y-0.0035 Z0.0 E0.005
G1 X0.0999 Y-0.0052 Z0.0 E0.005
G1 X0.0998 Y-0.007 Z0.0 E0.005
G1 X0.0996 Y-0.0087 Z0.0 E0.005
G1 X0.0995 Y-0.0105 Z0.0 E0.005
G1 X0.0993 Y-0.0122 Z0.0 E0.005
G1 X0.099 Y-0.0139 Z0.0 E0.005
G1 X0.0988 Y-0.0156 Z0.0 E0.005
G1 X0.0985 Y-0.0174 Z0.0 E0.005
G1 X0.0982 Y-0.0191 Z0.0 E0.005
G1 X0.0978 Y-0.0208 Z0.0 E0.005
G1 X0.0974 Y-0.0225 Z0.0 E0.005
G1 X0.097 Y-0.0242 Z0.0 E0.005
G1 X0.0966 Y-0.0259 Z0.0 E0.005
G1 X0.0961 Y-0.0276 Z0.0 E0.005
G1 X0.0956 Y-0.0292 Z0.0 E0.005
G1 X0.0951 Y-0.0309 Z0.0 E0.005
G1 X0.0946 Y-0.0326 Z0.0 E0.005
G1 X0.094 Y-0.0342 Z0.0 E0.005
G1 X0.0934 Y-0.0358 Z0.0 E0.005
G1 X0.0927 Y-0.0375 Z0.0 E0.005
G1 X0.0921 Y-0.0391 Z0.0 E0.005
G1 X0.0914 Y-0.0407 Z0.0 E0.005
G1 X0.0906 Y-0.0423 Z0.0 E0.005
G1 X0.0899 Y-0.0438 Z0.0 E0.005
G1 X0.0891 Y-0.0454 Z0.0 E0.005
G1 X0.0883 Y-0.0469 Z0.0 E0.005
G1 X0.0875 Y-0.0485 Z0.0 E0.005
G1 X-0.05 Y0.0866 Z0.0 E0.005
G1 X-0.0485 Y0.0875 Z0.0 E0.005
G1 X-0.0469 Y0.0883 Z0.0 E0.005
G1 X-0.0454 Y0.0891 Z0.0 E0.005
G1 X-0.0438 Y0.0899 Z0.0 E0.005
G1 X-0.0423 Y0.0906 Z0.0 E0.005
G1 X-0.0407 Y0.0914 Z0.0 E0.005
G1 X-0.0391 Y0.0921 Z0.0 E0.005
G1 X-0.0375 Y0.0927 Z0.0 E0.005
G1 X-0.0358 Y0.0934 Z0.0 E0.005
G1 X-0.0342 Y0.094 Z0.0 E0.005
G1 X-0.0326 Y0.0946 Z0.0 E0.005
G1 X-0.0309 Y0.0951 Z0.0 E0.005
G1 X-0.0292 Y0.0956 Z0.0 E0.005
G1 X-0.0276 Y0.0961 Z0.0 E0.005
G1 X-0.0259 Y0.0966 Z0.0 E0.005
G1 X-0.0242 Y0.097 Z0.0 E0.005
G1 X-0.0225 Y0.0974 Z0.0 E0.005
G1 X-0.0208 Y0.0978 Z0.0 E0.005
G1 X-0.0191 Y0.0982 Z0.0 E0.005
G1 X-0.0174 Y0.0985 Z0.0 E0.005
G1 X-0.0156 Y0.0988 Z0.0 E0.005
G1 X-0.0139 Y0.099 Z0.0 E0.005
G1 X-0.0122 Y0.0993 Z0.0 E0.005
G1 X-0.0105 Y0.0995 Z0.0 E0.005
G1 X-0.0087 Y0.0996 Z0.0 E0.005
G1 X-0.007 Y0.0998 Z0.0 E0.005
G1 X-0.0052 Y0.0999 Z0.0 E0.005
G1 X-0.0035 Y0.0999 Z0.0 E0.005
G1 X-0.0017 Y0.1 Z0.0 E0.005
G1 X-0.0 Y0.1 Z0.0 E0.005
G1 X0.0017 Y0.1 Z0.0 E0.005
G1 X0.0035 Y0.0999 Z0.0 E0.005
G1 X0.0052 Y0.0999 Z0.0 E0.005
G1 X0.007 Y0.0998 Z0.0 E0.005
G1 X0.0087 Y0.0996 Z0.0 E0.005
G1 X0.0105 Y0.0995 Z0.0 E0.005
G1 X0.0122 Y0.0993 Z0.0 E0.005
G1 X0.0139 Y0.099 Z0.0 E0.005
G1 X0.0156 Y0.0988 Z0.0 E0.005
G1 X0.0174 Y0.0985 Z0.0 E0.005
G1 X0.0191 Y0.0982 Z0.0 E0.005
G1 X0.0208 Y0.0978 Z0.0 E0.005
G1 X0.0225 Y0.0974 Z0.0 E0.005
G1 X0.0242 Y0.097 Z0.0 E0.005
G1 X0.0259 Y0.0966 Z0.0 E0.005
G1 X0.0276 Y0.0961 Z0.0 E0.005
G1 X0.0292 Y0.0956 Z0.0 E0.005
G1 X0.0309 Y0.0951 Z0.0 E0.005
G1 X0.0326 Y0.0946 Z0.0 E0.005
G1 X0.0342 Y0.094 Z0.0 E0.005
G1 X0.0358 Y0.0934 Z0.0 E0.005
G1 X0.0375 Y0.0927 Z0.0 E0.005
G1 X0.0391 Y0.0921 Z0.0 E0.005
G1 X0.0407 Y0.0914 Z0.0 E0.005
G1 X0.0423 Y0.0906 Z0.0 E0.005
G1 X0.0438 Y0.0899 Z0.0 E0.005
G1 X0.0454 Y0.0891 Z0.0 E0.005
G1 X0.0469 Y0.0883 Z0.0 E0.005
G1 X0.0485 Y0.0875 Z0.0 E0.005
G1 X0.05 Y0.0866 Z0.0 E0.005
G1 X0.0515 Y0.0857 Z0.0 E0.005
G1 X0.053 Y0.0848 Z0.0 E0.005
G1 X0.0545 Y0.0839 Z0.0 E0.005
G1 X0.0559 Y0.0829 Z0.0 E0.005
G1 X0.0574 Y0.0819 Z0.0 E0.005
G1 X0.0588 Y0.0809 Z0.0 E0.005
G1 X0.0602 Y0.0799 Z0.0 E0.005
G1 X0.0616 Y0.0788 Z0.0 E0.005
G1 X0.0629 Y0.0777 Z0.0 E0.005
G1 X0.0643 Y0.0766 Z0.0 E0.005
G1 X0.0656 Y0.0755 Z0.0 E0.005
G1 X0.0669 Y0.0743 Z0.0 E0.005
G1 X0.0682 Y0.0731 Z0.0 E0.005
G1 X0.0695 Y0.0719 Z0.0 E0.005
G1 X0.0707 Y0.0707 Z0.0 E0.005
G1 X0.0719 Y0.0695 Z0.0 E0.005
G1 X0.0731 Y0.0682 Z0.0 E0.005
G1 X0.0743 Y0.0669 Z0.0 E0.005
G1 X0.0755 Y0.0656 Z0.0 E0.005
G1 X0.0766 Y0.0643 Z0.0 E0.005
G1 X0.0777 Y0.0629 Z0.0 E0.005
G1 X0.0788 Y0.0616 Z0.0 E0.005
G1 X0.0799 Y0.0602 Z0.0 E0.005
G1 X0.0809 Y0.0588 Z0.0 E0.005
G1 X0.0819 Y0.0574 Z0.0 E0.005
G1 X0.0829 Y0.0559 Z0.0 E0.005
G1 X0.0839 Y0.0545 Z0.0 E0.005
G1 X0.0848 Y0.053 Z0.0 E0.005
G1 X0.0857 Y0.0515 Z0.0 E0.005
G1 X0.0866 Y0.05 Z0.0 E0.005
G1 X0.0875 Y0.0485 Z0.0 E0.005
G1 X0.0883 Y0.0469 Z0.0 E0.005
G1 X0.0891 Y0.0454 Z0.0 E0.005
G1 X0.0899 Y0.0438 Z0.0 E0.005
G1 X0.0906 Y0.0423 Z0.0 E0.005
G1 X0.0914 Y0.0407 Z0.0 E0.005
G1 X0.0921 Y0.0391 Z0.0 E0.005
G1 X0.0927 Y0.0375 Z0.0 E0.005
G1 X0.0934 Y0.0358 Z0.0 E0.005
G1 X0.094 Y0.0342 Z0.0 E0.005
G1 X0.0946 Y0.0326 Z0.0 E0.005
G1 X0.0951 Y0.0309 Z0.0 E0.005
G1 X0.0956 Y0.0292 Z0.0 E0.005
G1 X0.0961 Y0.0276 Z0.0 E0.005
G1 X0.0966 Y0.0259 Z0.0 E0.005
G1 X0.097 Y0.0242 Z0.0 E0.005
G1 X0.0974 Y0.0225 Z0.0 E0.005
G1 X0.0978 Y0.0208 Z0.0 E0.005
G1 X0.0982 Y0.0191 Z0.0 E0.005
G1 X0.0985 Y0.0174 Z0.0 E0.005
G1 X0.0988 Y0.0156 Z0.0 E0.005
G1 X0.099 Y0.0139 Z0.0 E0.005
G1 X0.0993 Y0.0122 Z0.0 E0.005
G1 X0.0995 Y0.0105 Z0.0 E0.005
G1 X0.0996 Y0.0087 Z0.0 E0.005
G1 X0.0998 Y0.007 Z0.0 E0.005
G1 X0.0999 Y0.0052 Z0.0 E0.005
G1 X0.0999 Y0.0035 Z0.0 E0.005
G1 X0.1 Y0.0017 Z0.0 E0.005
G1 X0.1 Y0.0 Z0.0 E0.005
G1 X0.1 Y-0.0017 Z0.0 E0.005
G1 X0.0999 Y-0.0035 Z0.0 E0.005
G1 X0.0999 Y-0.0052 Z0.0 E0.005
G1 X0.0998 Y-0.007 Z0.0 E0.005
G1 X0.0996 Y-0.0087 Z0.0 E0.005
G1 X0.0995 Y-0.0105 Z0.0 E0.005
G1 X0.0993 Y-0.0122 Z0.0 E0.005
G1 X0.099 Y-0.0139 Z0.0 E0.005
G1 X0.0988 Y-0.0156 Z0.0 E0.005
G1 X0.0985 Y-0.0174 Z0.0 E0.005
G1 X0.0982 Y-0.0191 Z0.0 E0.005
G1 X0.0978 Y-0.0208 Z0.0 E0.005
G1 X0.0974 Y-0.0225 Z0.0 E0.005
G1 X0.097 Y-0.0242 Z0.0 E0.005
G1 X0.0966 Y-0.0259 Z0.0 E0.005
G1 X0.0961 Y-0.0276 Z0.0 E0.005
G1 X0.0956 Y-0.0292 Z0.0 E0.005
G1 X0.0951 Y-0.0309 Z0.0 E0.005
G1 X0.0946 Y-0.0326 Z0.0 E0.005
G1 X0.094 Y-0.0342 Z0.0 E0.005
G1 X0.0934 Y-0.0358 Z0.0 E0.005
G1 X0.0927 Y-0.0375 Z0.0 E0.005
G1 X0.0921 Y-0.0391 Z0.0 E0.005
G1 X0.0914 Y-0.0407 Z0.0 E0.005
G1 X0.0906 Y-0.0423 Z0.0 E0.005
G1 X0.0899 Y-0.0438 Z0.0 E0.005
G1 X0.0891 Y-0.0454 Z0.0 E0.005
G1 X0.0883 Y-0.0469 Z0.0 E0.005
G1 X0.0875 Y-0.0485 Z0.0 E0.005
G1 X0.0866 Y-0.05 Z0.0 E0.005
G1 X0.0857 Y-0.0515 Z0.0 E0.005
G1 X0.0848 Y-0.053 Z0.0 E0.005
G1 X0.0839 Y-0.0545 Z0.0 E0.005
G1 X0.0829 Y-0.0559 Z0.0 E0.005
G1 X0.0819 Y-0.0574 Z0.0 E0.005
G1 X0.0809 Y-0.0588 Z0.0 E0.005
G1 X0.0799 Y-0.0602 Z0.0 E0.005
G1 X0.0788 Y-0.0616 Z0.0 E0.005
G1 X0.0777 Y-0.0629 Z0.0 E0.005
G1 X0.0766 Y-0.0643 Z0.0 E0.005
G1 X0.0755 Y-0.0656 Z0.0 E0.005
G1 X0.0743 Y-0.0669 Z0.0 E0.005
G1 X0.0731 Y-0.0682 Z0.0 E0.005
G1 X0.0719 Y-0.0695 Z0.0 E0.005
G1 X0.0707 Y-0.0707 Z0.0 E0.005
G1 X0.0695 Y-0.0719 Z0.0 E0.005
G1 X0.0682 Y-0.0731 Z0.0 E0.005
G1 X0.0669 Y-0.0743 Z0.0 E0.005
G1 X0.0656 Y-0.0755 Z0.0 E0.005
G1 X0.0643 Y-0.0766 Z0.0 E0.005
G1 X0.0629 Y-0.0777 Z0.0 E0.005
G1 X0.0616 Y-0.0788 Z0.0 E0.005
G1 X0.0602 Y-0.0799 Z0.0 E0.005
G1 X0.0588 Y-0.0809 Z0.0 E0.005
G1 X0.0574 Y-0.0819 Z0.0 E0.005
G1 X0.0559 Y-0.0829 Z0.0 E0.005
G1 X0.0545 Y-0.0839 Z0.0 E0.005
G1 X0.053 Y-0.0848 Z0.0 E0.005
G1 X0.0515 Y-0.0857 Z0.0 E0.005
G1 X-0.0 Y0.1 Z0.0 E0.005
G1 X0.0017 Y0.1 Z0.0 E0.005
G1 X0.0035 Y0.0999 Z0.0 E0.005
G1 X0.0052 Y0.0999 Z0.0 E0.005
G1 X0.007 Y0.0998 Z0.0 E0.005
G1 X0.0087 Y0.0996 Z0.0 E0.005
G1 X0.0105 Y0.0995 Z0.0 E0.005
G1 X0.0122 Y0.0993 Z0.0 E0.005
G1 X0.0139 Y0.099 Z0.0 E0.005
G1 X0.0156 Y0.0988 Z0.0 E0.005
G1 X0.0174 Y0.0985 Z0.0 E0.005
G1 X0.0191 Y0.0982 Z0.0 E0.005
G1 X0.0208 Y0.0978 Z0.0 E0.005
G1 X0.0225 Y0.0974 Z0.0 E0.005
G1 X0.0242 Y0.097 Z0.0 E0.005
G1 X0.0259 Y0.0966 Z0.0 E0.005
G1 X0.0276 Y0.0961 Z0.0 E0.005
G1 X0.0292 Y0.0956 Z0.0 E0.005
G1 X0.0309 Y0.0951 Z0.0 E0.005
G1 X0.0326 Y0.0946 Z0.0 E0.005
G1 X0.0342 Y0.094 Z0.0 E0.005
G1 X0.0358 Y0.0934 Z0.0 E0.005
G1 X0.0375 Y0.0927 Z0.0 E0.005
G1 X0.0391 Y0.0921 Z0.0 E0.005
G1 X0.0407 Y0.0914 Z0.0 E0.005
G1 X0.0423 Y0.0906 Z0.0 E0.005
G1 X0.0438 Y0.0899 Z0.0 E0.005
G1 X0.0454 Y0.0891 Z0.0 E0.005
G1 X0.0469 Y0.0883 Z0.0 E0.005
G1 X0.0485 Y0.0875 Z0.0 E0.005
G1 X0.05 Y0.0866 Z0.0 E0.005
G1 X0.0515 Y0.0857 Z0.0 E0.005
G1 X0.053 Y0.0848 Z0.0 E0.005
G1 X0.0545 Y0.0839 Z0.0 E0.005
G1 X0.0559 Y0.0829 Z0.0 E0.005
G1 X0.0574 Y0.0819 Z0.0 E0.005
G1 X0.0588 Y0.0809 Z0.0 E0.005
G1 X0.0602 Y0.0799 Z0.0 E0.005
G1 X0.0616 Y0.0788 Z0.0 E0.005
G1 X0.0629 Y0.0777 Z0.0 E0.005
G1 X0.0643 Y0.0766 Z0.0 E0.005
G1 X0.0656 Y0.0755 Z0.0 E0.005
G1 X0.0669 Y0.0743 Z0.0 E0.005
G1 X0.0682 Y0.0731 Z0.0 E0.005
G1 X0.0695 Y0.0719 Z0.0 E0.005
G1 X0.0707 Y0.0707 Z0.0 E0.005
G1 X0.0719 Y0.0695 Z0.0 E0.005
G1 X0.0731 Y0.0682 Z0.0 E0.005
G1 X0.0743 Y0.0669 Z0.0 E0.005
G1 X0.0755 Y0.0656 Z0.0 E0.005
G1 X0.0766 Y0.0643 Z0.0 E0.005
G1 X0.0777 Y0.0629 Z0.0 E0.005
G1 X0.0788 Y0.0616 Z0.0 E0.005
G1 X0.0799 Y0.0602 Z0.0 E0.005
G1 X0.0809 Y0.0588 Z0.0 E0.005
G1 X0.0819 Y0.0574 Z0.0 E0.005
G1 X0.0829 Y0.0559 Z0.0 E0.005
G1 X0.0839 Y0.0545 Z0.0 E0.005
G1 X0.0848 Y0.053 Z0.0 E0.005
G1 X0.0857 Y0.0515 Z0.0 E0.005
G1 X0.0866 Y0.05 Z0.0 E0.005
G1 X0.0875 Y0.0485 Z0.0 E0.005
G1 X0.0883 Y0.0469 Z0.0 E0.005
G1 X0.0891 Y0.0454 Z0.0 E0.005
G1 X0.0899 Y0.0438 Z0.0 E0.005
G1 X0.0906 Y0.0423 Z0.0 E0.005
G1 X0.0914 Y0.0407 Z0.0 E0.005
G1 X0.0921 Y0.0391 Z0.0 E0.005
G1 X0.0927 Y0.0375 Z0.0 E0.005
G1 X0.0934 Y0.0358 Z0.0 E0.005
G1 X0.094 Y0.0342 Z0.0 E0.005
G1 X0.0946 Y0.0326 Z0.0 E0.005
G1 X0.0951 Y0.0309 Z0.0 E0.005
G1 X0.0956 Y0.0292 Z0.0 E0.005
G1 X0.0961 Y0.0276 Z0.0 E0.005
G1 X0.0966 Y0.0259 Z0.0 E0.005
G1 X0.097 Y0.0242 Z0.0 E0.005
G1 X0.0974 Y0.0225 Z0.0 E0.005
G1 X0.0978 Y0.0208 Z0.0 E0.005
G1 X0.0982 Y0.0191 Z0.0 E0.005
G1 X0.0985 Y0.0174 Z0.0 E0.005
G1 X0.0988 Y0.0156 Z0.0 E0.005
G1 X0.099 Y0.0139 Z0.0 E0.005
G1 X0.0993 Y0.0122 Z0.0 E0.005
G1 X0.0995 Y0.0105 Z0.0 E0.005
G1 X0.0996 Y0.0087 Z0.0 E0.005
G1 X0.0998 Y0.007 Z0.0 E0.005
G1 X0.0999 Y0.0052 Z0.0 E0.005
G1 X0.0999 Y0.0035 Z0.0 E0.005
G1 X0.1 Y0.0017 Z0.0 E0.005
G1 X0.1 Y0.0 Z0.0 E0.005
G1 X0.1 Y-0.0017 Z0.0 E0.005
G1 X0.0999 Y-0.0035 Z0.0 E0.005
G1 X0.0999 Y-0.0052 Z0.0 E0.005
G1 X0.0998 Y-0.007 Z0.0 E0.005
G1 X0.0996 Y-0.0087 Z0.0 E0.005
G1 X0.0995 Y-0.0105 Z0.0 E0.005
G1 X0.0993 Y-0.0122 Z0.0 E0.005
G1 X0.099 Y-0.0139 Z0.0 E0.005
G1 X0.0988 Y-0.0156 Z0.0 E0.005
G1 X0.0985 Y-0.0174 Z0.0 E0.005
G1 X0.0982 Y-0.0191 Z0.0 E0.005
G1 X0.0978 Y-0.0208 Z0.0 E0.005
G1 X0.0974 Y-0.0225 Z0.0 E0.005
G1 X0.097 Y-0.0242 Z0.0 E0.005
G1 X0.0966 Y-0.0259 Z0.0 E0.005
G1 X0.0961 Y-0.0276 Z0.0 E0.005
G1 X0.0956 Y-0.0292 Z0.0 E0.005
G1 X0.0951 Y-0.0309 Z0.0 E0.005
G1 X0.0946 Y-0.0326 Z0.0 E0.005
G1 X0.094 Y-0.0342 Z0.0 E0.005
G1 X0.0934 Y-0.0358 Z0.0 E0.005
G1 X0.0927 Y-0.0375 Z0.0 E0.005
G1 X0.0921 Y-0.0391 Z0.0 E0.005
G1 X0.0914 Y-0.0407 Z0.0 E0.005
G1 X0.0906 Y-0.0423 Z0.0 E0.005
G1 X0.0899 Y-0.0438 Z0.0 E0.005
G1 X0.0891 Y-0.0454 Z0.0 E0.005
G1 X0.0883 Y-0.0469 Z0.0 E0.005
G1 X0.0875 Y-0.0485 Z0.0 E0.005
G1 X0.0866 Y-0.05 Z0.0 E0.005
G1 X0.0857 Y-0.0515 Z0.0 E0.005
G1 X0.0848 Y-0.053 Z0.0 E0.005
G1 X0.0839 Y-0.0545 Z0.0 E0.005
G1 X0.0829 Y-0.0559 Z0.0 E0.005
G1 X0.0819 Y-0.0574 Z0.0 E0.005
G1 X0.0809 Y-0.0588 Z0.0 E0.005
G1 X0.0799 Y-0.0602 Z0.0 E0.005
G1 X0.0788 Y-0.0616 Z0.0 E0.005
G1 X0.0777 Y-0.0629 Z0.0 E0.005
G1 X0.0766 Y-0.0643 Z0.0 E0.005
G1 X0.0755 Y-0.0656 Z0.0 E0.005
G1 X0.0743 Y-0.0669 Z0.0 E0.005
G1 X0.0731 Y-0.0682 Z0.0 E0.005
G1 X0.0719 Y-0.0695 Z0.0 E0.005
G1 X0.0707 Y-0.0707 Z0.0 E0.005
G1 X0.0695 Y-0.0719 Z0.0 E0.005
G1 X0.0682 Y-0.0731 Z0.0 E0.005
G1 X0.0669 Y-0.0743 Z0.0 E0.005
G1 X0.0656 Y-0.0755 Z0.0 E0.005
G1 X0.0643 Y-0.0766 Z0.0 E0.005
G1 X0.0629 Y-0.0777 Z0.0 E0.005
G1 X0.0616 Y-0.0788 Z0.0 E0.005
G1 X0.0602 Y-0.0799 Z0.0 E0.005
G1 X0.0588 Y-0.0809 Z0.0 E0.005
G1 X0.0574 Y-0.0819 Z0.0 E0.005
G1 X0.0559 Y-0.0829 Z0.0 E0.005
G1 X0.0545 Y-0.0839 Z0.0 E0.005
G1 X0.053 Y-0.0848 Z0.0 E0.005
G1 X0.0515 Y-0.0857 Z0.0 E0.005
G1 X0.05 Y-0.0866 Z0.0 E0.005
G1 X0.0485 Y-0.0875 Z0.0 E0.005
G1 X0.0469 Y-0.0883 Z0.0 E0.005
G1 X0.0454 Y-0.0891 Z0.0 E0.005
G1 X0.0438 Y-0.0899 Z0.0 E0.005
G1 X0.0423 Y-0.0906 Z0.0 E0.005
G1 X0.0407 Y-0.0914 Z0.0 E0.005
G1 X0.0391 Y-0.0921 Z0.0 E0.005
G1 X0.0375 Y-0.0927 Z0.0 E0.005
G1 X0.0358 Y-0.0934 Z0.0 E0.005
G1 X0.0342 Y-0.094 Z0.0 E0.005
G1 X0.0326 Y-0.0946 Z0.0 E0.005
G1 X0.0309 Y-0.0951 Z0.0 E0.005
G1 X0.0292 Y-0.0956 Z0.0 E0.005
G1 X0.0276 Y-0.0961 Z0.0 E0.005
G1 X0.0259 Y-0.0966 Z0.0 E0.005
G1 X0.0242 Y-0.097 Z0.0 E0.005
G1 X0.0225 Y-0.0974 Z0.0 E0.005
G1 X0.0208 Y-0.0978 Z0.0 E0.005
G1 X0.0191 Y-0.0982 Z0.0 E0.005
G1 X0.0174 Y-0.0985 Z0.0 E0.005
G1 X0.0156 Y-0.0988 Z0.0 E0.005
G1 X0.0139 Y-0.099 Z0.0 E0.005
G1 X0.0122 Y-0.0993 Z0.0 E0.005
G1 X0.0105 Y-0.0995 Z0.0 E0.005
G1 X0.0087 Y-0.0996 Z0.0 E0.005
G1 X0.007 Y-0.0998 Z0.0 E0.005
G1 X0.0052 Y-0.0999 Z0.0 E0.005
G1 X0.0035 Y-0.0999 Z0.0 E0.005
G1 X0.0017 Y-0.1 Z0.0 E0.005
G1 X0.05 Y0.0866 Z0.0 E0.005
G1 X0.0515 Y0.0857 Z0.0 E0.005
G1 X0.053 Y0.0848 Z0.0 E0.005
G1 X0.0545 Y0.0839 Z0.0 E0.005
G1 X0.0559 Y0.0829 Z0.0 E0.005
G1 X0.0574 Y0.0819 Z0.0 E0.005
G1 X0.0588 Y0.0809 Z0.0 E0.005
G1 X0.0602 Y0.0799 Z0.0 E0.005
G1 X0.0616 Y0.0788 Z0.0 E0.005
G1 X0.0629 Y0.0777 Z0.0 E0.005
G1 X0.0643 Y0.0766 Z0.0 E0.005
G1 X0.0656 Y0.0755 Z0.0 E0.005
G1 X0.0669 Y0.0743 Z0.0 E0.005
G1 X0.0682 Y0.0731 Z0.0 E0.005
G1 X0.0695 Y0.0719 Z0.0 E0.005
G1 X0.0707 Y0.0707 Z0.0 E0.005
G1 X0.0719 Y0.0695 Z0.0 E0.005
G1 X0.0731 Y0.0682 Z0.0 E0.005
G1 X0.0743 Y0.0669 Z0.0 E0.005
G1 X0.0755 Y0.0656 Z0.0 E0.005
G1 X0.0766 Y0.0643 Z0.0 E0.005
G1 X0.0777 Y0.0629 Z0.0 E0.005
G1 X0.0788 Y0.0616 Z0.0 E0.005
G1 X0.0799 Y0.0602 Z0.0 E0.005
G1 X0.0809 Y0.0588 Z0.0 E0.005
G1 X0.0819 Y0.0574 Z0.0 E0.005
G1 X0.0829 Y0.0559 Z0.0 E0.005
G1 X0.0839 Y0.0545 Z0.0 E0.005
G1 X0.0848 Y0.053 Z0.0 E0.005
G1 X0.0857 Y0.0515 Z0.0 E0.005
G1 X0.0866 Y0.05 Z0.0 E0.005
G1 X0.0875 Y0.0485 Z0.0 E0.005
G1 X0.0883 Y0.0469 Z0.0 E0.005
G1 X0.0891 Y0.0454 Z0.0 E0.005
G1 X0.0899 Y0.0438 Z0.0 E0.005
G1 X0.0906 Y0.0423 Z0.0 E0.005
G1 X0.0914 Y0.0407 Z0.0 E0.005
G1 X0.0921 Y0.0391 Z0.0 E0.005
G1 X0.0927 Y0.0375 Z0.0 E0.005
G1 X0.0934 Y0.0358 Z0.0 E0.005
G1 X0.094 Y0.0342 Z0.0 E0.005
G1 X0.0946 Y0.0326 Z0.0 E0.005
G1 X0.0951 Y0.0309 Z0.0 E0.005
G1 X0.0956 Y0.0292 Z0.0 E0.005
G1 X0.0961 Y0.0276 Z0.0 E0.005
G1 X0.0966 Y0.0259 Z0.0 E0.005
G1 X0.097 Y0.0242 Z0.0 E0.005
G1 X0.0974 Y0.0225 Z0.0 E0.005
G1 X0.0978 Y0.0208 Z0.0 E0.005
G1 X0.0982 Y0.0191 Z0.0 E0.005
G1 X0.0985 Y0.0174 Z0.0 E0.005
G1 X0.0988 Y0.0156 Z0.0 E0.005
G1 X0.099 Y0.0139 Z0.0 E0.005
G1 X0.0993 Y0.0122 Z0.0 E0.005
G1 X0.0995 Y0.0105 Z0.0 E0.005
G1 X0.0996 Y0.0087 Z0.0 E0.005
G1 X0.0998 Y0.007 Z0.0 E0.005
G1 X0.0999 Y0.0052 Z0.0 E0.005
G1 X0.0999 Y0.0035 Z0.0 E0.005
G1 X0.1 Y0.0017 Z0.0 E0.005
G1 X0.1 Y0.0 Z0.0 E0.005
G1 X0.1 Y-0.0017 Z0.0 E0.005
G1 X0.0999 Y-0.0035 Z0.0 E0.005
G1 X0.0999 Y-0.0052 Z0.0 E0.005
G1 X0.0998 Y-0.007 Z0.0 E0.005
G1 X0.0996 Y-0.0087 Z0.0 E0.005
G1 X0.0995 Y-0.0105 Z0.0 E0.005
G1 X0.0993 Y-0.0122 Z0.0 E0.005
G1 X0.099 Y-0.0139 Z0.0 E0.005
G1 X0.0988 Y-0.0156 Z0.0 E0.005
G1 X0.0985 Y-0.0174 Z0.0 E0.005
G1 X0.0982 Y-0.0191 Z0.0 E0.005
G1 X0.0978 Y-0.0208 Z0.0 E0.005
G1 X0.0974 Y-0.0225 Z0.0 E0.005
G1 X0.097 Y-0.0242 Z0.0 E0.005
G1 X0.0966 Y-0.0259 Z0.0 E0.005
G1 X0.0961 Y-0.0276 Z0.0 E0.005
G1 X0.0956 Y-0.0292 Z0.0 E0.005
G1 X0.0951 Y-0.0309 Z0.0 E0.005
G1 X0.0946 Y-0.0326 Z0.0 E0.005
G1 X0.094 Y-0.0342 Z0.0 E0.005
G1 X0.0934 Y-0.0358 Z0.0 E0.005
G1 X0.0927 Y-0.0375 Z0.0 E0.005
G1 X0.0921 Y-0.0391 Z0.0 E0.005
G1 X0.0914 Y-0.0407 Z0.0 E0.005
G1 X0.0906 Y-0.0423 Z0.0 E0.005
G1 X0.0899 Y-0.0438 Z0.0 E0.005
G1 X0.0891 Y-0.0454 Z0.0 E0.005
G1 X0.0883 Y-0.0469 Z0.0 E0.005
G1 X0.0875 Y-0.0485 Z0.0 E0.005
G1 X0.0866 Y-0.05 Z0.0 E0.005
G1 X0.0857 Y-0.0515 Z0.0 E0.005
G1 X0.0848 Y-0.053 Z0.0 E0.005
G1 X0.0839 Y-0.0545 Z0.0 E0.005
G1 X0.0829 Y-0.0559 Z0.0 E0.005
G1 X0.0819 Y-0.0574 Z0.0 E0.005
G1 X0.0809 Y-0.0588 Z0.0 E0.005
G1 X0.0799 Y-0.0602 Z0.0 E0.005
G1 X0.0788 Y-0.0616 Z0.0 E0.005
G1 X0.0777 Y-0.0629 Z0.0 E0.005
G1 X0.0766 Y-0.0643 Z0.0 E0.005
G1 X0.0755 Y-0.0656 Z0.0 E0.005
G1 X0.0743 Y-0.0669 Z0.0 E0.005
G1 X0.0731 Y-0.0682 Z0.0 E0.005
G1 X0.0719 Y-0.0695 Z0.0 E0.005
G1 X0.0707 Y-0.0707 Z0.0 E0.005
G1 X0.0695 Y-0.0719 Z0.0 E0.005
G1 X0.0682 Y-0.0731 Z0.0 E0.005
G1 X0.0669 Y-0.0743 Z0.0 E0.005
G1 X0.0656 Y-0.0755 Z0.0 E0.005
G1 X0.0643 Y-0.0766 Z0.0 E0.005
G1 X0.0629 Y-0.0777 Z0.0 E0.005
G1 X0.0616 Y-0.0788 Z0.0 E0.005
G1 X0.0602 Y-0.0799 Z0.0 E0.005
G1 X0.0588 Y-0.0809 Z0.0 E0.005
G1 X0.0574 Y-0.0819 Z0.0 E0.005
G1 X0.0559 Y-0.0829 Z0.0 E0.005
G1 X0.0545 Y-0.0839 Z0.0 E0.005
G1 X0.053 Y-0.0848 Z0.0 E0.005
G1 X0.0515 Y-0.0857 Z0.0 E0.005
G1 X0.05 Y-0.0866 Z0.0 E0.005
G1 X0.0485 Y-0.0875 Z0.0 E0.005
G1 X0.0469 Y-0.0883 Z0.0 E0.005
G1 X0.0454 Y-0.0891 Z0.0 E0.005
G1 X0.0438 Y-0.0899 Z0.0 E0.005
G1 X0.0423 Y-0.0906 Z0.0 E0.005
G1 X0.0407 Y-0.0914 Z0.0 E0.005
G1 X0.0391 Y-0.0921 Z0.0 E0.005
G1 X0.0375 Y-0.0927 Z0.0 E0.005
G1 X0.0358 Y-0.0934 Z0.0 E0.005
G1 X0.0342 Y-0.094 Z0.0 E0.005
G1 X0.0326 Y-0.0946 Z0.0 E0.005
G1 X0.0309 Y-0.0951 Z0.0 E0.005
G1 X0.0292 Y-0.0956 Z0.0 E0.005
G1 X0.0276 Y-0.0961 Z0.0 E0.005
G1 X0.0259 Y-0.0966 Z0.0 E0.005
G1 X0.0242 Y-0.097 Z0.0 E0.005
G1 X0.0225 Y-0.0974 Z0.0 E0.005
G1 X0.0208 Y-0.0978 Z0.0 E0.005
G1 X0.0191 Y-0.0982 Z0.0 E0.005
G1 X0.0174 Y-0.0985 Z0.0 E0.005
G1 X0.0156 Y-0.0988 Z0.0 E0.005
G1 X0.0139 Y-0.099 Z0.0 E0.005
G1 X0.0122 Y-0.0993 Z0.0 E0.005
G1 X0.0105 Y-0.0995 Z0.0 E0.005
G1 X0.0087 Y-0.0996 Z0.0 E0.005
G1 X0.007 Y-0.0998 Z0.0 E0.005
G1 X0.0052 Y-0.0999 Z0.0 E0.005
G1 X0.0035 Y-0.0999 Z0.0 E0.005
G1 X0.0017 Y-0.1 Z0.0 E0.005
G1 X0.0 Y-0.1 Z0.0 E0.005
G1 X-0.0017 Y-0.1 Z0.0 E0.005
G1 X-0.0035 Y-0.0999 Z0.0 E0.005
G1 X-0.0052 Y-0.0999 Z0.0 E0.005
G1 X-0.007 Y-0.0998 Z0.0 E0.005
G1 X-0.0087 Y-0.0996 Z0.0 E0.005
G1 X-0.0105 Y-0.0995 Z0.0 E0.005
G1 X-0.0122 Y-0.0993 Z0.0 E0.005
G1 X-0.0139 Y-0.099 Z0.0 E0.005
G1 X-0.0156 Y-0.0988 Z0.0 E0.005
G1 X-0.0174 Y-0.0985 Z0.0 E0.005
G1 X-0.0191 Y-0.0982 Z0.0 E0.005
G1 X-0.0208 Y-0.0978 Z0.0 E0.005
G1 X-0.0225 Y-0.0974 Z0.0 E0.005
G1 X-0.0242 Y-0.097 Z0.0 E0.005
G1 X-0.0259 Y-0.0966 Z0.0 E0.005
G1 X-0.0276 Y-0.0961 Z0.0 E0.005
G1 X-0.0292 Y-0.0956 Z0.0 E0.005
G1 X-0.0309 Y-0.0951 Z0.0 E0.005
G1 X-0.0326 Y-0.0946 Z0.0 E0.005
G1 X-0.0342 Y-0.094 Z0.0 E0.005
G1 X-0.0358 Y-0.0934 Z0.0 E0.005
G1 X-0.0375 Y-0.0927 Z0.0 E0.005
G1 X-0.0391 Y-0.0921 Z0.0 E0.005
G1 X-0.0407 Y-0.0914 Z0.0 E0.005
G1 X-0.0423 Y-0.0906 Z0.0 E0.005
G1 X-0.0438 Y-0.0899 Z0.0 E0.005
G1 X-0.0454 Y-0.0891 Z0.0 E0.005
G1 X-0.0469 Y-0.0883 Z0.0 E0.005
G1 X-0.0485 Y-0.0875 Z0.0 E0.005
G1 X0.0866 Y0.05 Z0.0 E0.005
G1 X0.0875 Y0.0485 Z0.0 E0.005
G1 X0.0883 Y0.0469 Z0.0 E0.005
G1 X0.0891 Y0.0454 Z0.0 E0.005
G1 X0.0899 Y0.0438 Z0.0 E0.005
G1 X0.0906 Y0.0423 Z0.0 E0.005
G1 X0.0914 Y0.0407 Z0.0 E0.005
G1 X0.0921 Y0.0391 Z0.0 E0.005
G1 X0.0927 Y0.0375 Z0.0 E0.005
G1 X0.0934 Y0.0358 Z0.0 E0.005
G1 X0.094 Y0.0342 Z0.0 E0.005
G1 X0.0946 Y0.0326 Z0.0 E0.005
G1 X0.0951 Y0.0309 Z0.0 E0.005
G1 X0.0956 Y0.0292 Z0.0 E0.005
G1 X0.0961 Y0.0276 Z0.0 E0.005
G1 X0.0966 Y0.0259 Z0.0 E0.005
G1 X0.097 Y0.0242 Z0.0 E0.005
G1 X0.0974 Y0.0225 Z0.0 E0.005
G1 X0.0978 Y0.0208 Z0.0 E0.005
G1 X0.0982 Y0.0191 Z0.0 E0.005
G1 X0.0985 Y0.0174 Z0.0 E0.005
G1 X0.0988 Y0.0156 Z0.0 E0.005
G1 X0.099 Y0.0139 Z0.0 E0.005
G1 X0.0993 Y0.0122 Z0.0 E0.005
G1 X0.0995 Y0.0105 Z0.0 E0.005
G1 X0.0996 Y0.0087 Z0.0 E0.005
G1 X0.0998 Y0.007 Z0.0 E0.005
G1 X0.0999 Y0.0052 Z0.0 E0.005
G1 X0.0999 Y0.0035 Z0.0 E0.005
G1 X0.1 Y0.0017 Z0.0 E0.005
G1 X0.1 Y0.0 Z0.0 E0.005
G1 X0.1 Y-0.0017 Z0.0 E0.005
G1 X0.0999 Y-0.0035 Z0.0 E0.005
G1 X0.0999 Y-0.0052 Z0.0 E0.005
G1 X0.0998 Y-0.007 Z0.0 E0.005
G1 X0.0996 Y-0.0087 Z0.0 E0.005
G1 X0.0995 Y-0.0105 Z0.0 E0.005
G1 X0.0993 Y-0.0122 Z0.0 E0.005
G1 X0.099 Y-0.0139 Z0.0 E0.005
G1 X0.0988 Y-0.0156 Z0.0 E0.005
G1 X0.0985 Y-0.0174 Z0.0 E0.005
G1 X0.0982 Y-0.0191 Z0.0 E0.005
G1 X0.0978 Y-0.0208 Z0.0 E0.005
G1 X0.0974 Y-0.0225 Z0.0 E0.005
G1 X0.097 Y-0.0242 Z0.0 E0.005
G1 X0.0966 Y-0.0259 Z0.0 E0.005
G1 X0.0961 Y-0.0276 Z0.0 E0.005
G1 X0.0956 Y-0.0292 Z0.0 E0.005
G1 X0.0951 Y-0.0309 Z0.0 E0.005
G1 X0.0946 Y-0.0326 Z0.0 E0.005
G1 X0.094 Y-0.0342 Z0.0 E0.005
G1 X0.0934 Y-0.0358 Z0.0 E0.005
G1 X0.0927 Y-0.0375 Z0.0 E0.005
G1 X0.0921 Y-0.0391 Z0.0 E0.005
G1 X0.0914 Y-0.0407 Z0.0 E0.005
G1 X0.0906 Y-0.0423 Z0.0 E0.005
G1 X0.0899 Y-0.0438 Z0.0 E0.005
G1 X0.0891 Y-0.0454 Z0.0 E0.005
G1 X0.0883 Y-0.0469 Z0.0 E0.005
G1 X0.0875 Y-0.0485 Z0.0 E0.005
G1 X0.0866 Y-0.05 Z0.0 E0.005
G1 X0.0857 Y-0.0515 Z0.0 E0.005
G1 X0.0848 Y-0.053 Z0.0 E0.005
G1 X0.0839 Y-0.0545 Z0.0 E0.005
G1 X0.0829 Y-0.0559 Z0.0 E0.005
G1 X0.0819 Y-0.0574 Z0.0 E0.005
G1 X0.0809 Y-0.0588 Z0.0 E0.005
G1 X0.0799 Y-0.0602 Z0.0 E0.005
G1 X0.0788 Y-0.0616 Z0.0 E0.005
G1 X0.0777 Y-0.0629 Z0.0 E0.005
G1 X0.0766 Y-0.0643 Z0.0 E0.005
G1 X0.0755 Y-0.0656 Z0.0 E0.005
G1 X0.0743 Y-0.0669 Z0.0 E0.005
G1 X0.0731 Y-0.0682 Z0.0 E0.005
G1 X0.0719 Y-0.0695 Z0.0 E0.005
G1 X0.0707 Y-0.0707 Z0.0 E0.005
G1 X0.0695 Y-0.0719 Z0.0 E0.005
G1 X0.0682 Y-0.0731 Z0.0 E0.005
G1 X0.0669 Y-0.0743 Z0.0 E0.005
G1 X0.0656 Y-0.0755 Z0.0 E0.005
G1 X0.0643 Y-0.0766 Z0.0 E0.005
G1 X0.0629 Y-0.0777 Z0.0 E0.005
G1 X0.0616 Y-0.0788 Z0.0 E0.005
G1 X0.0602 Y-0.0799 Z0.0 E0.005
G1 X0.0588 Y-0.0809 Z0.0 E0.005
G1 X0.0574 Y-0.0819 Z0.0 E0.005
G1 X0.0559 Y-0.0829 Z0.0 E0.005
G1 X0.0545 Y-0.0839 Z0.0 E0.005
G1 X0.053 Y-0.0848 Z0.0 E0.005
G1 X0.0515 Y-0.0857 Z0.0 E0.005
G1 X0.05 Y-0.0866 Z0.0 E0.005
G1 X0.0485 Y-0.0875 Z0.0 E0.005
G1 X0.0469 Y-0.0883 Z0.0 E0.005
G1 X0.0454 Y-0.0891 Z0.0 E0.005
G1 X0.0438 Y-0.0899 Z0.0 E0.005
G1 X0.0423 Y-0.0906 Z0.0 E0.005
G1 X0.0407 Y-0.0914 Z0.0 E0.005
G1 X0.0391 Y-0.0921 Z0.0 E0.005
G1 X0.0375 Y-0.0927 Z0.0 E0.005
G1 X0.0358 Y-0.0934 Z0.0 E0.005
G1 X0.0342 Y-0.094 Z0.0 E0.005
G1 X0.0326 Y-0.0946 Z0.0 E0.005
G1 X0.0309 Y-0.0951 Z0.0 E0.005
G1 X0.0292 Y-0.0956 Z0.0 E0.005
G1 X0.0276 Y-0.0961 Z0.0 E0.005
G1 X0.0259 Y-0.0966 Z0.0 E0.005
G1 X0.0242 Y-0.097 Z0.0 E0.005
G1 X0.0225 Y-0.0974 Z0.0 E0.005
G1 X0.0208 Y-0.0978 Z0.0 E0.005
G1 X0.0191 Y-0.0982 Z0.0 E0.005
G1 X0.0174 Y-0.0985 Z0.0 E0.005
G1 X0.0156 Y-0.0988 Z0.0 E0.005
G1 X0.0139 Y-0.099 Z0.0 E0.005
G1 X0.0122 Y-0.0993 Z0.0 E0.005
G1 X0.0105 Y-0.0995 Z0.0 E0.005
G1 X0.0087 Y-0.0996 Z0.0 E0.005
G1 X0.007 Y-0.0998 Z0.0 E0.005
G1 X0.0052 Y-0.0999 Z0.0 E0.005
G1 X0.0035 Y-0.0999 Z0.0 E0.005
G1 X0.0017 Y-0.1 Z0.0 E0.005
G1 X0.0 Y-0.1 Z0.0 E0.005
G1 X-0.0017 Y-0.1 Z0.0 E0.005
G1 X-0.0035 Y-0.0999 Z0.0 E0.005
G1 X-0.0052 Y-0.0999 Z0.0 E0.005
G1 X-0.007 Y-0.0998 Z0.0 E0.005
G1 X-0.0087 Y-0.0996 Z0.0 E0.005
G1 X-0.0105 Y-0.0995 Z0.0 E0.005
G1 X-0.0122 Y-0.0993 Z0.0 E0.005
G1 X-0.0139 Y-0.099 Z0.0 E0.005
G1 X-0.0156 Y-0.0988 Z0.0 E0.005
G1 X-0.0174 Y-0.0985 Z0.0 E0.005
G1 X-0.0191 Y-0.0982 Z0.0 E0.005
G1 X-0.0208 Y-0.0978 Z0.0 E0.005
G1 X-0.0225 Y-0.0974 Z0.0 E0.005
G1 X-0.0242 Y-0.097 Z0.0 E0.005
G1 X-0.0259 Y-0.0966 Z0.0 E0.005
G1 X-0.0276 Y-0.0961 Z0.0 E0.005
G1 X-0.0292 Y-0.0956 Z0.0 E0.005
G1 X-0.0309 Y-0.0951 Z0.0 E0.005
G1 X-0.0326 Y-0.0946 Z0.0 E0.005
G1 X-0.0342 Y-0.094 Z0.0 E0.005
G1 X-0.0358 Y-0.0934 Z0.0 E0.005
G1 X-0.0375 Y-0.0927 Z0.0 E0.005
G1 X-0.0391 Y-0.0921 Z0.0 E0.005
G1 X-0.0407 Y-0.0914 Z0.0 E0.005
G1 X-0.0423 Y-0.0906 Z0.0 E0.005
G1 X-0.0438 Y-0.0899 Z0.0 E0.005
G1 X-0.0454 Y-0.0891 Z0.0 E0.005
G1 X-0.0469 Y-0.0883 Z0.0 E0.005
G1 X-0.0485 Y-0.0875 Z0.0 E0.005
G1 X-0.05 Y-0.0866 Z0.0 E0.005
G1 X-0.0515 Y-0.0857 Z0.0 E0.005
G1 X-0.053 Y-0.0848 Z0.0 E0.005
G1 X-0.0545 Y-0.0839 Z0.0 E0.005
G1 X-0.0559 Y-0.0829 Z0.0 E0.005
G1 X-0.0574 Y-0.0819 Z0.0 E0.005
G1 X-0.0588 Y-0.0809 Z0.0 E0.005
G1 X-0.0602 Y-0.0799 Z0.0 E0.005
G1 X-0.0616 Y-0.0788 Z0.0 E0.005
G1 X-0.0629 Y-0.0777 Z0.0 E0.005
G1 X-0.0643 Y-0.0766 Z0.0 E0.005
G1 X-0.0656 Y-0.0755 Z0.0 E0.005
G1 X-0.0669 Y-0.0743 Z0.0 E0.005
G1 X-0.0682 Y-0.0731 Z0.0 E0.005
G1 X-0.0695 Y-0.0719 Z0.0 E0.005
G1 X-0.0707 Y-0.0707 Z0.0 E0.005
G1 X-0.0719 Y-0.0695 Z0.0 E0.005
G1 X-0.0731 Y-0.0682 Z0.0 E0.005
G1 X-0.0743 Y-0.0669 Z0.0 E0.005
G1 X-0.0755 Y-0.0656 Z0.0 E0.005
G1 X-0.0766 Y-0.0643 Z0.0 E0.005
G1 X-0.0777 Y-0.0629 Z0.0 E0.005
G1 X-0.0788 Y-0.0616 Z0.0 E0.005
G1 X-0.0799 Y-0.0602 Z0.0 E0.005
G1 X-0.0809 Y-0.0588 Z0.0 E0.005
G1 X-0.0819 Y-0.0574 Z0.0 E0.005
G1 X-0.0829 Y-0.0559 Z0.0 E0.005
G1 X-0.0839 Y-0.0545 Z0.0 E0.005
G1 X-0.0848 Y-0.053 Z0.0 E0.005
G1 X-0.0857 Y-0.0515 Z0.0 E0.005
G1 X0.1 Y0.0 Z0.0 E0.005
G1 X0.1 Y-0.0017 Z0.0 E0.005
G1 X0.0999 Y-0.0035 Z0.0 E0.005
G1 X0.0999 Y-0.0052 Z0.0 E0.005
G1 X0.0998 Y-0.007 Z0.0 E0.005
G1 X0.0996 Y-0.0087 Z0.0 E0.005
G1 X0.0995 Y-0.0105 Z0.0 E0.005
G1 X0.0993 Y-0.0122 Z0.0 E0.005
G1 X0.099 Y-0.0139 Z0.0 E0.005
G1 X0.0988 Y-0.0156 Z0.0 E0.005
G1 X0.0985 Y-0.0174 Z0.0 E0.005
G1 X0.0982 Y-0.0191 Z0.0 E0.005
G1 X0.0978 Y-0.0208 Z0.0 E0.005
G1 X0.0974 Y-0.0225 Z0.0 E0.005
G1 X0.097 Y-0.0242 Z0.0 E0.005
G1 X0.0966 Y-0.0259 Z0.0 E0.005
G1 X0.0961 Y-0.0276 Z0.0 E0.005
G1 X0.0956 Y-0.0292 Z0.0 E0.005
G1 X0.0951 Y-0.0309 Z0.0 E0.005
G1 X0.0946 Y-0.0326 Z0.0 E0.005
G1 X0.094 Y-0.0342 Z0.0 E0.005
G1 X0.0934 Y-0.0358 Z0.0 E0.005
G1 X0.0927 Y-0.0375 Z0.0 E0.005
G1 X0.0921 Y-0.0391 Z0.0 E0.005
G1 X0.0914 Y-0.0407 Z0.0 E0.005
G1 X0.0906 Y-0.0423 Z0.0 E0.005
G1 X0.0899 Y-0.0438 Z0.0 E0.005
G1 X0.0891 Y-0.0454 Z0.0 E0.005
G1 X0.0883 Y-0.0469 Z0.0 E0.005
G1 X0.0875 Y-0.0485 Z0.0 E0.005
G1 X0.0866 Y-0.05 Z0.0 E0.005
G1 X0.0857 Y-0.0515 Z0.0 E0.005
G1 X0.0848 Y-0.053 Z0.0 E0.005
G1 X0.0839 Y-0.0545 Z0.0 E0.005
G1 X0.0829 Y-0.0559 Z0.0 E0.005
G1 X0.0819 Y-0.0574 Z0.0 E0.005
G1 X0.0809 Y-0.0588 Z0.0 E0.005
G1 X0.0799 Y-0.0602 Z0.0 E0.005
G1 X0.0788 Y-0.0616 Z0.0 E0.005
G1 X0.0777 Y-0.0629 Z0.0 E0.005
G1 X0.0766 Y-0.0643 Z0.0 E0.005
G1 X0.0755 Y-0.0656 Z0.0 E0.005
G1 X0.0743 Y-0.0669 Z0.0 E0.005
G1 X0.0731 Y-0.0682 Z0.0 E0.005
G1 X0.0719 Y-0.0695 Z0.0 E0.005
G1 X0.0707 Y-0.0707 Z0.0 E0.005
G1 X0.0695 Y-0.0719 Z0.0 E0.005
G1 X0.0682 Y-0.0731 Z0.0 E0.005
G1 X0.0669 Y-0.0743 Z0.0 E0.005
G1 X0.0656 Y-0.0755 Z0.0 E0.005
G1 X0.0643 Y-0.0766 Z0.0 E0.005
G1 X0.0629 Y-0.0777 Z0.0 E0.005
G1 X0.0616 Y-0.0788 Z0.0 E0.005
G1 X0.0602 Y-0.0799 Z0.0 E0.005
G1 X0.0588 Y-0.0809 Z0.0 E0.005
G1 X0.0574 Y-0.0819 Z0.0 E0.005
G1 X0.0559 Y-0.0829 Z0.0 E0.005
G1 X0.0545 Y-0.0839 Z0.0 E0.005
G1 X0.053 Y-0.0848 Z0.0 E0.005
G1 X0.0515 Y-0.0857 Z0.0 E0.005
G1 X0.05 Y-0.0866 Z0.0 E0.005
G1 X0.0485 Y-0.0875 Z0.0 E0.005
G1 X0.0469 Y-0.0883 Z0.0 E0.005
G1 X0.0454 Y-0.0891 Z0.0 E0.005
G1 X0.0438 Y-0.0899 Z0.0 E0.005
G1 X0.0423 Y-0.0906 Z0.0 E0.005
G1 X0.0407 Y-0.0914 Z0.0 E0.005
G1 X0.0391 Y-0.0921 Z0.0 E0.005
G1 X0.0375 Y-0.0927 Z0.0 E0.005
G1 X0.0358 Y-0.0934 Z0.0 E0.005
G1 X0.0342 Y-0.094 Z0.0 E0.005
G1 X0.0326 Y-0.0946 Z0.0 E0.005
G1 X0.0309 Y-0.0951 Z0.0 E0.005
G1 X0.0292 Y-0.0956 Z0.0 E0.005
G1 X0.0276 Y-0.0961 Z0.0 E0.005
G1 X0.0259 Y-0.0966 Z0.0 E0.005
G1 X0.0242 Y-0.097 Z0.0 E0.005
G1 X0.0225 Y-0.0974 Z0.0 E0.005
G1 X0.0208 Y-0.0978 Z0.0 E0.005
G1 X0.0191 Y-0.0982 Z0.0 E0.005
G1 X0.0174 Y-0.0985 Z0.0 E0.005
G1 X0.0156 Y-0.0988 Z0.0 E0.005
G1 X0.0139 Y-0.099 Z0.0 E0.005
G1 X0.0122 Y-0.0993 Z0.0 E0.005
G1 X0.0105 Y-0.0995 Z0.0 E0.005
G1 X0.0087 Y-0.0996 Z0.0 E0.005
G1 X0.007 Y-0.0998 Z0.0 E0.005
G1 X0.0052 Y-0.0999 Z0.0 E0.005
G1 X0.0035 Y-0.0999 Z0.0 E0.005
G1 X0.0017 Y-0.1 Z0.0 E0.005
G1 X0.0 Y-0.1 Z0.0 E0.005
G1 X-0.0017 Y-0.1 Z0.0 E0.005
G1 X-0.0035 Y-0.0999 Z0.0 E0.005
G1 X-0.0052 Y-0.0999 Z0.0 E0.005
G1 X-0.007 Y-0.0998 Z0.0 E0.005
G1 X-0.0087 Y-0.0996 Z0.0 E0.005
G1 X-0.0105 Y-0.0995 Z0.0 E0.005
G1 X-0.0122 Y-0.0993 Z0.0 E0.005
G1 X-0.0139 Y-0.099 Z0.0 E0.005
G1 X-0.0156 Y-0.0988 Z0.0 E0.005
G1 X-0.0174 Y-0.0985 Z0.0 E0.005
G1 X-0.0191 Y-0.0982 Z0.0 E0.005
G1 X-0.0208 Y-0.0978 Z0.0 E0.005
G1 X-0.0225 Y-0.0974 Z0.0 E0.005
G1 X-0.0242 Y-0.097 Z0.0 E0.005
G1 X-0.0259 Y-0.0966 Z0.0 E0.005
G1 X-0.0276 Y-0.0961 Z0.0 E0.005
G1 X-0.0292 Y-0.0956 Z0.0 E0.005
G1 X-0.0309 Y-0.0951 Z0.0 E0.005
G1 X-0.0326 Y-0.0946 Z0.0 E0.005
G1 X-0.0342 Y-0.094 Z0.0 E0.005
G1 X-0.0358 Y-0.0934 Z0.0 E0.005
G1 X-0.0375 Y-0.0927 Z0.0 E0.005
G1 X-0.0391 Y-0.0921 Z0.0 E0.005
G1 X-0.0407 Y-0.0914 Z0.0 E0.005
G1 X-0.0423 Y-0.0906 Z0.0 E0.005
G1 X-0.0438 Y-0.0899 Z0.0 E0.005
G1 X-0.0454 Y-0.0891 Z0.0 E0.005
G1 X-0.0469 Y-0.0883 Z0.0 E0.005
G1 X-0.0485 Y-0.0875 Z0.0 E0.005
G1 X-0.05 Y-0.0866 Z0.0 E0.005
G1 X-0.0515 Y-0.0857 Z0.0 E0.005
G1 X-0.053 Y-0.0848 Z0.0 E0.005
G1 X-0.0545 Y-0.0839 Z0.0 E0.005
G1 X-0.0559 Y-0.0829 Z0.0 E0.005
G1 X-0.0574 Y-0.0819 Z0.0 E0.005
G1 X-0.0588 Y-0.0809 Z0.0 E0.005
G1 X-0.0602 Y-0.0799 Z0.0 E0.005
G1 X-0.0616 Y-0.0788 Z0.0 E0.005
G1 X-0.0629 Y-0.0777 Z0.0 E0.005
G1 X-0.0643 Y-0.0766 Z0.0 E0.005
G1 X-0.0656 Y-0.0755 Z0.0 E0.005
G1 X-0.0669 Y-0.0743 Z0.0 E0.005
G1 X-0.0682 Y-0.0731 Z0.0 E0.005
G1 X-0.0695 Y-0.0719 Z0.0 E0.005
G1 X-0.0707 Y-0.0707 Z0.0 E0.005
G1 X-0.0719 Y-0.0695 Z0.0 E0.005
G1 X-0.0731 Y-0.0682 Z0.0 E0.005
G1 X-0.0743 Y-0.0669 Z0.0 E0.005
G1 X-0.0755 Y-0.0656 Z0.0 E0.005
G1 X-0.0766 Y-0.0643 Z0.0 E0.005
G1 X-0.0777 Y-0.0629 Z0.0 E0.005
G1 X-0.0788 Y-0.0616 Z0.0 E0.005
G1 X-0.0799 Y-0.0602 Z0.0 E0.005
G1 X-0.0809 Y-0.0588 Z0.0 E0.005
G1 X-0.0819 Y-0.0574 Z0.0 E0.005
G1 X-0.0829 Y-0.0559 Z0.0 E0.005
G1 X-0.0839 Y-0.0545 Z0.0 E0.005
G1 X-0.0848 Y-0.053 Z0.0 E0.005
G1 X-0.0857 Y-0.0515 Z0.0 E0.005
G1 X-0.0866 Y-0.05 Z0.0 E0.005
G1 X-0.0875 Y-0.0485 Z0.0 E0.005
G1 X-0.0883 Y-0.0469 Z0.0 E0.005
G1 X-0.0891 Y-0.0454 Z0.0 E0.005
G1 X-0.0899 Y-0.0438 Z0.0 E0.005
G1 X-0.0906 Y-0.0423 Z0.0 E0.005
G1 X-0.0914 Y-0.0407 Z0.0 E0.005
G1 X-0.0921 Y-0.0391 Z0.0 E0.005
G1 X-0.0927 Y-0.0375 Z0.0 E0.005
G1 X-0.0934 Y-0.0358 Z0.0 E0.005
G1 X-0.094 Y-0.0342 Z0.0 E0.005
G1 X-0.0946 Y-0.0326 Z0.0 E0.005
G1 X-0.0951 Y-0.0309 Z0.0 E0.005
G1 X-0.0956 Y-0.0292 Z0.0 E0.005
G1 X-0.0961 Y-0.0276 Z0.0 E0.005
G1 X-0.0966 Y-0.0259 Z0.0 E0.005
G1 X-0.097 Y-0.0242 Z0.0 E0.005
G1 X-0.0974 Y-0.0225 Z0.0 E0.005
G1 X-0.0978 Y-0.0208 Z0.0 E0.005
G1 X-0.0982 Y-0.0191 Z0.0 E0.005
G1 X-0.0985 Y-0.0174 Z0.0 E0.005
G1 X-0.0988 Y-0.0156 Z0.0 E0.005
G1 X-0.099 Y-0.0139 Z0.0 E0.005
G1 X-0.0993 Y-0.0122 Z0.0 E0.005
G1 X-0.0995 Y-0.0105 Z0.0 E0.005
G1 X-0.0996 Y-0.0087 Z0.0 E0.005
G1 X-0.0998 Y-0.007 Z0.0 E0.005
G1 X-0.0999 Y-0.0052 Z0.0 E0.005
G1 X-0.0999 Y-0.0035 Z0.0 E0.005
G1 X-0.1 Y-0.0017 Z0.0 E0.005
G1 X0.0866 Y-0.05 Z0.0 E0.005
G1 X0.0857 Y-0.0515 Z0.0 E0.005
G1 X0.0848 Y-0.053 Z0.0 E0.005
G1 X0.0839 Y-0.0545 Z0.0 E0.005
G1 X0.0829 Y-0.0559 Z0.0 E0.005
G1 X0.0819 Y-0.0574 Z0.0 E0.005
G1 X0.0809 Y-0.0588 Z0.0 E0.005
G1 X0.0799 Y-0.0602 Z0.0 E0.005
G1 X0.0788 Y-0.0616 Z0.0 E0.005
G1 X0.0777 Y-0.0629 Z0.0 E0.005
G1 X0.0766 Y-0.0643 Z0.0 E0.005
G1 X0.0755 Y-0.0656 Z0.0 E0.005
G1 X0.0743 Y-0.0669 Z0.0 E0.005
G1 X0.0731 Y-0.0682 Z0.0 E0.005
G1 X0.0719 Y-0.0695 Z0.0 E0.005
G1 X0.0707 Y-0.0707 Z0.0 E0.005
G1 X0.0695 Y-0.0719 Z0.0 E0.005
G1 X0.0682 Y-0.0731 Z0.0 E0.005
G1 X0.0669 Y-0.0743 Z0.0 E0.005
G1 X0.0656 Y-0.0755 Z0.0 E0.005
G1 X0.0643 Y-0.0766 Z0.0 E0.005
G1 X0.0629 Y-0.0777 Z0.0 E0.005
G1 X0.0616 Y-0.0788 Z0.0 E0.005
G1 X0.0602 Y-0.0799 Z0.0 E0.005
G1 X0.0588 Y-0.0809 Z0.0 E0.005
G1 X0.0574 Y-0.0819 Z0.0 E0.005
G1 X0.0559 Y-0.0829 Z0.0 E0.005
G1 X0.0545 Y-0.0839 Z0.0 E0.005
G1 X0.053 Y-0.0848 Z0.0 E0.005
G1 X0.0515 Y-0.0857 Z0.0 E0.005
G1 X0.05 Y-0.0866 Z0.0 E0.005
G1 X0.0485 Y-0.0875 Z0.0 E0.005
G1 X0.0469 Y-0.0883 Z0.0 E0.005
G1 X0.0454 Y-0.0891 Z0.0 E0.005
G1 X0.0438 Y-0.0899 Z0.0 E0.005
G1 X0.0423 Y-0.0906 Z0.0 E0.005
G1 X0.0407 Y-0.0914 Z0.0 E0.005
G1 X0.0391 Y-0.0921 Z0.0 E0.005
G1 X0.0375 Y-0.0927 Z0.0 E0.005
G1 X0.0358 Y-0.0934 Z0.0 E0.005
G1 X0.0342 Y-0.094 Z0.0 E0.005
G1 X0.0326 Y-0.0946 Z0.0 E0.005
G1 X0.0309 Y-0.0951 Z0.0 E0.005
G1 X0.0292 Y-0.0956 Z0.0 E0.005
G1 X0.0276 Y-0.0961 Z0.0 E0.005
G1 X0.0259 Y-0.0966 Z0.0 E0.005
G1 X0.0242 Y-0.097 Z0.0 E0.005
G1 X0.0225 Y-0.0974 Z0.0 E0.005
G1 X0.0208 Y-0.0978 Z0.0 E0.005
G1 X0.0191 Y-0.0982 Z0.0 E0.005
G1 X0.0174 Y-0.0985 Z0.0 E0.005
G1 X0.0156 Y-0.0988 Z0.0 E0.005
G1 X0.0139 Y-0.099 Z0.0 E0.005
G1 X0.0122 Y-0.0993 Z0.0 E0.005
G1 X0.0105 Y-0.0995 Z0.0 E0.005
G1 X0.0087 Y-0.0996 Z0.0 E0.005
G1 X0.007 Y-0.0998 Z0.0 E0.005
G1 X0.0052 Y-0.0999 Z0.0 E0.005
G1 X0.0035 Y-0.0999 Z0.0 E0.005
G1 X0.0017 Y-0.1 Z0.0 E0.005
G1 X0.0 Y-0.1 Z0.0 E0.005
G1 X-0.0017 Y-0.1 Z0.0 E0.005
G1 X-0.0035 Y-0.0999 Z0.0 E0.005
G1 X-0.0052 Y-0.0999 Z0.0 E0.005
G1 X-0.007 Y-0.0998 Z0.0 E0.005
G1 X-0.0087 Y-0.0996 Z0.0 E0.005
G1 X-0.0105 Y-0.0995 Z0.0 E0.005
G1 X-0.0122 Y-0.0993 Z0.0 E0.005
G1 X-0.0139 Y-0.099 Z0.0 E0.005
G1 X-0.0156 Y-0.0988 Z0.0 E0.005
G1 X-0.0174 Y-0.0985 Z0.0 E0.005
G1 X-0.0191 Y-0.0982 Z0.0 E0.005
G1 X-0.0208 Y-0.0978 Z0.0 E0.005
G1 X-0.0225 Y-0.0974 Z0.0 E0.005
G1 X-0.0242 Y-0.097 Z0.0 E0.005
G1 X-0.0259 Y-0.0966 Z0.0 E0.005
G1 X-0.0276 Y-0.0961 Z0.0 E0.005
G1 X-0.0292 Y-0.0956 Z0.0 E0.005
G1 X-0.0309 Y-0.0951 Z0.0 E0.005
G1 X-0.0326 Y-0.0946 Z0.0 E0.005
G1 X-0.0342 Y-0.094 Z0.0 E0.005
G1 X-0.0358 Y-0.0934 Z0.0 E0.005
G1 X-0.0375 Y-0.0927 Z0.0 E0.005
G1 X-0.0391 Y-0.0921 Z0.0 E0.005
G1 X-0.0407 Y-0.0914 Z0.0 E0.005
G1 X-0.0423 Y-0.0906 Z0.0 E0.005
G1 X-0.0438 Y-0.0899 Z0.0 E0.005
G1 X-0.0454 Y-0.0891 Z0.0 E0.005
G1 X-0.0469 Y-0.0883 Z0.0 E0.005
G1 X-0.0485 Y-0.0875 Z0.0 E0.005
G1 X-0.05 Y-0.0866 Z0.0 E0.005
G1 X-0.0515 Y-0.0857 Z0.0 E0.005
G1 X-0.053 Y-0.0848 Z0.0 E0.005
G1 X-0.0545 Y-0.0839 Z0.0 E0.005
G1 X-0.0559 Y-0.0829 Z0.0 E0.005
G1 X-0.0574 Y-0.0819 Z0.0 E0.005
G1 X-0.0588 Y-0.0809 Z0.0 E0.005
G1 X-0.0602 Y-0.0799 Z0.0 E0.005
G1 X-0.0616 Y-0.0788 Z0.0 E0.005
G1 X-0.0629 Y-0.0777 Z0.0 E0.005
G1 X-0.0643 Y-0.0766 Z0.0 E0.005
G1 X-0.0656 Y-0.0755 Z0.0 E0.005
G1 X-0.0669 Y-0.0743 Z0.0 E0.005
G1 X-0.0682 Y-0.0731 Z0.0 E0.005
G1 X-0.0695 Y-0.0719 Z0.0 E0.005
G1 X-0.0707 Y-0.0707 Z0.0 E0.005
G1 X-0.0719 Y-0.0695 Z0.0 E0.005
G1 X-0.0731 Y-0.0682 Z0.0 E0.005
G1 X-0.0743 Y-0.0669 Z0.0 E0.005
G1 X-0.0755 Y-0.0656 Z0.0 E0.005
G1 X-0.0766 Y-0.0643 Z0.0 E0.005
G1 X-0.0777 Y-0.0629 Z0.0 E0.005
G1 X-0.0788 Y-0.0616 Z0.0 E0.005
G1 X-0.0799 Y-0.0602 Z0.0 E0.005
G1 X-0.0809 Y-0.0588 Z0.0 E0.005
G1 X-0.0819 Y-0.0574 Z0.0 E0.005
G1 X-0.0829 Y-0.0559 Z0.0 E0.005
G1 X-0.0839 Y-0.0545 Z0.0 E0.005
G1 X-0.0848 Y-0.053 Z0.0 E0.005
G1 X-0.0857 Y-0.0515 Z0.0 E0.005
G1 X-0.0866 Y-0.05 Z0.0 E0.005
G1 X-0.0875 Y-0.0485 Z0.0 E0.005
G1 X-0.0883 Y-0.0469 Z0.0 E0.005
G1 X-0.0891 Y-0.0454 Z0.0 E0.005
G1 X-0.0899 Y-0.0438 Z0.0 E0.005
G1 X-0.0906 Y-0.0423 Z0.0 E0.005
G1 X-0.0914 Y-0.0407 Z0.0 E0.005
G1 X-0.0921 Y-0.0391 Z0.0 E0.005
G1 X-0.0927 Y-0.0375 Z0.0 E0.005
G1 X-0.0934 Y-0.0358 Z0.0 E0.005
G1 X-0.094 Y-0.0342 Z0.0 E0.005
G1 X-0.0946 Y-0.0326 Z0.0 E0.005
G1 X-0.0951 Y-0.0309 Z0.0 E0.005
G1 X-0.0956 Y-0.0292 Z0.0 E0.005
G1 X-0.0961 Y-0.0276 Z0.0 E0.005
G1 X-0.0966 Y-0.0259 Z0.0 E0.005
G1 X-0.097 Y-0.0242 Z0.0 E0.005
G1 X-0.0974 Y-0.0225 Z0.0 E0.005
G1 X-0.0978 Y-0.0208 Z0.0 E0.005
G1 X-0.0982 Y-0.0191 Z0.0 E0.005
G1 X-0.0985 Y-0.0174 Z0.0 E0.005
G1 X-0.0988 Y-0.0156 Z0.0 E0.005
G1 X-0.099 Y-0.0139 Z0.0 E0.005
G1 X-0.0993 Y-0.0122 Z0.0 E0.005
G1 X-0.0995 Y-0.0105 Z0.0 E0.005
G1 X-0.0996 Y-0.0087 Z0.0 E0.005
G1 X-0.0998 Y-0.007 Z0.0 E0.005
G1 X-0.0999 Y-0.0052 Z0.0 E0.005
G1 X-0.0999 Y-0.0035 Z0.0 E0.005
G1 X-0.1 Y-0.0017 Z0.0 E0.005
G1 X-0.1 Y-0.0 Z0.0 E0.005
G1 X-0.1 Y0.0017 Z0.0 E0.005
G1 X-0.0999 Y0.0035 Z0.0 E0.005
G1 X-0.0999 Y0.0052 Z0.0 E0.005
G1 X-0.0998 Y0.007 Z0.0 E0.005
G1 X-0.0996 Y0.0087 Z0.0 E0.005
G1 X-0.0995 Y0.0105 Z0.0 E0.005
G1 X-0.0993 Y0.0122 Z0.0 E0.005
G1 X-0.099 Y0.0139 Z0.0 E0.005
G1 X-0.0988 Y0.0156 Z0.0 E0.005
G1 X-0.0985 Y0.0174 Z0.0 E0.005
G1 X-0.0982 Y0.0191 Z0.0 E0.005
G1 X-0.0978 Y0.0208 Z0.0 E0.005
G1 X-0.0974 Y0.0225 Z0.0 E0.005
G1 X-0.097 Y0.0242 Z0.0 E0.005
G1 X-0.0966 Y0.0259 Z0.0 E0.005
G1 X-0.0961 Y0.0276 Z0.0 E0.005
G1 X-0.0956 Y0.0292 Z0.0 E0.005
G1 X-0.0951 Y0.0309 Z0.0 E0.005
G1 X-0.0946 Y0.0326 Z0.0 E0.005
G1 X-0.094 Y0.0342 Z0.0 E0.005
G1 X-0.0934 Y0.0358 Z0.0 E0.005
G1 X-0.0927 Y0.0375 Z0.0 E0.005
G1 X-0.0921 Y0.0391 Z0.0 E0.005
G1 X-0.0914 Y0.0407 Z0.0 E0.005
G1 X-0.0906 Y0.0423 Z0.0 E0.005
G1 X-0.0899 Y0.0438 Z0.0 E0.005
G1 X-0.0891 Y0.0454 Z0.0 E0.005
G1 X-0.0883 Y0.0469 Z0.0 E0.005
G1 X-0.0875 Y0.0485 Z0.0 E0.005
G1 X0.05 Y-0.0866 Z0.0 E0.005
G1 X0.0485 Y-0.0875 Z0.0 E0.005
G1 X0.0469 Y-0.0883 Z0.0 E0.005
G1 X0.0454 Y-0.0891 Z0.0 E0.005
G1 X0.0438 Y-0.0899 Z0.0 E0.005
G1 X0.0423 Y-0.0906 Z0.0 E0.005
G1 X0.0407 Y-0.0914 Z0.0 E0.005
G1 X0.0391 Y-0.0921 Z0.0 E0.005
G1 X0.0375 Y-0.0927 Z0.0 E0.005
G1 X0.0358 Y-0.0934 Z0.0 E0.005
G1 X0.0342 Y-0.094 Z0.0 E0.005
G1 X0.0326 Y-0.0946 Z0.0 E0.005
G1 X0.0309 Y-0.0951 Z0.0 E0.005
G1 X0.0292 Y-0.0956 Z0.0 E0.005
G1 X0.0276 Y-0.0961 Z0.0 E0.005
G1 X0.0259 Y-0.0966 Z0.0 E0.005
G1 X0.0242 Y-0.097 Z0.0 E0.005
G1 X0.0225 Y-0.0974 Z0.0 E0.005
G1 X0.0208 Y-0.0978 Z0.0 E0.005
G1 X0.0191 Y-0.0982 Z0.0 E0.005
G1 X0.0174 Y-0.0985 Z0.0 E0.005
G1 X0.0156 Y-0.0988 Z0.0 E0.005
G1 X0.0139 Y-0.099 Z0.0 E0.005
G1 X0.0122 Y-0.0993 Z0.0 E0.005
G1 X0.0105 Y-0.0995 Z0.0 E0.005
G1 X0.0087 Y-0.0996 Z0.0 E0.005
G1 X0.007 Y-0.0998 Z0.0 E0.005
G1 X0.0052 Y-0.0999 Z0.0 E0.005
G1 X0.0035 Y-0.0999 Z0.0 E0.005
G1 X0.0017 Y-0.1 Z0.0 E0.005
G1 X0.0 Y-0.1 Z0.0 E0.005
G1 X-0.0017 Y-0.1 Z0.0 E0.005
G1 X-0.0035 Y-0.0999 Z0.0 E0.005
G1 X-0.0052 Y-0.0999 Z0.0 E0.005
G1 X-0.007 Y-0.0998 Z0.0 E0.005
G1 X-0.0087 Y-0.0996 Z0.0 E0.005
G1 X-0.0105 Y-0.0995 Z0.0 E0.005
G1 X-0.0122 Y-0.0993 Z0.0 E0.005
G1 X-0.0139 Y-0.099 Z0.0 E0.005
G1 X-0.0156 Y-0.0988 Z0.0 E0.005
G1 X-0.0174 Y-0.0985 Z0.0 E0.005
G1 X-0.0191 Y-0.0982 Z0.0 E0.005
G1 X-0.0208 Y-0.0978 Z0.0 E0.005
G1 X-0.0225 Y-0.0974 Z0.0 E0.005
G1 X-0.0242 Y-0.097 Z0.0 E0.005
G1 X-0.0259 Y-0.0966 Z0.0 E0.005
G1 X-0.0276 Y-0.0961 Z0.0 E0.005
G1 X-0.0292 Y-0.0956 Z0.0 E0.005
G1 X-0.0309 Y-0.0951 Z0.0 E0.005
G1 X-0.0326 Y-0.0946 Z0.0 E0.005
G1 X-0.0342 Y-0.094 Z0.0 E0.005
G1 X-0.0358 Y-0.0934 Z0.0 E0.005
G1 X-0.0375 Y-0.0927 Z0.0 E0.005
G1 X-0.0391 Y-0.0921 Z0.0 E0.005
G1 X-0.0407 Y-0.0914 Z0.0 E0.005
G1 X-0.0423 Y-0.0906 Z0.0 E0.005
G1 X-0.0438 Y-0.0899 Z0.0 E0.005
G1 X-0.0454 Y-0.0891 Z0.0 E0.005
G1 X-0.0469 Y-0.0883 Z0.0 E0.005
G1 X-0.0485 Y-0.0875 Z0.0 E0.005
G1 X-0.05 Y-0.0866 Z0.0 E0.005
G1 X-0.0515 Y-0.0857 Z0.0 E0.005
G1 X-0.053 Y-0.0848 Z0.0 E0.005
G1 X-0.0545 Y-0.0839 Z0.0 E0.005
G1 X-0.0559 Y-0.0829 Z0.0 E0.005
G1 X-0.0574 Y-0.0819 Z0.0 E0.005
G1 X-0.0588 Y-0.0809 Z0.0 E0.005
G1 X-0.0602 Y-0.0799 Z0.0 E0.005
G1 X-0.0616 Y-0.0788 Z0.0 E0.005
G1 X-0.0629 Y-0.0777 Z0.0 E0.005
G1 X-0.0643 Y-0.0766 Z0.0 E0.005
G1 X-0.0656 Y-0.0755 Z0.0 E0.005
G1 X-0.0669 Y-0.0743 Z0.0 E0.005
G1 X-0.0682 Y-0.0731 Z0.0 E0.005
G1 X-0.0695 Y-0.0719 Z0.0 E0.005
G1 X-0.0707 Y-0.0707 Z0.0 E0.005
G1 X-0.0719 Y-0.0695 Z0.0 E0.005
G1 X-0.0731 Y-0.0682 Z0.0 E0.005
G1 X-0.0743 Y-0.0669 Z0.0 E0.005
G1 X-0.0755 Y-0.0656 Z0.0 E0.005
G1 X-0.0766 Y-0.0643 Z0.0 E0.005
G1 X-0.0777 Y-0.0629 Z0.0 E0.005
G1 X-0.0788 Y-0.0616 Z0.0 E0.005
G1 X-0.0799 Y-0.0602 Z0.0 E0.005
G1 X-0.0809 Y-0.0588 Z0.0 E0.005
G1 X-0.0819 Y-0.0574 Z0.0 E0.005
G1 X-0.0829 Y-0.0559 Z0.0 E0.005
G1 X-0.0839 Y-0.0545 Z0.0 E0.005
G1 X-0.0848 Y-0.053 Z0.0 E0.005
G1 X-0.0857 Y-0.0515 Z0.0 E0.005
G1 X-0.0866 Y-0.05 Z0.0 E0.005
G1 X-0.0875 Y-0.0485 Z0.0 E0.005
G1 X-0.0883 Y-0.0469 Z0.0 E0.005
G1 X-0.0891 Y-0.0454 Z0.0 E0.005
G1 X-0.0899 Y-0.0438 Z0.0 E0.005
G1 X-0.0906 Y-0.0423 Z0.0 E0.005
G1 X-0.0914 Y-0.0407 Z0.0 E0.005
G1 X-0.0921 Y-0.0391 Z0.0 E0.005
G1 X-0.0927 Y-0.0375 Z0.0 E0.005
G1 X-0.0934 Y-0.0358 Z0.0 E0.005
G1 X-0.094 Y-0.0342 Z0.0 E0.005
G1 X-0.0946 Y-0.0326 Z0.0 E0.005
G1 X-0.0951 Y-0.0309 Z0.0 E0.005
G1 X-0.0956 Y-0.0292 Z0.0 E0.005
G1 X-0.0961 Y-0.0276 Z0.0 E0.005
G1 X-0.0966 Y-0.0259 Z0.0 E0.005
G1 X-0.097 Y-0.0242 Z0.0 E0.005
G1 X-0.0974 Y-0.0225 Z0.0 E0.005
G1 X-0.0978 Y-0.0208 Z0.0 E0.005
G1 X-0.0982 Y-0.0191 Z0.0 E0.005
G1 X-0.0985 Y-0.0174 Z0.0 E0.005
G1 X-0.0988 Y-0.0156 Z0.0 E0.005
G1 X-0.099 Y-0.0139 Z0.0 E0.005
G1 X-0.0993 Y-0.0122 Z0.0 E0.005
G1 X-0.0995 Y-0.0105 Z0.0 E0.005
G1 X-0.0996 Y-0.0087 Z0.0 E0.005
G1 X-0.0998 Y-0.007 Z0.0 E0.005
G1 X-0.0999 Y-0.0052 Z0.0 E0.005
G1 X-0.0999 Y-0.0035 Z0.0 E0.005
G1 X-0.1 Y-0.0017 Z0.0 E0.005
G1 X-0.1 Y-0.0 Z0.0 E0.005
G1 X-0.1 Y0.0017 Z0.0 E0.005
G1 X-0.0999 Y0.0035 Z0.0 E0.005
G1 X-0.0999 Y0.0052 Z0.0 E0.005
G1 X-0.0998 Y0.007 Z0.0 E0.005
G1 X-0.0996 Y0.0087 Z0.0 E0.005
G1 X-0.0995 Y0.0105 Z0.0 E0.005
G1 X-0.0993 Y0.0122 Z0.0 E0.005
G1 X-0.099 Y0.0139 Z0.0 E0.005
G1 X-0.0988 Y0.0156 Z0.0 E0.005
G1 X-0.0985 Y0.0174 Z0.0 E0.005
G1 X-0.0982 Y0.0191 Z0.0 E0.005
G1 X-0.0978 Y0.0208 Z0.0 E0.005
G1 X-0.0974 Y0.0225 Z0.0 E0.005
G1 X-0.097 Y0.0242 Z0.0 E0.005
G1 X-0.0966 Y0.0259 Z0.0 E0.005
G1 X-0.0961 Y0.0276 Z0.0 E0.005
G1 X-0.0956 Y0.0292 Z0.0 E0.005
G1 X-0.0951 Y0.0309 Z0.0 E0.005
G1 X-0.0946 Y0.0326 Z0.0 E0.005
G1 X-0.094 Y0.0342 Z0.0 E0.005
G1 X-0.0934 Y0.0358 Z0.0 E0.005
G1 X-0.0927 Y0.0375 Z0.0 E0.005
G1 X-0.0921 Y0.0391 Z0.0 E0.005
G1 X-0.0914 Y0.0407 Z0.0 E0.005
G1 X-0.0906 Y0.0423 Z0.0 E0.005
G1 X-0.0899 Y0.0438 Z0.0 E0.005
G1 X-0.0891 Y0.0454 Z0.0 E0.005
G1 X-0.0883 Y0.0469 Z0.0 E0.005
G1 X-0.0875 Y0.0485 Z0.0 E0.005
G1 X-0.0866 Y0.05 Z0.0 E0.005
G1 X-0.0857 Y0.0515 Z0.0 E0.005
G1 X-0.0848 Y0.053 Z0.0 E0.005
G1 X-0.0839 Y0.0545 Z0.0 E0.005
G1 X-0.0829 Y0.0559 Z0.0 E0.005
G1 X-0.0819 Y0.0574 Z0.0 E0.005
G1 X-0.0809 Y0.0588 Z0.0 E0.005
G1 X-0.0799 Y0.0602 Z0.0 E0.005
G1 X-0.0788 Y0.0616 Z0.0 E0.005
G1 X-0.0777 Y0.0629 Z0.0 E0.005
G1 X-0.0766 Y0.0643 Z0.0 E0.005
G1 X-0.0755 Y0.0656 Z0.0 E0.005
G1 X-0.0743 Y0.0669 Z0.0 E0.005
G1 X-0.0731 Y0.0682 Z0.0 E0.005
G1 X-0.0719 Y0.0695 Z0.0 E0.005
G1 X-0.0707 Y0.0707 Z0.0 E0.005
G1 X-0.0695 Y0.0719 Z0.0 E0.005
G1 X-0.0682 Y0.0731 Z0.0 E0.005
G1 X-0.0669 Y0.0743 Z0.0 E0.005
G1 X-0.0656 Y0.0755 Z0.0 E0.005
G1 X-0.0643 Y0.0766 Z0.0 E0.005
G1 X-0.0629 Y0.0777 Z0.0 E0.005
G1 X-0.0616 Y0.0788 Z0.0 E0.005
G1 X-0.0602 Y0.0799 Z0.0 E0.005
G1 X-0.0588 Y0.0809 Z0.0 E0.005
G1 X-0.0574 Y0.0819 Z0.0 E0.005
G1 X-0.0559 Y0.0829 Z0.0 E0.005
G1 X-0.0545 Y0.0839 Z0.0 E0.005
G1 X-0.053 Y0.0848 Z0.0 E0.005
G1 X-0.0515 Y0.0857 Z0.0 E0.005
G1 Z1.0
G1 X-0.0 Y1.0 Z0.0
G1 X0.0 Y-0.095 Z-0.0 E0.005
G1 X-0.0017 Y-0.095 Z-0.0 E0.005
G1 X-0.0033 Y-0.0949 Z-0.0 E0.005
G1 X-0.005 Y-0.0949 Z-0.0 E0.005
G1 X-0.0066 Y-0.0948 Z-0.0 E0.005
G1 X-0.0083 Y-0.0946 Z-0.0 E0.005
G1 X-0.0099 Y-0.0945 Z-0.0 E0.005
G1 X-0.0116 Y-0.0943 Z-0.0 E0.005
G1 X-0.0132 Y-0.0941 Z-0.0 E0.005
G1 X-0.0149 Y-0.0938 Z-0.0 E0.005
G1 X-0.0165 Y-0.0936 Z-0.0 E0.005
G1 X-0.0181 Y-0.0933 Z-0.0 E0.005
G1 X-0.0198 Y-0.0929 Z-0.0 E0.005
G1 X-0.0214 Y-0.0926 Z-0.0 E0.005
G1 X-0.023 Y-0.0922 Z-0.0 E0.005
G1 X-0.0246 Y-0.0918 Z-0.0 E0.005
G1 X-0.0262 Y-0.0913 Z-0.0 E0.005
G1 X-0.0278 Y-0.0908 Z-0.0 E0.005
G1 X-0.0294 Y-0.0904 Z-0.0 E0.005
G1 X-0.0309 Y-0.0898 Z-0.0 E0.005
G1 X-0.0325 Y-0.0893 Z-0.0 E0.005
G1 X-0.034 Y-0.0887 Z-0.0 E0.005
G1 X-0.0356 Y-0.0881 Z-0.0 E0.005
G1 X-0.0371 Y-0.0874 Z-0.0 E0.005
G1 X-0.0386 Y-0.0868 Z-0.0 E0.005
G1 X-0.0401 Y-0.0861 Z-0.0 E0.005
G1 X-0.0416 Y-0.0854 Z-0.0 E0.005
G1 X-0.0431 Y-0.0846 Z-0.0 E0.005
G1 X-0.0446 Y-0.0839 Z-0.0 E0.005
G1 X-0.0461 Y-0.0831 Z-0.0 E0.005
G1 X-0.0475 Y-0.0823 Z-0.0 E0.005
G1 X-0.0489 Y-0.0814 Z-0.0 E0.005
G1 X-0.0503 Y-0.0806 Z-0.0 E0.005
G1 X-0.0517 Y-0.0797 Z-0.0 E0.005
G1 X-0.0531 Y-0.0788 Z-0.0 E0.005
G1 X-0.0545 Y-0.0778 Z-0.0 E0.005
G1 X-0.0558 Y-0.0769 Z-0.0 E0.005
G1 X-0.0572 Y-0.0759 Z-0.0 E0.005
G1 X-0.0585 Y-0.0749 Z-0.0 E0.005
G1 X-0.0598 Y-0.0738 Z-0.0 E0.005
G1 X-0.0611 Y-0.0728 Z-0.0 E0.005
G1 X-0.0623 Y-0.0717 Z-0.0 E0.005
G1 X-0.0636 Y-0.0706 Z-0.0 E0.005
G1 X-0.0648 Y-0.0695 Z-0.0 E0.005
G1 X-0.066 Y-0.0683 Z-0.0 E0.005
G1 X-0.0672 Y-0.0672 Z-0.0 E0.005
G1 X-0.0683 Y-0.066 Z-0.0 E0.005
G1 X-0.0695 Y-0.0648 Z-0.0 E0.005
G1 X-0.0706 Y-0.0636 Z-0.0 E0.005
G1 X-0.0717 Y-0.0623 Z-0.0 E0.005
G1 X-0.0728 Y-0.0611 Z-0.0 E0.005
G1 X-0.0738 Y-0.0598 Z-0.0 E0.005
G1 X-0.0749 Y-0.0585 Z-0.0 E0.005
G1 X-0.0759 Y-0.0572 Z-0.0 E0.005
G1 X-0.0769 Y-0.0558 Z-0.0 E0.005
G1 X-0.0778 Y-0.0545 Z-0.0 E0.005
G1 X-0.0788 Y-0.0531 Z-0.0 E0.005
G1 X-0.0797 Y-0.0517 Z-0.0 E0.005
G1 X-0.0806 Y-0.0503 Z-0.0 E0.005
G1 X-0.0814 Y-0.0489 Z-0.0 E0.005
G1 X-0.0823 Y-0.0475 Z-0.0 E0.005
G1 X-0.0831 Y-0.0461 Z-0.0 E0.005
G1 X-0.0839 Y-0.0446 Z-0.0 E0.005
G1 X-0.0846 Y-0.0431 Z-0.0 E0.005
G1 X-0.0854 Y-0.0416 Z-0.0 E0.005
G1 X-0.0861 Y-0.0401 Z-0.0 E0.005
G1 X-0.0868 Y-0.0386 Z-0.0 E0.005
G1 X-0.0874 Y-0.0371 Z-0.0 E0.005
G1 X-0.0881 Y-0.0356 Z-0.0 E0.005
G1 X-0.0887 Y-0.034 Z-0.0 E0.005
G1 X-0.0893 Y-0.0325 Z-0.0 E0.005
G1 X-0.0898 Y-0.0309 Z-0.0 E0.005
G1 X-0.0904 Y-0.0294 Z-0.0 E0.005
G1 X-0.0908 Y-0.0278 Z-0.0 E0.005
G1 X-0.0913 Y-0.0262 Z-0.0 E0.005
G1 X-0.0918 Y-0.0246 Z-0.0 E0.005
G1 X-0.0922 Y-0.023 Z-0.0 E0.005
G1 X-0.0926 Y-0.0214 Z-0.0 E0.005
G1 X-0.0929 Y-0.0198 Z-0.0 E0.005
G1 X-0.0933 Y-0.0181 Z-0.0 E0.005
G1 X-0.0936 Y-0.0165 Z-0.0 E0.005
G1 X-0.0938 Y-0.0149 Z-0.0 E0.005
G1 X-0.0941 Y-0.0132 Z-0.0 E0.005
G1 X-0.0943 Y-0.0116 Z-0.0 E0.005
G1 X-0.0945 Y-0.0099 Z-0.0 E0.005
G1 X-0.0946 Y-0.0083 Z-0.0 E0.005
G1 X-0.0948 Y-0.0066 Z-0.0 E0.005
G1 X-0.0949 Y-0.005 Z-0.0 E0.005
G1 X-0.0949 Y-0.0033 Z-0.0 E0.005
G1 X-0.095 Y-0.0017 Z-0.0 E0.005
G1 X-0.095 Y-0.0 Z-0.0 E0.005
G1 X-0.095 Y0.0017 Z-0.0 E0.005
G1 X-0.0949 Y0.0033 Z-0.0 E0.005
G1 X-0.0949 Y0.005 Z-0.0 E0.005
G1 X-0.0948 Y0.0066 Z-0.0 E0.005
G1 X-0.0946 Y0.0083 Z-0.0 E0.005
G1 X-0.0945 Y0.0099 Z-0.0 E0.005
G1 X-0.0943 Y0.0116 Z-0.0 E0.005
G1 X-0.0941 Y0.0132 Z-0.0 E0.005
G1 X-0.0938 Y0.0149 Z-0.0 E0.005
G1 X-0.0936 Y0.0165 Z-0.0 E0.005
G1 X-0.0933 Y0.0181 Z-0.0 E0.005
G1 X-0.0929 Y0.0198 Z-0.0 E0.005
G1 X-0.0926 Y0.0214 Z-0.0 E0.005
G1 X-0.0922 Y0.023 Z-0.0 E0.005
G1 X-0.0918 Y0.0246 Z-0.0 E0.005
G1 X-0.0913 Y0.0262 Z-0.0 E0.005
G1 X-0.0908 Y0.0278 Z-0.0 E0.005
G1 X-0.0904 Y0.0294 Z-0.0 E0.005
G1 X-0.0898 Y0.0309 Z-0.0 E0.005
G1 X-0.0893 Y0.0325 Z-0.0 E0.005
G1 X-0.0887 Y0.034 Z-0.0 E0.005
G1 X-0.0881 Y0.0356 Z-0.0 E0.005
G1 X-0.0874 Y0.0371 Z-0.0 E0.005
G1 X-0.0868 Y0.0386 Z-0.0 E0.005
G1 X-0.0861 Y0.0401 Z-0.0 E0.005
G1 X-0.0854 Y0.0416 Z-0.0 E0.005
G1 X-0.0846 Y0.0431 Z-0.0 E0.005
G1 X-0.0839 Y0.0446 Z-0.0 E0.005
G1 X-0.0831 Y0.0461 Z-0.0 E0.005
G1 X-0.0823 Y0.0475 Z-0.0 E0.005
G1 X-0.0814 Y0.0489 Z-0.0 E0.005
G1 X-0.0806 Y0.0503 Z-0.0 E0.005
G1 X-0.0797 Y0.0517 Z-0.0 E0.005
G1 X-0.0788 Y0.0531 Z-0.0 E0.005
G1 X-0.0778 Y0.0545 Z-0.0 E0.005
G1 X-0.0769 Y0.0558 Z-0.0 E0.005
G1 X-0.0759 Y0.0572 Z-0.0 E0.005
G1 X-0.0749 Y0.0585 Z-0.0 E0.005
G1 X-0.0738 Y0.0598 Z-0.0 E0.005
G1 X-0.0728 Y0.0611 Z-0.0 E0.005
G1 X-0.0717 Y0.0623 Z-0.0 E0.005
G1 X-0.0706 Y0.0636 Z-0.0 E0.005
G1 X-0.0695 Y0.0648 Z-0.0 E0.005
G1 X-0.0683 Y0.066 Z-0.0 E0.005
G1 X-0.0672 Y0.0672 Z-0.0 E0.005
G1 X-0.066 Y0.0683 Z-0.0 E0.005
G1 X-0.0648 Y0.0695 Z-0.0 E0.005
G1 X-0.0636 Y0.0706 Z-0.0 E0.005
G1 X-0.0623 Y0.0717 Z-0.0 E0.005
G1 X-0.0611 Y0.0728 Z-0.0 E0.005
G1 X-0.0598 Y0.0738 Z-0.0 E0.005
G1 X-0.0585 Y0.0749 Z-0.0 E0.005
G1 X-0.0572 Y0.0759 Z-0.0 E0.005
G1 X-0.0558 Y0.0769 Z-0.0 E0.005
G1 X-0.0545 Y0.0778 Z-0.0 E0.005
G1 X-0.0531 Y0.0788 Z-0.0 E0.005
G1 X-0.0517 Y0.0797 Z-0.0 E0.005
G1 X-0.0503 Y0.0806 Z-0.0 E0.005
G1 X-0.0489 Y0.0814 Z-0.0 E0.005
G1 X-0.0475 Y0.0823 Z-0.0 E0.005
G1 X-0.0461 Y0.0831 Z-0.0 E0.005
G1 X-0.0446 Y0.0839 Z-0.0 E0.005
G1 X-0.0431 Y0.0846 Z-0.0 E0.005
G1 X-0.0416 Y0.0854 Z-0.0 E0.005
G1 X-0.0401 Y0.0861 Z-0.0 E0.005
G1 X-0.0386 Y0.0868 Z-0.0 E0.005
G1 X-0.0371 Y0.0874 Z-0.0 E0.005
G1 X-0.0356 Y0.0881 Z-0.0 E0.005
G1 X-0.034 Y0.0887 Z-0.0 E0.005
G1 X-0.0325 Y0.0893 Z-0.0 E0.005
G1 X-0.0309 Y0.0898 Z-0.0 E0.005
G1 X-0.0294 Y0.0904 Z-0.0 E0.005
G1 X-0.0278 Y0.0908 Z-0.0 E0.005
G1 X-0.0262 Y0.0913 Z-0.0 E0.005
G1 X-0.0246 Y0.0918 Z-0.0 E0.005
G1 X-0.023 Y0.0922 Z-0.0 E0.005
G1 X-0.0214 Y0.0926 Z-0.0 E0.005
G1 X-0.0198 Y0.0929 Z-0.0 E0.005
G1 X-0.0181 Y0.0933 Z-0.0 E0.005
G1 X-0.0165 Y0.0936 Z-0.0 E0.005
G1 X-0.0149 Y0.0938 Z-0.0 E0.005
G1 X-0.0132 Y0.0941 Z-0.0 E0.005
G1 X-0.0116 Y0.0943 Z-0.0 E0.005
G1 X-0.0099 Y0.0945 Z-0.0 E0.005
G1 X-0.0083 Y0.0946 Z-0.0 E0.005
G1 X-0.0066 Y0.0948 Z-0.0 E0.005
G1 X-0.005 Y0.0949 Z-0.0 E0.005
G1 X-0.0033 Y0.0949 Z-0.0 E0.005
G1 X-0.0017 Y0.095 Z-0.0 E0.005
G1 X-0.0475 Y-0.0823 Z0.0 E0.005
G1 X-0.0489 Y-0.0814 Z0.0 E0.005
G1 X-0.0503 Y-0.0806 Z0.0 E0.005
G1 X-0.0517 Y-0.0797 Z0.0 E0.005
G1 X-0.0531 Y-0.0788 Z0.0 E0.005
G1 X-0.0545 Y-0.0778 Z0.0 E0.005
G1 X-0.0558 Y-0.0769 Z0.0 E0.005
G1 X-0.0572 Y-0.0759 Z0.0 E0.005
G1 X-0.0585 Y-0.0749 Z0.0 E0.005
G1 X-0.0598 Y-0.0738 Z0.0 E0.005
G1 X-0.0611 Y-0.0728 Z0.0 E0.005
G1 X-0.0623 Y-0.0717 Z0.0 E0.005
G1 X-0.0636 Y-0.0706 Z0.0 E0.005
G1 X-0.0648 Y-0.0695 Z0.0 E0.005
G1 X-0.066 Y-0.0683 Z0.0 E0.005
G1 X-0.0672 Y-0.0672 Z0.0 E0.005
G1 X-0.0683 Y-0.066 Z0.0 E0.005
G1 X-0.0695 Y-0.0648 Z0.0 E0.005
G1 X-0.0706 Y-0.0636 Z0.0 E0.005
G1 X-0.0717 Y-0.0623 Z0.0 E0.005
G1 X-0.0728 Y-0.0611 Z0.0 E0.005
G1 X-0.0738 Y-0.0598 Z0.0 E0.005
G1 X-0.0749 Y-0.0585 Z0.0 E0.005
G1 X-0.0759 Y-0.0572 Z0.0 E0.005
G1 X-0.0769 Y-0.0558 Z0.0 E0.005
G1 X-0.0778 Y-0.0545 Z0.0 E0.005
G1 X-0.0788 Y-0.0531 Z0.0 E0.005
G1 X-0.0797 Y-0.0517 Z0.0 E0.005
G1 X-0.0806 Y-0.0503 Z0.0 E0.005
G1 X-0.0814 Y-0.0489 Z0.0 E0.005
G1 X-0.0823 Y-0.0475 Z0.0 E0.005
G1 X-0.0831 Y-0.0461 Z0.0 E0.005
G1 X-0.0839 Y-0.0446 Z0.0 E0.005
G1 X-0.0846 Y-0.0431 Z0.0 E0.005
G1 X-0.0854 Y-0.0416 Z0.0 E0.005
G1 X-0.0861 Y-0.0401 Z0.0 E0.005
G1 X-0.0868 Y-0.0386 Z0.0 E0.005
G1 X-0.0874 Y-0.0371 Z0.0 E0.005
G1 X-0.0881 Y-0.0356 Z0.0 E0.005
G1 X-0.0887 Y-0.034 Z0.0 E0.005
G1 X-0.0893 Y-0.0325 Z0.0 E0.005
G1 X-0.0898 Y-0.0309 Z0.0 E0.005
G1 X-0.0904 Y-0.0294 Z0.0 E0.005
G1 X-0.0908 Y-0.0278 Z0.0 E0.005
G1 X-0.0913 Y-0.0262 Z0.0 E0.005
G1 X-0.0918 Y-0.0246 Z0.0 E0.005
G1 X-0.0922 Y-0.023 Z0.0 E0.005
G1 X-0.0926 Y-0.0214 Z0.0 E0.005
G1 X-0.0929 Y-0.0198 Z0.0 E0.005
G1 X-0.0933 Y-0.0181 Z0.0 E0.005
G1 X-0.0936 Y-0.0165 Z0.0 E0.005
G1 X-0.0938 Y-0.0149 Z0.0 E0.005
G1 X-0.0941 Y-0.0132 Z0.0 E0.005
G1 X-0.0943 Y-0.0116 Z0.0 E0.005
G1 X-0.0945 Y-0.0099 Z0.0 E0.005
G1 X-0.0946 Y-0.0083 Z0.0 E0.005
G1 X-0.0948 Y-0.0066 Z0.0 E0.005
G1 X-0.0949 Y-0.005 Z0.0 E0.005
G1 X-0.0949 Y-0.0033 Z0.0 E0.005
G1 X-0.095 Y-0.0017 Z0.0 E0.005
G1 X-0.095 Y-0.0 Z0.0 E0.005
G1 X-0.095 Y0.0017 Z0.0 E0.005
G1 X-0.0949 Y0.0033 Z0.0 E0.005
G1 X-0.0949 Y0.005 Z0.0 E0.005
G1 X-0.0948 Y0.0066 Z0.0 E0.005
G1 X-0.0946 Y0.0083 Z0.0 E0.005
G1 X-0.0945 Y0.0099 Z0.0 E0.005
G1 X-0.0943 Y0.0116 Z0.0 E0.005
G1 X-0.0941 Y0.0132 Z0.0 E0.005
G1 X-0.0938 Y0.0149 Z0.0 E0.005
G1 X-0.0936 Y0.0165 Z0.0 E0.005
G1 X-0.0933 Y0.0181 Z0.0 E0.005
G1 X-0.0929 Y0.0198 Z0.0 E0.005
G1 X-0.0926 Y0.0214 Z0.0 E0.005
G1 X-0.0922 Y0.023 Z0.0 E0.005
G1 X-0.0918 Y0.0246 Z0.0 E0.005
G1 X-0.0913 Y0.0262 Z0.0 E0.005
G1 X-0.0908 Y0.0278 Z0.0 E0.005
G1 X-0.0904 Y0.0294 Z0.0 E0.005
G1 X-0.0898 Y0.0309 Z0.0 E0.005
G1 X-0.0893 Y0.0325 Z0.0 E0.005
G1 X-0.0887 Y0.034 Z0.0 E0.005
G1 X-0.0881 Y0.0356 Z0.0 E0.005
G1 X-0.0874 Y0.0371 Z0.0 E0.005
G1 X-0.0868 Y0.0386 Z0.0 E0.005
G1 X-0.0861 Y0.0401 Z0.0 E0.005
G1 X-0.0854 Y0.0416 Z0.0 E0.005
G1 X-0.0846 Y0.0431 Z0.0 E0.005
G1 X-0.0839 Y0.0446 Z0.0 E0.005
G1 X-0.0831 Y0.0461 Z0.0 E0.005
G1 X-0.0823 Y0.0475 Z0.0 E0.005
G1 X-0.0814 Y0.0489 Z0.0 E0.005
G1 X-0.0806 Y0.0503 Z0.0 E0.005
G1 X-0.0797 Y0.0517 Z0.0 E0.005
G1 X-0.0788 Y0.0531 Z0.0 E0.005
G1 X-0.0778 Y0.0545 Z0.0 E0.005
G1 X-0.0769 Y0.0558 Z0.0 E0.005
G1 X-0.0759 Y0.0572 Z0.0 E0.005
G1 X-0.0749 Y0.0585 Z0.0 E0.005
G1 X-0.0738 Y0.0598 Z0.0 E0.005
G1 X-0.0728 Y0.0611 Z0.0 E0.005
G1 X-0.0717 Y0.0623 Z0.0 E0.005
G1 X-0.0706 Y0.0636 Z0.0 E0.005
G1 X-0.0695 Y0.0648 Z0.0 E0.005
G1 X-0.0683 Y0.066 Z0.0 E0.005
G1 X-0.0672 Y0.0672 Z0.0 E0.005
G1 X-0.066 Y0.0683 Z0.0 E0.005
G1 X-0.0648 Y0.0695 Z0.0 E0.005
G1 X-0.0636 Y0.0706 Z0.0 E0.005
G1 X-0.0623 Y0.0717 Z0.0 E0.005
G1 X-0.0611 Y0.0728 Z0.0 E0.005
G1 X-0.0598 Y0.0738 Z0.0 E0.005
G1 X-0.0585 Y0.0749 Z0.0 E0.005
G1 X-0.0572 Y0.0759 Z0.0 E0.005
G1 X-0.0558 Y0.0769 Z0.0 E0.005
G1 X-0.0545 Y0.0778 Z0.0 E0.005
G1 X-0.0531 Y0.0788 Z0.0 E0.005
G1 X-0.0517 Y0.0797 Z0.0 E0.005
G1 X-0.0503 Y0.0806 Z0.0 E0.005
G1 X-0.0489 Y0.0814 Z0.0 E0.005
G1 X-0.0475 Y0.0823 Z0.0 E0.005
G1 X-0.0461 Y0.0831 Z0.0 E0.005
G1 X-0.0446 Y0.0839 Z0.0 E0.005
G1 X-0.0431 Y0.0846 Z0.0 E0.005
G1 X-0.0416 Y0.0854 Z0.0 E0.005
G1 X-0.0401 Y0.0861 Z0.0 E0.005
G1 X-0.0386 Y0.0868 Z0.0 E0.005
G1 X-0.0371 Y0.0874 Z0.0 E0.005
G1 X-0.0356 Y0.0881 Z0.0 E0.005
G1 X-0.034 Y0.0887 Z0.0 E0.005
G1 X-0.0325 Y0.0893 Z0.0 E0.005
G1 X-0.0309 Y0.0898 Z0.0 E0.005
G1 X-0.0294 Y0.0904 Z0.0 E0.005
G1 X-0.0278 Y0.0908 Z0.0 E0.005
G1 X-0.0262 Y0.0913 Z0.0 E0.005
G1 X-0.0246 Y0.0918 Z0.0 E0.005
G1 X-0.023 Y0.0922 Z0.0 E0.005
G1 X-0.0214 Y0.0926 Z0.0 E0.005
G1 X-0.0198 Y0.0929 Z0.0 E0.005
G1 X-0.0181 Y0.0933 Z0.0 E0.005
G1 X-0.0165 Y0.0936 Z0.0 E0.005
G1 X-0.0149 Y0.0938 Z0.0 E0.005
G1 X-0.0132 Y0.0941 Z0.0 E0.005
G1 X-0.0116 Y0.0943 Z0.0 E0.005
G1 X-0.0099 Y0.0945 Z0.0 E0.005
G1 X-0.0083 Y0.0946 Z0.0 E0.005
G1 X-0.0066 Y0.0948 Z0.0 E0.005
G1 X-0.005 Y0.0949 Z0.0 E0.005
G1 X-0.0033 Y0.0949 Z0.0 E0.005
G1 X-0.0017 Y0.095 Z0.0 E0.005
G1 X-0.0 Y0.095 Z0.0 E0.005
G1 X0.0017 Y0.095 Z0.0 E0.005
G1 X0.0033 Y0.0949 Z0.0 E0.005
G1 X0.005 Y0.0949 Z0.0 E0.005
G1 X0.0066 Y0.0948 Z0.0 E0.005
G1 X0.0083 Y0.0946 Z0.0 E0.005
G1 X0.0099 Y0.0945 Z0.0 E0.005
G1 X0.0116 Y0.0943 Z0.0 E0.005
G1 X0.0132 Y0.0941 Z0.0 E0.005
G1 X0.0149 Y0.0938 Z0.0 E0.005
G1 X0.0165 Y0.0936 Z0.0 E0.005
G1 X0.0181 Y0.0933 Z0.0 E0.005
G1 X0.0198 Y0.0929 Z0.0 E0.005
G1 X0.0214 Y0.0926 Z0.0 E0.005
G1 X0.023 Y0.0922 Z0.0 E0.005
G1 X0.0246 Y0.0918 Z0.0 E0.005
G1 X0.0262 Y0.0913 Z0.0 E0.005
G1 X0.0278 Y0.0908 Z0.0 E0.005
G1 X0.0294 Y0.0904 Z0.0 E0.005
G1 X0.0309 Y0.0898 Z0.0 E0.005
G1 X0.0325 Y0.0893 Z0.0 E0.005
G1 X0.034 Y0.0887 Z0.0 E0.005
G1 X0.0356 Y0.0881 Z0.0 E0.005
G1 X0.0371 Y0.0874 Z0.0 E0.005
G1 X0.0386 Y0.0868 Z0.0 E0.005
G1 X0.0401 Y0.0861 Z0.0 E0.005
G1 X0.0416 Y0.0854 Z0.0 E0.005
G1 X0.0431 Y0.0846 Z0.0 E0.005
G1 X0.0446 Y0.0839 Z0.0 E0.005
G1 X0.0461 Y0.0831 Z0.0 E0.005
G1 X-0.0823 Y-0.0475 Z0.0 E0.005
G1 X-0.0831 Y-0.0461 Z0.0 E0.005
G1 X-0.0839 Y-0.0446 Z0.0 E0.005
G1 X-0.0846 Y-0.0431 Z0.0 E0.005
G1 X-0.0854 Y-0.0416 Z0.0 E0.005
G1 X-0.0861 Y-0.0401 Z0.0 E0.005
G1 X-0.0868 Y-0.0386 Z0.0 E0.005
G1 X-0.0874 Y-0.0371 Z0.0 E0.005
G1 X-0.0881 Y-0.0356 Z0.0 E0.005
G1 X-0.0887 Y-0.034 Z0.0 E0.005
G1 X-0.0893 Y-0.0325 Z0.0 E0.005
G1 X-0.0898 Y-0.0309 Z0.0 E0.005
G1 X-0.0904 Y-0.0294 Z0.0 E0.005
G1 X-0.0908 Y-0.0278 Z0.0 E0.005
G1 X-0.0913 Y-0.0262 Z0.0 E0.005
G1 X-0.0918 Y-0.0246 Z0.0 E0.005
G1 X-0.0922 Y-0.023 Z0.0 E0.005
G1 X-0.0926 Y-0.0214 Z0.0 E0.005
G1 X-0.0929 Y-0.0198 Z0.0 E0.005
G1 X-0.0933 Y-0.0181 Z0.0 E0.005
G1 X-0.0936 Y-0.0165 Z0.0 E0.005
G1 X-0.0938 Y-0.0149 Z0.0 E0.005
G1 X-0.0941 Y-0.0132 Z0.0 E0.005
G1 X-0.0943 Y-0.0116 Z0.0 E0.005
G1 X-0.0945 Y-0.0099 Z0.0 E0.005
G1 X-0.0946 Y-0.0083 Z0.0 E0.005
G1 X-0.0948 Y-0.0066 Z0.0 E0.005
G1 X-0.0949 Y-0.005 Z0.0 E0.005
G1 X-0.0949 Y-0.0033 Z0.0 E0.005
G1 X-0.095 Y-0.0017 Z0.0 E0.005
G1 X-0.095 Y-0.0 Z0.0 E0.005
G1 X-0.095 Y0.0017 Z0.0 E0.005
G1 X-0.0949 Y0.0033 Z0.0 E0.005
G1 X-0.0949 Y0.005 Z0.0 E0.005
G1 X-0.0948 Y0.0066 Z0.0 E0.005
G1 X-0.0946 Y0.0083 Z0.0 E0.005
G1 X-0.0945 Y0.0099 Z0.0 E0.005
G1 X-0.0943 Y0.0116 Z0.0 E0.005
G1 X-0.0941 Y0.0132 Z0.0 E0.005
G1 X-0.0938 Y0.0149 Z0.0 E0.005
G1 X-0.0936 Y0.0165 Z0.0 E0.005
G1 X-0.0933 Y0.0181 Z0.0 E0.005
G1 X-0.0929 Y0.0198 Z0.0 E0.005
G1 X-0.0926 Y0.0214 Z0.0 E0.005
G1 X-0.0922 Y0.023 Z0.0 E0.005
G1 X-0.0918 Y0.0246 Z0.0 E0.005
G1 X-0.0913 Y0.0262 Z0.0 E0.005
G1 X-0.0908 Y0.0278 Z0.0 E0.005
G1 X-0.0904 Y0.0294 Z0.0 E0.005
G1 X-0.0898 Y0.0309 Z0.0 E0.005
G1 X-0.0893 Y0.0325 Z0.0 E0.005
G1 X-0.0887 Y0.034 Z0.0 E0.005
G1 X-0.0881 Y0.0356 Z0.0 E0.005
G1 X-0.0874 Y0.0371 Z0.0 E0.005
G1 X-0.0868 Y0.0386 Z0.0 E0.005
G1 X-0.0861 Y0.0401 Z0.0 E0.005
G1 X-0.0854 Y0.0416 Z0.0 E0.005
G1 X-0.0846 Y0.0431 Z0.0 E0.005
G1 X-0.0839 Y0.0446 Z0.0 E0.005
G1 X-0.0831 Y0.0461 Z0.0 E0.005
G1 X-0.0823 Y0.0475 Z0.0 E0.005
G1 X-0.0814 Y0.0489 Z0.0 E0.005
G1 X-0.0806 Y0.0503 Z0.0 E0.005
G1 X-0.0797 Y0.0517 Z0.0 E0.005
G1 X-0.0788 Y0.0531 Z0.0 E0.005
G1 X-0.0778 Y0.0545 Z0.0 E0.005
G1 X-0.0769 Y0.0558 Z0.0 E0.005
G1 X-0.0759 Y0.0572 Z0.0 E0.005
G1 X-0.0749 Y0.0585 Z0.0 E0.005
G1 X-0.0738 Y0.0598 Z0.0 E0.005
G1 X-0.0728 Y0.0611 Z0.0 E0.005
G1 X-0.0717 Y0.0623 Z0.0 E0.005
G1 X-0.0706 Y0.0636 Z0.0 E0.005
G1 X-0.0695 Y0.0648 Z0.0 E0.005
G1 X-0.0683 Y0.066 Z0.0 E0.005
G1 X-0.0672 Y0.0672 Z0.0 E0.005
G1 X-0.066 Y0.0683 Z0.0 E0.005
G1 X-0.0648 Y0.0695 Z0.0 E0.005
G1 X-0.0636 Y0.0706 Z0.0 E0.005
G1 X-0.0623 Y0.0717 Z0.0 E0.005
G1 X-0.0611 Y0.0728 Z0.0 E0.005
G1 X-0.0598 Y0.0738 Z0.0 E0.005
G1 X-0.0585 Y0.0749 Z0.0 E0.005
G1 X-0.0572 Y0.0759 Z0.0 E0.005
G1 X-0.0558 Y0.0769 Z0.0 E0.005
G1 X-0.0545 Y0.0778 Z0.0 E0.005
G1 X-0.0531 Y0.0788 Z0.0 E0.005
G1 X-0.0517 Y0.0797 Z0.0 E0.005
G1 X-0.0503 Y0.0806 Z0.0 E0.005
G1 X-0.0489 Y0.0814 Z0.0 E0.005
G1 X-0.0475 Y0.0823 Z0.0 E0.005
G1 X-0.0461 Y0.0831 Z0.0 E0.005
G1 X-0.0446 Y0.0839 Z0.0 E0.005
G1 X-0.0431 Y0.0846 Z0.0 E0.005
G1 X-0.0416 Y0.0854 Z0.0 E0.005
G1 X-0.0401 Y0.0861 Z0.0 E0.005
G1 X-0.0386 Y0.0868 Z0.0 E0.005
G1 X-0.0371 Y0.0874 Z0.0 E0.005
G1 X-0.0356 Y0.0881 Z0.0 E0.005
G1 X-0.034 Y0.0887 Z0.0 E0.005
G1 X-0.0325 Y0.0893 Z0.0 E0.005
G1 X-0.0309 Y0.0898 Z0.0 E0.005
G1 X-0.0294 Y0.0904 Z0.0 E0.005
G1 X-0.0278 Y0.0908 Z0.0 E0.005
G1 X-0.0262 Y0.0913 Z0.0 E0.005
G1 X-0.0246 Y0.0918 Z0.0 E0.005
G1 X-0.023 Y0.0922 Z0.0 E0.005
G1 X-0.0214 Y0.0926 Z0.0 E0.005
G1 X-0.0198 Y0.0929 Z0.0 E0.005
G1 X-0.0181 Y0.0933 Z0.0 E0.005
G1 X-0.0165 Y0.0936 Z0.0 E0.005
G1 X-0.0149 Y0.0938 Z0.0 E0.005
G1 X-0.0132 Y0.0941 Z0.0 E0.005
G1 X-0.0116 Y0.0943 Z0.0 E0.005
G1 X-0.0099 Y0.0945 Z0.0 E0.005
G1 X-0.0083 Y0.0946 Z0.0 E0.005
G1 X-0.0066 Y0.0948 Z0.0 E0.005
G1 X-0.005 Y0.0949 Z0.0 E0.005
G1 X-0.0033 Y0.0949 Z0.0 E0.005
G1 X-0.0017 Y0.095 Z0.0 E0.005
G1 X-0.0 Y0.095 Z0.0 E0.005
G1 X0.0017 Y0.095 Z0.0 E0.005
G1 X0.0033 Y0.0949 Z0.0 E0.005
G1 X0.005 Y0.0949 Z0.0 E0.005
G1 X0.0066 Y0.0948 Z0.0 E0.005
G1 X0.0083 Y0.0946 Z0.0 E0.005
G1 X0.0099 Y0.0945 Z0.0 E0.005
G1 X0.0116 Y0.0943 Z0.0 E0.005
G1 X0.0132 Y0.0941 Z0.0 E0.005
G1 X0.0149 Y0.0938 Z0.0 E0.005
G1 X0.0165 Y0.0936 Z0.0 E0.005
G1 X0.0181 Y0.0933 Z0.0 E0.005
G1 X0.0198 Y0.0929 Z0.0 E0.005
G1 X0.0214 Y0.0926 Z0.0 E0.005
G1 X0.023 Y0.0922 Z0.0 E0.005
G1 X0.0246 Y0.0918 Z0.0 E0.005
G1 X0.0262 Y0.0913 Z0.0 E0.005
G1 X0.0278 Y0.0908 Z0.0 E0.005
G1 X0.0294 Y0.0904 Z0.0 E0.005
G1 X0.0309 Y0.0898 Z0.0 E0.005
G1 X0.0325 Y0.0893 Z0.0 E0.005
G1 X0.034 Y0.0887 Z0.0 E0.005
G1 X0.0356 Y0.0881 Z0.0 E0.005
G1 X0.0371 Y0.0874 Z0.0 E0.005
G1 X0.0386 Y0.0868 Z0.0 E0.005
G1 X0.0401 Y0.0861 Z0.0 E0.005
G1 X0.0416 Y0.0854 Z0.0 E0.005
G1 X0.0431 Y0.0846 Z0.0 E0.005
G1 X0.0446 Y0.0839 Z0.0 E0.005
G1 X0.0461 Y0.0831 Z0.0 E0.005
G1 X0.0475 Y0.0823 Z0.0 E0.005
G1 X0.0489 Y0.0814 Z0.0 E0.005
G1 X0.0503 Y0.0806 Z0.0 E0.005
G1 X0.0517 Y0.0797 Z0.0 E0.005
G1 X0.0531 Y0.0788 Z0.0 E0.005
G1 X0.0545 Y0.0778 Z0.0 E0.005
G1 X0.0558 Y0.0769 Z0.0 E0.005
G1 X0.0572 Y0.0759 Z0.0 E0.005
G1 X0.0585 Y0.0749 Z0.0 E0.005
G1 X0.0598 Y0.0738 Z0.0 E0.005
G1 X0.0611 Y0.0728 Z0.0 E0.005
G1 X0.0623 Y0.0717 Z0.0 E0.005
G1 X0.0636 Y0.0706 Z0.0 E0.005
G1 X0.0648 Y0.0695 Z0.0 E0.005
G1 X0.066 Y0.0683 Z0.0 E0.005
G1 X0.0672 Y0.0672 Z0.0 E0.005
G1 X0.0683 Y0.066 Z0.0 E0.005
G1 X0.0695 Y0.0648 Z0.0 E0.005
G1 X0.0706 Y0.0636 Z0.0 E0.005
G1 X0.0717 Y0.0623 Z0.0 E0.005
G1 X0.0728 Y0.0611 Z0.0 E0.005
G1 X0.0738 Y0.0598 Z0.0 E0.005
G1 X0.0749 Y0.0585 Z0.0 E0.005
G1 X0.0759 Y0.0572 Z0.0 E0.005
G1 X0.0769 Y0.0558 Z0.0 E0.005
G1 X0.0778 Y0.0545 Z0.0 E0.005
G1 X0.0788 Y0.0531 Z0.0 E0.005
G1 X0.0797 Y0.0517 Z0.0 E0.005
G1 X0.0806 Y0.0503 Z0.0 E0.005
G1 X0.0814 Y0.0489 Z0.0 E0.005
G1 X-0.095 Y-0.0 Z0.0 E0.005
G1 X-0.095 Y0.0017 Z0.0 E0.005
G1 X-0.0949 Y0.0033 Z0.0 E0.005
G1 X-0.0949 Y0.005 Z0.0 E0.005
G1 X-0.0948 Y0.0066 Z0.0 E0.005
G1 X-0.0946 Y0.0083 Z0.0 E0.005
G1 X-0.0945 Y0.0099 Z0.0 E0.005
G1 X-0.0943 Y0.0116 Z0.0 E0.005
G1 X-0.0941 Y0.0132 Z0.0 E0.005
G1 X-0.0938 Y0.0149 Z0.0 E0.005
G1 X-0.0936 Y0.0165 Z0.0 E0.005
G1 X-0.0933 Y0.0181 Z0.0 E0.005
G1 X-0.0929 Y0.0198 Z0.0 E0.005
G1 X-0.0926 Y0.0214 Z0.0 E0.005
G1 X-0.0922 Y0.023 Z0.0 E0.005
G1 X-0.0918 Y0.0246 Z0.0 E0.005
G1 X-0.0913 Y0.0262 Z0.0 E0.005
G1 X-0.0908 Y0.0278 Z0.0 E0.005
G1 X-0.0904 Y0.0294 Z0.0 E0.005
G1 X-0.0898 Y0.0309 Z0.0 E0.005
G1 X-0.0893 Y0.0325 Z0.0 E0.005
G1 X-0.0887 Y0.034 Z0.0 E0.005
G1 X-0.0881 Y0.0356 Z0.0 E0.005
G1 X-0.0874 Y0.0371 Z0.0 E0.005
G1 X-0.0868 Y0.0386 Z0.0 E0.005
G1 X-0.0861 Y0.0401 Z0.0 E0.005
G1 X-0.0854 Y0.0416 Z0.0 E0.005
G1 X-0.0846 Y0.0431 Z0.0 E0.005
G1 X-0.0839 Y0.0446 Z0.0 E0.005
G1 X-0.0831 Y0.0461 Z0.0 E0.005
G1 X-0.0823 Y0.0475 Z0.0 E0.005
G1 X-0.0814 Y0.0489 Z0.0 E0.005
G1 X-0.0806 Y0.0503 Z0.0 E0.005
G1 X-0.0797 Y0.0517 Z0.0 E0.005
G1 X-0.0788 Y0.0531 Z0.0 E0.005
G1 X-0.0778 Y0.0545 Z0.0 E0.005
G1 X-0.0769 Y0.0558 Z0.0 E0.005
G1 X-0.0759 Y0.0572 Z0.0 E0.005
G1 X-0.0749 Y0.0585 Z0.0 E0.005
G1 X-0.0738 Y0.0598 Z0.0 E0.005
G1 X-0.0728 Y0.0611 Z0.0 E0.005
G1 X-0.0717 Y0.0623 Z0.0 E0.005
G1 X-0.0706 Y0.0636 Z0.0 E0.005
G1 X-0.0695 Y0.0648 Z0.0 E0.005
G1 X-0.0683 Y0.066 Z0.0 E0.005
G1 X-0.0672 Y0.0672 Z0.0 E0.005
G1 X-0.066 Y0.0683 Z0.0 E0.005
G1 X-0.0648 Y0.0695 Z0.0 E0.005
G1 X-0.0636 Y0.0706 Z0.0 E0.005
G1 X-0.0623 Y0.0717 Z0.0 E0.005
G1 X-0.0611 Y0.0728 Z0.0 E0.005
G1 X-0.0598 Y0.0738 Z0.0 E0.005
G1 X-0.0585 Y0.0749 Z0.0 E0.005
G1 X-0.0572 Y0.0759 Z0.0 E0.005
G1 X-0.0558 Y0.0769 Z0.0 E0.005
G1 X-0.0545 Y0.0778 Z0.0 E0.005
G1 X-0.0531 Y0.0788 Z0.0 E0.005
G1 X-0.0517 Y0.0797 Z0.0 E0.005
G1 X-0.0503 Y0.0806 Z0.0 E0.005
G1 X-0.0489 Y0.0814 Z0.0 E0.005
G1 X-0.0475 Y0.0823 Z0.0 E0.005
G1 X-0.0461 Y0.0831 Z0.0 E0.005
G1 X-0.0446 Y0.0839 Z0.0 E0.005
G1 X-0.0431 Y0.0846 Z0.0 E0.005
G1 X-0.0416 Y0.0854 Z0.0 E0.005
G1 X-0.0401 Y0.0861 Z0.0 E0.005
G1 X-0.0386 Y0.0868 Z0.0 E0.005
G1 X-0.0371 Y0.0874 Z0.0 E0.005
G1 X-0.0356 Y0.0881 Z0.0 E0.005
G1 X-0.034 Y0.0887 Z0.0 E0.005
G1 X-0.0325 Y0.0893 Z0.0 E0.005
G1 X-0.0309 Y0.0898 Z0.0 E0.005
G1 X-0.0294 Y0.0904 Z0.0 E0.005
G1 X-0.0278 Y0.0908 Z0.0 E0.005
G1 X-0.0262 Y0.0913 Z0.0 E0.005
G1 X-0.0246 Y0.0918 Z0.0 E0.005
G1 X-0.023 Y0.0922 Z0.0 E0.005
G1 X-0.0214 Y0.0926 Z0.0 E0.005
G1 X-0.0198 Y0.0929 Z0.0 E0.005
G1 X-0.0181 Y0.0933 Z0.0 E0.005
G1 X-0.0165 Y0.0936 Z0.0 E0.005
G1 X-0.0149 Y0.0938 Z0.0 E0.005
G1 X-0.0132 Y0.0941 Z0.0 E0.005
G1 X-0.0116 Y0.0943 Z0.0 E0.005
G1 X-0.0099 Y0.0945 Z0.0 E0.005
G1 X-0.0083 Y0.0946 Z0.0 E0.005
G1 X-0.0066 Y0.0948 Z0.0 E0.005
G1 X-0.005 Y0.0949 Z0.0 E0.005
G1 X-0.0033 Y0.0949 Z0.0 E0.005
G1 X-0.0017 Y0.095 Z0.0 E0.005
G1 X-0.0 Y0.095 Z0.0 E0.005
G1 X0.0017 Y0.095 Z0.0 E0.005
G1 X0.0033 Y0.0949 Z0.0 E0.005
G1 X0.005 Y0.0949 Z0.0 E0.005
G1 X0.0066 Y0.0948 Z0.0 E0.005
G1 X0.0083 Y0.0946 Z0.0 E0.005
G1 X0.0099 Y0.0945 Z0.0 E0.005
G1 X0.0116 Y0.0943 Z0.0 E0.005
G1 X0.0132 Y0.0941 Z0.0 E0.005
G1 X0.0149 Y0.0938 Z0.0 E0.005
G1 X0.0165 Y0.0936 Z0.0 E0.005
G1 X0.0181 Y0.0933 Z0.0 E0.005
G1 X0.0198 Y0.0929 Z0.0 E0.005
G1 X0.0214 Y0.0926 Z0.0 E0.005
G1 X0.023 Y0.0922 Z0.0 E0.005
G1 X0.0246 Y0.0918 Z0.0 E0.005
G1 X0.0262 Y0.0913 Z0.0 E0.005
G1 X0.0278 Y0.0908 Z0.0 E0.005
G1 X0.0294 Y0.0904 Z0.0 E0.005
G1 X0.0309 Y0.0898 Z0.0 E0.005
G1 X0.0325 Y0.0893 Z0.0 E0.005
G1 X0.034 Y0.0887 Z0.0 E0.005
G1 X0.0356 Y0.0881 Z0.0 E0.005
G1 X0.0371 Y0.0874 Z0.0 E0.005
G1 X0.0386 Y0.0868 Z0.0 E0.005
G1 X0.0401 Y0.0861 Z0.0 E0.005
G1 X0.0416 Y0.0854 Z0.0 E0.005
G1 X0.0431 Y0.0846 Z0.0 E0.005
G1 X0.0446 Y0.0839 Z0.0 E0.005
G1 X0.0461 Y0.0831 Z0.0 E0.005
G1 X0.0475 Y0.0823 Z0.0 E0.005
G1 X0.0489 Y0.0814 Z0.0 E0.005
G1 X0.0503 Y0.0806 Z0.0 E0.005
G1 X0.0517 Y0.0797 Z0.0 E0.005
G1 X0.0531 Y0.0788 Z0.0 E0.005
G1 X0.0545 Y0.0778 Z0.0 E0.005
G1 X0.0558 Y0.0769 Z0.0 E0.005
G1 X0.0572 Y0.0759 Z0.0 E0.005
G1 X0.0585 Y0.0749 Z0.0 E0.005
G1 X0.0598 Y0.0738 Z0.0 E0.005
G1 X0.0611 Y0.0728 Z0.0 E0.005
G1 X0.0623 Y0.0717 Z0.0 E0.005
G1 X0.0636 Y0.0706 Z0.0 E0.005
G1 X0.0648 Y0.0695 Z0.0 E0.005
G1 X0.066 Y0.0683 Z0.0 E0.005
G1 X0.0672 Y0.0672 Z0.0 E0.005
G1 X0.0683 Y0.066 Z0.0 E0.005
G1 X0.0695 Y0.0648 Z0.0 E0.005
G1 X0.0706 Y0.0636 Z0.0 E0.005
G1 X0.0717 Y0.0623 Z0.0 E0.005
G1 X0.0728 Y0.0611 Z0.0 E0.005
G1 X0.0738 Y0.0598 Z0.0 E0.005
G1 X0.0749 Y0.0585 Z0.0 E0.005
G1 X0.0759 Y0.0572 Z0.0 E0.005
G1 X0.0769 Y0.0558 Z0.0 E0.005
G1 X0.0778 Y0.0545 Z0.0 E0.005
G1 X0.0788 Y0.0531 Z0.0 E0.005
G1 X0.0797 Y0.0517 Z0.0 E0.005
G1 X0.0806 Y0.0503 Z0.0 E0.005
G1 X0.0814 Y0.0489 Z0.0 E0.005
G1 X0.0823 Y0.0475 Z0.0 E0.005
G1 X0.0831 Y0.0461 Z0.0 E0.005
G1 X0.0839 Y0.0446 Z0.0 E0.005
G1 X0.0846 Y0.0431 Z0.0 E0.005
G1 X0.0854 Y0.0416 Z0.0 E0.005
G1 X0.0861 Y0.0401 Z0.0 E0.005
G1 X0.0868 Y0.0386 Z0.0 E0.005
G1 X0.0874 Y0.0371 Z0.0 E0.005
G1 X0.0881 Y0.0356 Z0.0 E0.005
G1 X0.0887 Y0.034 Z0.0 E0.005
G1 X0.0893 Y0.0325 Z0.0 E0.005
G1 X0.0898 Y0.0309 Z0.0 E0.005
G1 X0.0904 Y0.0294 Z0.0 E0.005
G1 X0.0908 Y0.0278 Z0.0 E0.005
G1 X0.0913 Y0.0262 Z0.0 E0.005
G1 X0.0918 Y0.0246 Z0.0 E0.005
G1 X0.0922 Y0.023 Z0.0 E0.005
G1 X0.0926 Y0.0214 Z0.0 E0.005
G1 X0.0929 Y0.0198 Z0.0 E0.005
G1 X0.0933 Y0.0181 Z0.0 E0.005
G1 X0.0936 Y0.0165 Z0.0 E0.005
G1 X0.0938 Y0.0149 Z0.0 E0.005
G1 X0.0941 Y0.0132 Z0.0 E0.005
G1 X0.0943 Y0.0116 Z0.0 E0.005
G1 X0.0945 Y0.0099 Z0.0 E0.005
G1 X0.0946 Y0.0083 Z0.0 E0.005
G1 X0.0948 Y0.0066 Z0.0 E0.005
G1 X0.0949 Y0.005 Z0.0 E0.005
G1 X0.0949 Y0.0033 Z0.0 E0.005
G1 X0.095 Y0.0017 Z0.0 E0.005
G1 X-0.0823 Y0.0475 Z0.0 E0.005
G1 X-0.0814 Y0.0489 Z0.0 E0.005
G1 X-0.0806 Y0.0503 Z0.0 E0.005
G1 X-0.0797 Y0.0517 Z0.0 E0.005
G1 X-0.0788 Y0.0531 Z0.0 E0.005
G1 X-0.0778 Y0.0545 Z0.0 E0.005
G1 X-0.0769 Y0.0558 Z0.0 E0.005
G1 X-0.0759 Y0.0572 Z0.0 E0.005
G1 X-0.0749 Y0.0585 Z0.0 E0.005
G1 X-0.0738 Y0.0598 Z0.0 E0.005
G1 X-0.0728 Y0.0611 Z0.0 E0.005
G1 X-0.0717 Y0.0623 Z0.0 E0.005
G1 X-0.0706 Y0.0636 Z0.0 E0.005
G1 X-0.0695 Y0.0648 Z0.0 E0.005
G1 X-0.0683 Y0.066 Z0.0 E0.005
G1 X-0.0672 Y0.0672 Z0.0 E0.005
G1 X-0.066 Y0.0683 Z0.0 E0.005
G1 X-0.0648 Y0.0695 Z0.0 E0.005
G1 X-0.0636 Y0.0706 Z0.0 E0.005
G1 X-0.0623 Y0.0717 Z0.0 E0.005
G1 X-0.0611 Y0.0728 Z0.0 E0.005
G1 X-0.0598 Y0.0738 Z0.0 E0.005
G1 X-0.0585 Y0.0749 Z0.0 E0.005
G1 X-0.0572 Y0.0759 Z0.0 E0.005
G1 X-0.0558 Y0.0769 Z0.0 E0.005
G1 X-0.0545 Y0.0778 Z0.0 E0.005
G1 X-0.0531 Y0.0788 Z0.0 E0.005
G1 X-0.0517 Y0.0797 Z0.0 E0.005
G1 X-0.0503 Y0.0806 Z0.0 E0.005
G1 X-0.0489 Y0.0814 Z0.0 E0.005
G1 X-0.0475 Y0.0823 Z0.0 E0.005
G1 X-0.0461 Y0.0831 Z0.0 E0.005
G1 X-0.0446 Y0.0839 Z0.0 E0.005
G1 X-0.0431 Y0.0846 Z0.0 E0.005
G1 X-0.0416 Y0.0854 Z0.0 E0.005
G1 X-0.0401 Y0.0861 Z0.0 E0.005
G1 X-0.0386 Y0.0868 Z0.0 E0.005
G1 X-0.0371 Y0.0874 Z0.0 E0.005
G1 X-0.0356 Y0.0881 Z0.0 E0.005
G1 X-0.034 Y0.0887 Z0.0 E0.005
G1 X-0.0325 Y0.0893 Z0.0 E0.005
G1 X-0.0309 Y0.0898 Z0.0 E0.005
G1 X-0.0294 Y0.0904 Z0.0 E0.005
G1 X-0.0278 Y0.0908 Z0.0 E0.005
G1 X-0.0262 Y0.0913 Z0.0 E0.005
G1 X-0.0246 Y0.0918 Z0.0 E0.005
G1 X-0.023 Y0.0922 Z0.0 E0.005
G1 X-0.0214 Y0.0926 Z0.0 E0.005
G1 X-0.0198 Y0.0929 Z0.0 E0.005
G1 X-0.0181 Y0.0933 Z0.0 E0.005
G1 X-0.0165 Y0.0936 Z0.0 E0.005
G1 X-0.0149 Y0.0938 Z0.0 E0.005
G1 X-0.0132 Y0.0941 Z0.0 E0.005
G1 X-0.0116 Y0.0943 Z0.0 E0.005
G1 X-0.0099 Y0.0945 Z0.0 E0.005
G1 X-0.0083 Y0.0946 Z0.0 E0.005
G1 X-0.0066 Y0.0948 Z0.0 E0.005
G1 X-0.005 Y0.0949 Z0.0 E0.005
G1 X-0.0033 Y0.0949 Z0.0 E0.005
G1 X-0.0017 Y0.095 Z0.0 E0.005
G1 X-0.0 Y0.095 Z0.0 E0.005
G1 X0.0017 Y0.095 Z0.0 E0.005
G1 X0.0033 Y0.0949 Z0.0 E0.005
G1 X0.005 Y0.0949 Z0.0 E0.005
G1 X0.0066 Y0.0948 Z0.0 E0.005
G1 X0.0083 Y0.0946 Z0.0 E0.005
G1 X0.0099 Y0.0945 Z0.0 E0.005
G1 X0.0116 Y0.0943 Z0.0 E0.005
G1 X0.0132 Y0.0941 Z0.0 E0.005
G1 X0.0149 Y0.0938 Z0.0 E0.005
G1 X0.0165 Y0.0936 Z0.0 E0.005
G1 X0.0181 Y0.0933 Z0.0 E0.005
G1 X0.0198 Y0.0929 Z0.0 E0.005
G1 X0.0214 Y0.0926 Z0.0 E0.005
G1 X0.023 Y0.0922 Z0.0 E0.005
G1 X0.0246 Y0.0918 Z0.0 E0.005
G1 X0.0262 Y0.0913 Z0.0 E0.005
G1 X0.0278 Y0.0908 Z0.0 E0.005
G1 X0.0294 Y0.0904 Z0.0 E0.005
G1 X0.0309 Y0.0898 Z0.0 E0.005
G1 X0.0325 Y0.0893 Z0.0 E0.005
G1 X0.034 Y0.0887 Z0.0 E0.005
G1 X0.0356 Y0.0881 Z0.0 E0.005
G1 X0.0371 Y0.0874 Z0.0 E0.005
G1 X0.0386 Y0.0868 Z0.0 E0.005
G1 X0.0401 Y0.0861 Z0.0 E0.005
G1 X0.0416 Y0.0854 Z0.0 E0.005
G1 X0.0431 Y0.0846 Z0.0 E0.005
G1 X0.0446 Y0.0839 Z0.0 E0.005
G1 X0.0461 Y0.0831 Z0.0 E0.005
G1 X0.0475 Y0.0823 Z0.0 E0.005
G1 X0.0489 Y0.0814 Z0.0 E0.005
G1 X0.0503 Y0.0806 Z0.0 E0.005
G1 X0.0517 Y0.0797 Z0.0 E0.005
G1 X0.0531 Y0.0788 Z0.0 E0.005
G1 X0.0545 Y0.0778 Z0.0 E0.005
G1 X0.0558 Y0.0769 Z0.0 E0.005
G1 X0.0572 Y0.0759 Z0.0 E0.005
G1 X0.0585 Y0.0749 Z0.0 E0.005
G1 X0.0598 Y0.0738 Z0.0 E0.005
G1 X0.0611 Y0.0728 Z0.0 E0.005
G1 X0.0623 Y0.0717 Z0.0 E0.005
G1 X0.0636 Y0.0706 Z0.0 E0.005
G1 X0.0648 Y0.0695 Z0.0 E0.005
G1 X0.066 Y0.0683 Z0.0 E0.005
G1 X0.0672 Y0.0672 Z0.0 E0.005
G1 X0.0683 Y0.066 Z0.0 E0.005
G1 X0.0695 Y0.0648 Z0.0 E0.005
G1 X0.0706 Y0.0636 Z0.0 E0.005
G1 X0.0717 Y0.0623 Z0.0 E0.005
G1 X0.0728 Y0.0611 Z0.0 E0.005
G1 X0.0738 Y0.0598 Z0.0 E0.005
G1 X0.0749 Y0.0585 Z0.0 E0.005
G1 X0.0759 Y0.0572 Z0.0 E0.005
G1 X0.0769 Y0.0558 Z0.0 E0.005
G1 X0.0778 Y0.0545 Z0.0 E0.005
G1 X0.0788 Y0.0531 Z0.0 E0.005
G1 X0.0797 Y0.0517 Z0.0 E0.005
G1 X0.0806 Y0.0503 Z0.0 E0.005
G1 X0.0814 Y0.0489 Z0.0 E0.005
G1 X0.0823 Y0.0475 Z0.0 E0.005
G1 X0.0831 Y0.0461 Z0.0 E0.005
G1 X0.0839 Y0.0446 Z0.0 E0.005
G1 X0.0846 Y0.0431 Z0.0 E0.005
G1 X0.0854 Y0.0416 Z0.0 E0.005
G1 X0.0861 Y0.0401 Z0.0 E0.005
G1 X0.0868 Y0.0386 Z0.0 E0.005
G1 X0.0874 Y0.0371 Z0.0 E0.005
G1 X0.0881 Y0.0356 Z0.0 E0.005
G1 X0.0887 Y0.034 Z0.0 E0.005
G1 X0.0893 Y0.0325 Z0.0 E0.005
G1 X0.0898 Y0.0309 Z0.0 E0.005
G1 X0.0904 Y0.0294 Z0.0 E0.005
G1 X0.0908 Y0.0278 Z0.0 E0.005
G1 X0.0913 Y0.0262 Z0.0 E0.005
G1 X0.0918 Y0.0246 Z0.0 E0.005
G1 X0.0922 Y0.023 Z0.0 E0.005
G1 X0.0926 Y0.0214 Z0.0 E0.005
G1 X0.0929 Y0.0198 Z0.0 E0.005
G1 X0.0933 Y0.0181 Z0.0 E0.005
G1 X0.0936 Y0.0165 Z0.0 E0.005
G1 X0.0938 Y0.0149 Z0.0 E0.005
G1 X0.0941 Y0.0132 Z0.0 E0.005
G1 X0.0943 Y0.0116 Z0.0 E0.005
G1 X0.0945 Y0.0099 Z0.0 E0.005
G1 X0.0946 Y0.0083 Z0.0 E0.005
G1 X0.0948 Y0.0066 Z0.0 E0.005
G1 X0.0949 Y0.005 Z0.0 E0.005
G1 X0.0949 Y0.0033 Z0.0 E0.005
G1 X0.095 Y0.0017 Z0.0 E0.005
G1 X0.095 Y0.0 Z0.0 E0.005
G1 X0.095 Y-0.0017 Z0.0 E0.005
G1 X0.0949 Y-0.0033 Z0.0 E0.005
G1 X0.0949 Y-0.005 Z0.0 E0.005
G1 X0.0948 Y-0.0066 Z0.0 E0.005
G1 X0.0946 Y-0.0083 Z0.0 E0.005
G1 X0.0945 Y-0.0099 Z0.0 E0.005
G1 X0.0943 Y-0.0116 Z0.0 E0.005
G1 X0.0941 Y-0.0132 Z0.0 E0.005
G1 X0.0938 Y-0.0149 Z0.0 E0.005
G1 X0.0936 Y-0.0165 Z0.0 E0.005
G1 X0.0933 Y-0.0181 Z0.0 E0.005
G1 X0.0929 Y-0.0198 Z0.0 E0.005
G1 X0.0926 Y-0.0214 Z0.0 E0.005
G1 X0.0922 Y-0.023 Z0.0 E0.005
G1 X0.0918 Y-0.0246 Z0.0 E0.005
G1 X0.0913 Y-0.0262 Z0.0 E0.005
G1 X0.0908 Y-0.0278 Z0.0 E0.005
G1 X0.0904 Y-0.0294 Z0.0 E0.005
G1 X0.0898 Y-0.0309 Z0.0 E0.005
G1 X0.0893 Y-0.0325 Z0.0 E0.005
G1 X0.0887 Y-0.034 Z0.0 E0.005
G1 X0.0881 Y-0.0356 Z0.0 E0.005
G1 X0.0874 Y-0.0371 Z0.0 E0.005
G1 X0.0868 Y-0.0386 Z0.0 E0.005
G1 X0.0861 Y-0.0401 Z0.0 E0.005
G1 X0.0854 Y-0.0416 Z0.0 E0.005
G1 X0.0846 Y-0.0431 Z0.0 E0.005
G1 X0.0839 Y-0.0446 Z0.0 E0.005
G1 X0.0831 Y-0.0461 Z0.0 E0.005
G1 X-0.0475 Y0.0823 Z0.0 E0.005
G1 X-0.0461 Y0.0831 Z0.0 E0.005
G1 X-0.0446 Y0.0839 Z0.0 E0.005
G1 X-0.0431 Y0.0846 Z0.0 E0.005
G1 X-0.0416 Y0.0854 Z0.0 E0.005
G1 X-0.0401 Y0.0861 Z0.0 E0.005
G1 X-0.0386 Y0.0868 Z0.0 E0.005
G1 X-0.0371 Y0.0874 Z0.0 E0.005
G1 X-0.0356 Y0.0881 Z0.0 E0.005
G1 X-0.034 Y0.0887 Z0.0 E0.005
G1 X-0.0325 Y0.0893 Z0.0 E0.005
G1 X-0.0309 Y0.0898 Z0.0 E0.005
G1 X-0.0294 Y0.0904 Z0.0 E0.005
G1 X-0.0278 Y0.0908 Z0.0 E0.005
G1 X-0.0262 Y0.0913 Z0.0 E0.005
G1 X-0.0246 Y0.0918 Z0.0 E0.005
G1 X-0.023 Y0.0922 Z0.0 E0.005
G1 X-0.0214 Y0.0926 Z0.0 E0.005
G1 X-0.0198 Y0.0929 Z0.0 E0.005
G1 X-0.0181 Y0.0933 Z0.0 E0.005
G1 X-0.0165 Y0.0936 Z0.0 E0.005
G1 X-0.0149 Y0.0938 Z0.0 E0.005
G1 X-0.0132 Y0.0941 Z0.0 E0.005
G1 X-0.0116 Y0.0943 Z0.0 E0.005
G1 X-0.0099 Y0.0945 Z0.0 E0.005
G1 X-0.0083 Y0.0946 Z0.0 E0.005
G1 X-0.0066 Y0.0948 Z0.0 E0.005
G1 X-0.005 Y0.0949 Z0.0 E0.005
G1 X-0.0033 Y0.0949 Z0.0 E0.005
G1 X-0.0017 Y0.095 Z0.0 E0.005
G1 X-0.0 Y0.095 Z0.0 E0.005
