; *************************************************
; *************************************************
; ******* File generated by Extruder Turtle *******
; ******* written by Leah Buechley and  ***********
; ******* and Franklin Pezutti-Dyer ***************
; **** Hand and Machine Lab, UNM, 2021-present ****
; *************************************************
; *************************************************
; ********** Default printer parameters ***********
; Printer: ender
; Nozzle size: 0.2
; Extrude width: 0.4
; Layer height: 0.2
; Extrude rate: 0.05
; Speed: 1000
; Mix Factor: 0.9
; *************** Ender initialization **************
G92 E0 ; Reset Extruder 
G28 ; Home all axes
G90 ; Absolute coordinates for X,Y,Z   
M190 S60 ; Set bed temperature and wait 
M109 S205 ; Set extruder temperature and wait 
G1 Z2.0 F3000 ; Move Z to 2mm above bed 
G1 X0.1 Y20 Z0.3 F5000.0 ; Move to start position
G1 X0.1 Y200.0 Z0.3 F1500.0 E15 ; Draw the first line
G1 X0.4 Y200.0 Z0.3 F5000.0 ; Move to side a little
G1 X0.4 Y20 Z0.3 F1500.0 E30 ; Draw the second line
G92 E0 ; Reset Extruder
G1 Z2.0 F3000 ; Move Z Axis up little to prevent scratching of Heat Bed 
G1 X5 Y20 Z0.3 F5000.0 ; Move over to prevent blob squish 
G92 E0 ; Reset extruder position to zero 
G1 F300 E-3 
G1 F2000
G1 0 0 .3               ; Lift nozzle above bed a little
G1 X100 Y100 Z.1        ; Go to the starting position 
F300 E3                 ; Extrude to get ready
M83 					; Relative extrustion
G91                     ; Relative coordinates for X,Y,Z axes
G1 F1000
; ********** End printer initialization ***********
; *************************************************

; *************** Begin print *********************
G1 X1.0 Y0.0 Z0.0 E0.05
G1 X1.0 Y0.0 Z0.0 E0.05
G1 X1.0 Y0.0 Z0.0 E0.05
G1 X1.0 Y0.0 Z0.0 E0.05
G1 X1.0 Y0.0 Z0.0 E0.05
G1 X1.0 Y0.0 Z0.0 E0.05
G1 X1.0 Y0.0 Z0.0 E0.05
G1 X1.0 Y0.0 Z0.0 E0.05
G1 X1.0 Y0.0 Z0.0 E0.05
G1 X1.0 Y0.0 Z0.0 E0.05
G1 X1.0 Y0.0 Z0.0 E0.05
G1 X1.0 Y0.0 Z0.0 E0.05
G1 X1.0 Y0.0 Z0.0 E0.05
G1 X1.0 Y0.0 Z0.0 E0.05
G1 X1.0 Y0.0 Z0.0 E0.05
G1 X1.0 Y0.0 Z0.0 E0.05
G1 X1.0 Y0.0 Z0.0 E0.05
G1 X1.0 Y0.0 Z0.0 E0.05
G1 X1.0 Y0.0 Z0.0 E0.05
G1 X1.0 Y0.0 Z0.0 E0.05
G1 X1.0 Y0.0 Z0.0 E0.05
G1 X0.766 Y-0.6428 Z0.0 E0.05
G1 X0.766 Y-0.6428 Z0.0 E0.05
G1 X0.766 Y-0.6428 Z0.0 E0.05
G1 X0.766 Y-0.6428 Z0.0 E0.05
G1 X0.766 Y-0.6428 Z0.0 E0.05
G1 X0.766 Y-0.6428 Z0.0 E0.05
G1 X0.766 Y-0.6428 Z0.0 E0.05
G1 X0.766 Y-0.6428 Z0.0 E0.05
G1 X0.766 Y-0.6428 Z0.0 E0.05
G1 X0.766 Y-0.6428 Z0.0 E0.05
G1 X0.766 Y-0.6428 Z0.0 E0.05
G1 X0.766 Y-0.6428 Z0.0 E0.05
G1 X0.766 Y-0.6428 Z0.0 E0.05
G1 X0.766 Y-0.6428 Z0.0 E0.05
G1 X0.766 Y-0.6428 Z0.0 E0.05
G1 X0.766 Y-0.6428 Z0.0 E0.05
G1 X0.766 Y-0.6428 Z0.0 E0.05
G1 X0.766 Y-0.6428 Z0.0 E0.05
G1 X0.766 Y-0.6428 Z0.0 E0.05
G1 X0.766 Y-0.6428 Z0.0 E0.05
G1 X0.766 Y-0.6428 Z0.0 E0.05
G1 X0.1736 Y-0.9848 Z0.0 E0.05
G1 X0.1736 Y-0.9848 Z0.0 E0.05
G1 X0.1736 Y-0.9848 Z0.0 E0.05
G1 X0.1736 Y-0.9848 Z0.0 E0.05
G1 X0.1736 Y-0.9848 Z0.0 E0.05
G1 X0.1736 Y-0.9848 Z0.0 E0.05
G1 X0.1736 Y-0.9848 Z0.0 E0.05
G1 X0.1736 Y-0.9848 Z0.0 E0.05
G1 X0.1736 Y-0.9848 Z0.0 E0.05
G1 X0.1736 Y-0.9848 Z0.0 E0.05
G1 X0.1736 Y-0.9848 Z0.0 E0.05
G1 X0.1736 Y-0.9848 Z0.0 E0.05
G1 X0.1736 Y-0.9848 Z0.0 E0.05
G1 X0.1736 Y-0.9848 Z0.0 E0.05
G1 X0.1736 Y-0.9848 Z0.0 E0.05
G1 X0.1736 Y-0.9848 Z0.0 E0.05
G1 X0.1736 Y-0.9848 Z0.0 E0.05
G1 X0.1736 Y-0.9848 Z0.0 E0.05
G1 X0.1736 Y-0.9848 Z0.0 E0.05
G1 X0.1736 Y-0.9848 Z0.0 E0.05
G1 X0.1736 Y-0.9848 Z0.0 E0.05
G1 X-0.5 Y-0.866 Z0.0 E0.05
G1 X-0.5 Y-0.866 Z0.0 E0.05
G1 X-0.5 Y-0.866 Z0.0 E0.05
G1 X-0.5 Y-0.866 Z0.0 E0.05
G1 X-0.5 Y-0.866 Z0.0 E0.05
G1 X-0.5 Y-0.866 Z0.0 E0.05
G1 X-0.5 Y-0.866 Z0.0 E0.05
G1 X-0.5 Y-0.866 Z0.0 E0.05
G1 X-0.5 Y-0.866 Z0.0 E0.05
G1 X-0.5 Y-0.866 Z0.0 E0.05
G1 X-0.5 Y-0.866 Z0.0 E0.05
G1 X-0.5 Y-0.866 Z0.0 E0.05
G1 X-0.5 Y-0.866 Z0.0 E0.05
G1 X-0.5 Y-0.866 Z0.0 E0.05
G1 X-0.5 Y-0.866 Z0.0 E0.05
G1 X-0.5 Y-0.866 Z0.0 E0.05
G1 X-0.5 Y-0.866 Z0.0 E0.05
G1 X-0.5 Y-0.866 Z0.0 E0.05
G1 X-0.5 Y-0.866 Z0.0 E0.05
G1 X-0.5 Y-0.866 Z0.0 E0.05
G1 X-0.5 Y-0.866 Z0.0 E0.05
G1 X-0.9397 Y-0.342 Z0.0 E0.05
G1 X-0.9397 Y-0.342 Z0.0 E0.05
G1 X-0.9397 Y-0.342 Z0.0 E0.05
G1 X-0.9397 Y-0.342 Z0.0 E0.05
G1 X-0.9397 Y-0.342 Z0.0 E0.05
G1 X-0.9397 Y-0.342 Z0.0 E0.05
G1 X-0.9397 Y-0.342 Z0.0 E0.05
G1 X-0.9397 Y-0.342 Z0.0 E0.05
G1 X-0.9397 Y-0.342 Z0.0 E0.05
G1 X-0.9397 Y-0.342 Z0.0 E0.05
G1 X-0.9397 Y-0.342 Z0.0 E0.05
G1 X-0.9397 Y-0.342 Z0.0 E0.05
G1 X-0.9397 Y-0.342 Z0.0 E0.05
G1 X-0.9397 Y-0.342 Z0.0 E0.05
G1 X-0.9397 Y-0.342 Z0.0 E0.05
G1 X-0.9397 Y-0.342 Z0.0 E0.05
G1 X-0.9397 Y-0.342 Z0.0 E0.05
G1 X-0.9397 Y-0.342 Z0.0 E0.05
G1 X-0.9397 Y-0.342 Z0.0 E0.05
G1 X-0.9397 Y-0.342 Z0.0 E0.05
G1 X-0.9397 Y-0.342 Z0.0 E0.05
G1 X-0.9397 Y0.342 Z0.0 E0.05
G1 X-0.9397 Y0.342 Z0.0 E0.05
G1 X-0.9397 Y0.342 Z0.0 E0.05
G1 X-0.9397 Y0.342 Z0.0 E0.05
G1 X-0.9397 Y0.342 Z0.0 E0.05
G1 X-0.9397 Y0.342 Z0.0 E0.05
G1 X-0.9397 Y0.342 Z0.0 E0.05
G1 X-0.9397 Y0.342 Z0.0 E0.05
G1 X-0.9397 Y0.342 Z0.0 E0.05
G1 X-0.9397 Y0.342 Z0.0 E0.05
G1 X-0.9397 Y0.342 Z0.0 E0.05
G1 X-0.9397 Y0.342 Z0.0 E0.05
G1 X-0.9397 Y0.342 Z0.0 E0.05
G1 X-0.9397 Y0.342 Z0.0 E0.05
G1 X-0.9397 Y0.342 Z0.0 E0.05
G1 X-0.9397 Y0.342 Z0.0 E0.05
G1 X-0.9397 Y0.342 Z0.0 E0.05
G1 X-0.9397 Y0.342 Z0.0 E0.05
G1 X-0.9397 Y0.342 Z0.0 E0.05
G1 X-0.9397 Y0.342 Z0.0 E0.05
G1 X-0.9397 Y0.342 Z0.0 E0.05
G1 X-0.5 Y0.866 Z0.0 E0.05
G1 X-0.5 Y0.866 Z0.0 E0.05
G1 X-0.5 Y0.866 Z0.0 E0.05
G1 X-0.5 Y0.866 Z0.0 E0.05
G1 X-0.5 Y0.866 Z0.0 E0.05
G1 X-0.5 Y0.866 Z0.0 E0.05
G1 X-0.5 Y0.866 Z0.0 E0.05
G1 X-0.5 Y0.866 Z0.0 E0.05
G1 X-0.5 Y0.866 Z0.0 E0.05
G1 X-0.5 Y0.866 Z0.0 E0.05
G1 X-0.5 Y0.866 Z0.0 E0.05
G1 X-0.5 Y0.866 Z0.0 E0.05
G1 X-0.5 Y0.866 Z0.0 E0.05
G1 X-0.5 Y0.866 Z0.0 E0.05
G1 X-0.5 Y0.866 Z0.0 E0.05
G1 X-0.5 Y0.866 Z0.0 E0.05
G1 X-0.5 Y0.866 Z0.0 E0.05
G1 X-0.5 Y0.866 Z0.0 E0.05
G1 X-0.5 Y0.866 Z0.0 E0.05
G1 X-0.5 Y0.866 Z0.0 E0.05
G1 X-0.5 Y0.866 Z0.0 E0.05
G1 X0.1736 Y0.9848 Z0.0 E0.05
G1 X0.1736 Y0.9848 Z0.0 E0.05
G1 X0.1736 Y0.9848 Z0.0 E0.05
G1 X0.1736 Y0.9848 Z0.0 E0.05
G1 X0.1736 Y0.9848 Z0.0 E0.05
G1 X0.1736 Y0.9848 Z0.0 E0.05
G1 X0.1736 Y0.9848 Z0.0 E0.05
G1 X0.1736 Y0.9848 Z0.0 E0.05
G1 X0.1736 Y0.9848 Z0.0 E0.05
G1 X0.1736 Y0.9848 Z0.0 E0.05
G1 X0.1736 Y0.9848 Z0.0 E0.05
G1 X0.1736 Y0.9848 Z0.0 E0.05
G1 X0.1736 Y0.9848 Z0.0 E0.05
G1 X0.1736 Y0.9848 Z0.0 E0.05
G1 X0.1736 Y0.9848 Z0.0 E0.05
G1 X0.1736 Y0.9848 Z0.0 E0.05
G1 X0.1736 Y0.9848 Z0.0 E0.05
G1 X0.1736 Y0.9848 Z0.0 E0.05
G1 X0.1736 Y0.9848 Z0.0 E0.05
G1 X0.1736 Y0.9848 Z0.0 E0.05
G1 X0.1736 Y0.9848 Z0.0 E0.05
G1 X0.766 Y0.6428 Z0.0 E0.05
G1 X0.766 Y0.6428 Z0.0 E0.05
G1 X0.766 Y0.6428 Z0.0 E0.05
G1 X0.766 Y0.6428 Z0.0 E0.05
G1 X0.766 Y0.6428 Z0.0 E0.05
G1 X0.766 Y0.6428 Z0.0 E0.05
G1 X0.766 Y0.6428 Z0.0 E0.05
G1 X0.766 Y0.6428 Z0.0 E0.05
G1 X0.766 Y0.6428 Z0.0 E0.05
G1 X0.766 Y0.6428 Z0.0 E0.05
G1 X0.766 Y0.6428 Z0.0 E0.05
G1 X0.766 Y0.6428 Z0.0 E0.05
G1 X0.766 Y0.6428 Z0.0 E0.05
G1 X0.766 Y0.6428 Z0.0 E0.05
G1 X0.766 Y0.6428 Z0.0 E0.05
G1 X0.766 Y0.6428 Z0.0 E0.05
G1 X0.766 Y0.6428 Z0.0 E0.05
G1 X0.766 Y0.6428 Z0.0 E0.05
G1 X0.766 Y0.6428 Z0.0 E0.05
G1 X0.766 Y0.6428 Z0.0 E0.05
G1 X0.766 Y0.6428 Z0.0 E0.05
G1 X1.0 Y0.0 Z0.0067 E0.05
G1 X1.0 Y0.0 Z0.006 E0.05
G1 X1.0 Y0.0 Z0.0053 E0.05
G1 X1.0 Y0.0 Z0.0047 E0.05
G1 X1.0 Y0.0 Z0.004 E0.05
G1 X1.0 Y0.0 Z0.0033 E0.05
G1 X1.0 Y0.0 Z0.0027 E0.05
G1 X1.0 Y0.0 Z0.002 E0.05
G1 X1.0 Y0.0 Z0.0013 E0.05
G1 X1.0 Y0.0 Z0.0007 E0.05
G1 X1.0 Y0.0 Z0.0 E0.05
G1 X1.0 Y0.0 Z-0.0007 E0.05
G1 X1.0 Y0.0 Z-0.0013 E0.05
G1 X1.0 Y0.0 Z-0.002 E0.05
G1 X1.0 Y0.0 Z-0.0027 E0.05
G1 X1.0 Y0.0 Z-0.0033 E0.05
G1 X1.0 Y0.0 Z-0.004 E0.05
G1 X1.0 Y0.0 Z-0.0047 E0.05
G1 X1.0 Y0.0 Z-0.0053 E0.05
G1 X1.0 Y0.0 Z-0.006 E0.05
G1 X1.0 Y0.0 Z-0.0067 E0.05
G1 X0.766 Y-0.6428 Z0.0067 E0.05
G1 X0.766 Y-0.6428 Z0.006 E0.05
G1 X0.766 Y-0.6428 Z0.0053 E0.05
G1 X0.766 Y-0.6428 Z0.0047 E0.05
G1 X0.766 Y-0.6428 Z0.004 E0.05
G1 X0.766 Y-0.6428 Z0.0033 E0.05
G1 X0.766 Y-0.6428 Z0.0027 E0.05
G1 X0.766 Y-0.6428 Z0.002 E0.05
G1 X0.766 Y-0.6428 Z0.0013 E0.05
G1 X0.766 Y-0.6428 Z0.0007 E0.05
G1 X0.766 Y-0.6428 Z0.0 E0.05
G1 X0.766 Y-0.6428 Z-0.0007 E0.05
G1 X0.766 Y-0.6428 Z-0.0013 E0.05
G1 X0.766 Y-0.6428 Z-0.002 E0.05
G1 X0.766 Y-0.6428 Z-0.0027 E0.05
G1 X0.766 Y-0.6428 Z-0.0033 E0.05
G1 X0.766 Y-0.6428 Z-0.004 E0.05
G1 X0.766 Y-0.6428 Z-0.0047 E0.05
G1 X0.766 Y-0.6428 Z-0.0053 E0.05
G1 X0.766 Y-0.6428 Z-0.006 E0.05
G1 X0.766 Y-0.6428 Z-0.0067 E0.05
G1 X0.1736 Y-0.9848 Z0.0067 E0.05
G1 X0.1736 Y-0.9848 Z0.006 E0.05
G1 X0.1736 Y-0.9848 Z0.0053 E0.05
G1 X0.1736 Y-0.9848 Z0.0047 E0.05
G1 X0.1736 Y-0.9848 Z0.004 E0.05
G1 X0.1736 Y-0.9848 Z0.0033 E0.05
G1 X0.1736 Y-0.9848 Z0.0027 E0.05
G1 X0.1736 Y-0.9848 Z0.002 E0.05
G1 X0.1736 Y-0.9848 Z0.0013 E0.05
G1 X0.1736 Y-0.9848 Z0.0007 E0.05
G1 X0.1736 Y-0.9848 Z0.0 E0.05
G1 X0.1736 Y-0.9848 Z-0.0007 E0.05
G1 X0.1736 Y-0.9848 Z-0.0013 E0.05
G1 X0.1736 Y-0.9848 Z-0.002 E0.05
G1 X0.1736 Y-0.9848 Z-0.0027 E0.05
G1 X0.1736 Y-0.9848 Z-0.0033 E0.05
G1 X0.1736 Y-0.9848 Z-0.004 E0.05
G1 X0.1736 Y-0.9848 Z-0.0047 E0.05
G1 X0.1736 Y-0.9848 Z-0.0053 E0.05
G1 X0.1736 Y-0.9848 Z-0.006 E0.05
G1 X0.1736 Y-0.9848 Z-0.0067 E0.05
G1 X-0.5 Y-0.866 Z0.0067 E0.05
G1 X-0.5 Y-0.866 Z0.006 E0.05
G1 X-0.5 Y-0.866 Z0.0053 E0.05
G1 X-0.5 Y-0.866 Z0.0047 E0.05
G1 X-0.5 Y-0.866 Z0.004 E0.05
G1 X-0.5 Y-0.866 Z0.0033 E0.05
G1 X-0.5 Y-0.866 Z0.0027 E0.05
G1 X-0.5 Y-0.866 Z0.002 E0.05
G1 X-0.5 Y-0.866 Z0.0013 E0.05
G1 X-0.5 Y-0.866 Z0.0007 E0.05
G1 X-0.5 Y-0.866 Z0.0 E0.05
G1 X-0.5 Y-0.866 Z-0.0007 E0.05
G1 X-0.5 Y-0.866 Z-0.0013 E0.05
G1 X-0.5 Y-0.866 Z-0.002 E0.05
G1 X-0.5 Y-0.866 Z-0.0027 E0.05
G1 X-0.5 Y-0.866 Z-0.0033 E0.05
G1 X-0.5 Y-0.866 Z-0.004 E0.05
G1 X-0.5 Y-0.866 Z-0.0047 E0.05
G1 X-0.5 Y-0.866 Z-0.0053 E0.05
G1 X-0.5 Y-0.866 Z-0.006 E0.05
G1 X-0.5 Y-0.866 Z-0.0067 E0.05
G1 X-0.9397 Y-0.342 Z0.0067 E0.05
G1 X-0.9397 Y-0.342 Z0.006 E0.05
G1 X-0.9397 Y-0.342 Z0.0053 E0.05
G1 X-0.9397 Y-0.342 Z0.0047 E0.05
G1 X-0.9397 Y-0.342 Z0.004 E0.05
G1 X-0.9397 Y-0.342 Z0.0033 E0.05
G1 X-0.9397 Y-0.342 Z0.0027 E0.05
G1 X-0.9397 Y-0.342 Z0.002 E0.05
G1 X-0.9397 Y-0.342 Z0.0013 E0.05
G1 X-0.9397 Y-0.342 Z0.0007 E0.05
G1 X-0.9397 Y-0.342 Z0.0 E0.05
G1 X-0.9397 Y-0.342 Z-0.0007 E0.05
G1 X-0.9397 Y-0.342 Z-0.0013 E0.05
G1 X-0.9397 Y-0.342 Z-0.002 E0.05
G1 X-0.9397 Y-0.342 Z-0.0027 E0.05
G1 X-0.9397 Y-0.342 Z-0.0033 E0.05
G1 X-0.9397 Y-0.342 Z-0.004 E0.05
G1 X-0.9397 Y-0.342 Z-0.0047 E0.05
G1 X-0.9397 Y-0.342 Z-0.0053 E0.05
G1 X-0.9397 Y-0.342 Z-0.006 E0.05
G1 X-0.9397 Y-0.342 Z-0.0067 E0.05
G1 X-0.9397 Y0.342 Z0.0067 E0.05
G1 X-0.9397 Y0.342 Z0.006 E0.05
G1 X-0.9397 Y0.342 Z0.0053 E0.05
G1 X-0.9397 Y0.342 Z0.0047 E0.05
G1 X-0.9397 Y0.342 Z0.004 E0.05
G1 X-0.9397 Y0.342 Z0.0033 E0.05
G1 X-0.9397 Y0.342 Z0.0027 E0.05
G1 X-0.9397 Y0.342 Z0.002 E0.05
G1 X-0.9397 Y0.342 Z0.0013 E0.05
G1 X-0.9397 Y0.342 Z0.0007 E0.05
G1 X-0.9397 Y0.342 Z0.0 E0.05
G1 X-0.9397 Y0.342 Z-0.0007 E0.05
G1 X-0.9397 Y0.342 Z-0.0013 E0.05
G1 X-0.9397 Y0.342 Z-0.002 E0.05
G1 X-0.9397 Y0.342 Z-0.0027 E0.05
G1 X-0.9397 Y0.342 Z-0.0033 E0.05
G1 X-0.9397 Y0.342 Z-0.004 E0.05
G1 X-0.9397 Y0.342 Z-0.0047 E0.05
G1 X-0.9397 Y0.342 Z-0.0053 E0.05
G1 X-0.9397 Y0.342 Z-0.006 E0.05
G1 X-0.9397 Y0.342 Z-0.0067 E0.05
G1 X-0.5 Y0.866 Z0.0067 E0.05
G1 X-0.5 Y0.866 Z0.006 E0.05
G1 X-0.5 Y0.866 Z0.0053 E0.05
G1 X-0.5 Y0.866 Z0.0047 E0.05
G1 X-0.5 Y0.866 Z0.004 E0.05
G1 X-0.5 Y0.866 Z0.0033 E0.05
G1 X-0.5 Y0.866 Z0.0027 E0.05
G1 X-0.5 Y0.866 Z0.002 E0.05
G1 X-0.5 Y0.866 Z0.0013 E0.05
G1 X-0.5 Y0.866 Z0.0007 E0.05
G1 X-0.5 Y0.866 Z0.0 E0.05
G1 X-0.5 Y0.866 Z-0.0007 E0.05
G1 X-0.5 Y0.866 Z-0.0013 E0.05
G1 X-0.5 Y0.866 Z-0.002 E0.05
G1 X-0.5 Y0.866 Z-0.0027 E0.05
G1 X-0.5 Y0.866 Z-0.0033 E0.05
G1 X-0.5 Y0.866 Z-0.004 E0.05
G1 X-0.5 Y0.866 Z-0.0047 E0.05
G1 X-0.5 Y0.866 Z-0.0053 E0.05
G1 X-0.5 Y0.866 Z-0.006 E0.05
G1 X-0.5 Y0.866 Z-0.0067 E0.05
G1 X0.1736 Y0.9848 Z0.0067 E0.05
G1 X0.1736 Y0.9848 Z0.006 E0.05
G1 X0.1736 Y0.9848 Z0.0053 E0.05
G1 X0.1736 Y0.9848 Z0.0047 E0.05
G1 X0.1736 Y0.9848 Z0.004 E0.05
G1 X0.1736 Y0.9848 Z0.0033 E0.05
G1 X0.1736 Y0.9848 Z0.0027 E0.05
G1 X0.1736 Y0.9848 Z0.002 E0.05
G1 X0.1736 Y0.9848 Z0.0013 E0.05
G1 X0.1736 Y0.9848 Z0.0007 E0.05
G1 X0.1736 Y0.9848 Z0.0 E0.05
G1 X0.1736 Y0.9848 Z-0.0007 E0.05
G1 X0.1736 Y0.9848 Z-0.0013 E0.05
G1 X0.1736 Y0.9848 Z-0.002 E0.05
G1 X0.1736 Y0.9848 Z-0.0027 E0.05
G1 X0.1736 Y0.9848 Z-0.0033 E0.05
G1 X0.1736 Y0.9848 Z-0.004 E0.05
G1 X0.1736 Y0.9848 Z-0.0047 E0.05
G1 X0.1736 Y0.9848 Z-0.0053 E0.05
G1 X0.1736 Y0.9848 Z-0.006 E0.05
G1 X0.1736 Y0.9848 Z-0.0067 E0.05
G1 X0.766 Y0.6428 Z0.0067 E0.05
G1 X0.766 Y0.6428 Z0.006 E0.05
G1 X0.766 Y0.6428 Z0.0053 E0.05
G1 X0.766 Y0.6428 Z0.0047 E0.05
G1 X0.766 Y0.6428 Z0.004 E0.05
G1 X0.766 Y0.6428 Z0.0033 E0.05
G1 X0.766 Y0.6428 Z0.0027 E0.05
G1 X0.766 Y0.6428 Z0.002 E0.05
G1 X0.766 Y0.6428 Z0.0013 E0.05
G1 X0.766 Y0.6428 Z0.0007 E0.05
G1 X0.766 Y0.6428 Z0.0 E0.05
G1 X0.766 Y0.6428 Z-0.0007 E0.05
G1 X0.766 Y0.6428 Z-0.0013 E0.05
G1 X0.766 Y0.6428 Z-0.002 E0.05
G1 X0.766 Y0.6428 Z-0.0027 E0.05
G1 X0.766 Y0.6428 Z-0.0033 E0.05
G1 X0.766 Y0.6428 Z-0.004 E0.05
G1 X0.766 Y0.6428 Z-0.0047 E0.05
G1 X0.766 Y0.6428 Z-0.0053 E0.05
G1 X0.766 Y0.6428 Z-0.006 E0.05
G1 X0.766 Y0.6428 Z-0.0067 E0.05
G1 X1.0 Y0.0 Z0.0133 E0.05
G1 X1.0 Y0.0 Z0.012 E0.05
G1 X1.0 Y0.0 Z0.0107 E0.05
G1 X1.0 Y0.0 Z0.0093 E0.05
G1 X1.0 Y0.0 Z0.008 E0.05
G1 X1.0 Y0.0 Z0.0067 E0.05
G1 X1.0 Y0.0 Z0.0053 E0.05
G1 X1.0 Y0.0 Z0.004 E0.05
G1 X1.0 Y0.0 Z0.0027 E0.05
G1 X1.0 Y0.0 Z0.0013 E0.05
G1 X1.0 Y0.0 Z0.0 E0.05
G1 X1.0 Y0.0 Z-0.0013 E0.05
G1 X1.0 Y0.0 Z-0.0027 E0.05
G1 X1.0 Y0.0 Z-0.004 E0.05
G1 X1.0 Y0.0 Z-0.0053 E0.05
G1 X1.0 Y0.0 Z-0.0067 E0.05
G1 X1.0 Y0.0 Z-0.008 E0.05
G1 X1.0 Y0.0 Z-0.0093 E0.05
G1 X1.0 Y0.0 Z-0.0107 E0.05
G1 X1.0 Y0.0 Z-0.012 E0.05
G1 X1.0 Y0.0 Z-0.0133 E0.05
G1 X0.766 Y-0.6428 Z0.0133 E0.05
G1 X0.766 Y-0.6428 Z0.012 E0.05
G1 X0.766 Y-0.6428 Z0.0107 E0.05
G1 X0.766 Y-0.6428 Z0.0093 E0.05
G1 X0.766 Y-0.6428 Z0.008 E0.05
G1 X0.766 Y-0.6428 Z0.0067 E0.05
G1 X0.766 Y-0.6428 Z0.0053 E0.05
G1 X0.766 Y-0.6428 Z0.004 E0.05
G1 X0.766 Y-0.6428 Z0.0027 E0.05
G1 X0.766 Y-0.6428 Z0.0013 E0.05
G1 X0.766 Y-0.6428 Z0.0 E0.05
G1 X0.766 Y-0.6428 Z-0.0013 E0.05
G1 X0.766 Y-0.6428 Z-0.0027 E0.05
G1 X0.766 Y-0.6428 Z-0.004 E0.05
G1 X0.766 Y-0.6428 Z-0.0053 E0.05
G1 X0.766 Y-0.6428 Z-0.0067 E0.05
G1 X0.766 Y-0.6428 Z-0.008 E0.05
G1 X0.766 Y-0.6428 Z-0.0093 E0.05
G1 X0.766 Y-0.6428 Z-0.0107 E0.05
G1 X0.766 Y-0.6428 Z-0.012 E0.05
G1 X0.766 Y-0.6428 Z-0.0133 E0.05
G1 X0.1736 Y-0.9848 Z0.0133 E0.05
G1 X0.1736 Y-0.9848 Z0.012 E0.05
G1 X0.1736 Y-0.9848 Z0.0107 E0.05
G1 X0.1736 Y-0.9848 Z0.0093 E0.05
G1 X0.1736 Y-0.9848 Z0.008 E0.05
G1 X0.1736 Y-0.9848 Z0.0067 E0.05
G1 X0.1736 Y-0.9848 Z0.0053 E0.05
G1 X0.1736 Y-0.9848 Z0.004 E0.05
G1 X0.1736 Y-0.9848 Z0.0027 E0.05
G1 X0.1736 Y-0.9848 Z0.0013 E0.05
G1 X0.1736 Y-0.9848 Z0.0 E0.05
G1 X0.1736 Y-0.9848 Z-0.0013 E0.05
G1 X0.1736 Y-0.9848 Z-0.0027 E0.05
G1 X0.1736 Y-0.9848 Z-0.004 E0.05
G1 X0.1736 Y-0.9848 Z-0.0053 E0.05
G1 X0.1736 Y-0.9848 Z-0.0067 E0.05
G1 X0.1736 Y-0.9848 Z-0.008 E0.05
G1 X0.1736 Y-0.9848 Z-0.0093 E0.05
G1 X0.1736 Y-0.9848 Z-0.0107 E0.05
G1 X0.1736 Y-0.9848 Z-0.012 E0.05
G1 X0.1736 Y-0.9848 Z-0.0133 E0.05
G1 X-0.5 Y-0.866 Z0.0133 E0.05
G1 X-0.5 Y-0.866 Z0.012 E0.05
G1 X-0.5 Y-0.866 Z0.0107 E0.05
G1 X-0.5 Y-0.866 Z0.0093 E0.05
G1 X-0.5 Y-0.866 Z0.008 E0.05
G1 X-0.5 Y-0.866 Z0.0067 E0.05
G1 X-0.5 Y-0.866 Z0.0053 E0.05
G1 X-0.5 Y-0.866 Z0.004 E0.05
G1 X-0.5 Y-0.866 Z0.0027 E0.05
G1 X-0.5 Y-0.866 Z0.0013 E0.05
G1 X-0.5 Y-0.866 Z0.0 E0.05
G1 X-0.5 Y-0.866 Z-0.0013 E0.05
G1 X-0.5 Y-0.866 Z-0.0027 E0.05
G1 X-0.5 Y-0.866 Z-0.004 E0.05
G1 X-0.5 Y-0.866 Z-0.0053 E0.05
G1 X-0.5 Y-0.866 Z-0.0067 E0.05
G1 X-0.5 Y-0.866 Z-0.008 E0.05
G1 X-0.5 Y-0.866 Z-0.0093 E0.05
G1 X-0.5 Y-0.866 Z-0.0107 E0.05
G1 X-0.5 Y-0.866 Z-0.012 E0.05
G1 X-0.5 Y-0.866 Z-0.0133 E0.05
G1 X-0.9397 Y-0.342 Z0.0133 E0.05
G1 X-0.9397 Y-0.342 Z0.012 E0.05
G1 X-0.9397 Y-0.342 Z0.0107 E0.05
G1 X-0.9397 Y-0.342 Z0.0093 E0.05
G1 X-0.9397 Y-0.342 Z0.008 E0.05
G1 X-0.9397 Y-0.342 Z0.0067 E0.05
G1 X-0.9397 Y-0.342 Z0.0053 E0.05
G1 X-0.9397 Y-0.342 Z0.004 E0.05
G1 X-0.9397 Y-0.342 Z0.0027 E0.05
G1 X-0.9397 Y-0.342 Z0.0013 E0.05
G1 X-0.9397 Y-0.342 Z0.0 E0.05
G1 X-0.9397 Y-0.342 Z-0.0013 E0.05
G1 X-0.9397 Y-0.342 Z-0.0027 E0.05
G1 X-0.9397 Y-0.342 Z-0.004 E0.05
G1 X-0.9397 Y-0.342 Z-0.0053 E0.05
G1 X-0.9397 Y-0.342 Z-0.0067 E0.05
G1 X-0.9397 Y-0.342 Z-0.008 E0.05
G1 X-0.9397 Y-0.342 Z-0.0093 E0.05
G1 X-0.9397 Y-0.342 Z-0.0107 E0.05
G1 X-0.9397 Y-0.342 Z-0.012 E0.05
G1 X-0.9397 Y-0.342 Z-0.0133 E0.05
G1 X-0.9397 Y0.342 Z0.0133 E0.05
G1 X-0.9397 Y0.342 Z0.012 E0.05
G1 X-0.9397 Y0.342 Z0.0107 E0.05
G1 X-0.9397 Y0.342 Z0.0093 E0.05
G1 X-0.9397 Y0.342 Z0.008 E0.05
G1 X-0.9397 Y0.342 Z0.0067 E0.05
G1 X-0.9397 Y0.342 Z0.0053 E0.05
G1 X-0.9397 Y0.342 Z0.004 E0.05
G1 X-0.9397 Y0.342 Z0.0027 E0.05
G1 X-0.9397 Y0.342 Z0.0013 E0.05
G1 X-0.9397 Y0.342 Z0.0 E0.05
G1 X-0.9397 Y0.342 Z-0.0013 E0.05
G1 X-0.9397 Y0.342 Z-0.0027 E0.05
G1 X-0.9397 Y0.342 Z-0.004 E0.05
G1 X-0.9397 Y0.342 Z-0.0053 E0.05
G1 X-0.9397 Y0.342 Z-0.0067 E0.05
G1 X-0.9397 Y0.342 Z-0.008 E0.05
G1 X-0.9397 Y0.342 Z-0.0093 E0.05
G1 X-0.9397 Y0.342 Z-0.0107 E0.05
G1 X-0.9397 Y0.342 Z-0.012 E0.05
G1 X-0.9397 Y0.342 Z-0.0133 E0.05
G1 X-0.5 Y0.866 Z0.0133 E0.05
G1 X-0.5 Y0.866 Z0.012 E0.05
G1 X-0.5 Y0.866 Z0.0107 E0.05
G1 X-0.5 Y0.866 Z0.0093 E0.05
G1 X-0.5 Y0.866 Z0.008 E0.05
G1 X-0.5 Y0.866 Z0.0067 E0.05
G1 X-0.5 Y0.866 Z0.0053 E0.05
G1 X-0.5 Y0.866 Z0.004 E0.05
G1 X-0.5 Y0.866 Z0.0027 E0.05
G1 X-0.5 Y0.866 Z0.0013 E0.05
G1 X-0.5 Y0.866 Z0.0 E0.05
G1 X-0.5 Y0.866 Z-0.0013 E0.05
G1 X-0.5 Y0.866 Z-0.0027 E0.05
G1 X-0.5 Y0.866 Z-0.004 E0.05
G1 X-0.5 Y0.866 Z-0.0053 E0.05
G1 X-0.5 Y0.866 Z-0.0067 E0.05
G1 X-0.5 Y0.866 Z-0.008 E0.05
G1 X-0.5 Y0.866 Z-0.0093 E0.05
G1 X-0.5 Y0.866 Z-0.0107 E0.05
G1 X-0.5 Y0.866 Z-0.012 E0.05
G1 X-0.5 Y0.866 Z-0.0133 E0.05
G1 X0.1736 Y0.9848 Z0.0133 E0.05
G1 X0.1736 Y0.9848 Z0.012 E0.05
G1 X0.1736 Y0.9848 Z0.0107 E0.05
G1 X0.1736 Y0.9848 Z0.0093 E0.05
G1 X0.1736 Y0.9848 Z0.008 E0.05
G1 X0.1736 Y0.9848 Z0.0067 E0.05
G1 X0.1736 Y0.9848 Z0.0053 E0.05
G1 X0.1736 Y0.9848 Z0.004 E0.05
G1 X0.1736 Y0.9848 Z0.0027 E0.05
G1 X0.1736 Y0.9848 Z0.0013 E0.05
G1 X0.1736 Y0.9848 Z0.0 E0.05
G1 X0.1736 Y0.9848 Z-0.0013 E0.05
G1 X0.1736 Y0.9848 Z-0.0027 E0.05
G1 X0.1736 Y0.9848 Z-0.004 E0.05
G1 X0.1736 Y0.9848 Z-0.0053 E0.05
G1 X0.1736 Y0.9848 Z-0.0067 E0.05
G1 X0.1736 Y0.9848 Z-0.008 E0.05
G1 X0.1736 Y0.9848 Z-0.0093 E0.05
G1 X0.1736 Y0.9848 Z-0.0107 E0.05
G1 X0.1736 Y0.9848 Z-0.012 E0.05
G1 X0.1736 Y0.9848 Z-0.0133 E0.05
G1 X0.766 Y0.6428 Z0.0133 E0.05
G1 X0.766 Y0.6428 Z0.012 E0.05
G1 X0.766 Y0.6428 Z0.0107 E0.05
G1 X0.766 Y0.6428 Z0.0093 E0.05
G1 X0.766 Y0.6428 Z0.008 E0.05
G1 X0.766 Y0.6428 Z0.0067 E0.05
G1 X0.766 Y0.6428 Z0.0053 E0.05
G1 X0.766 Y0.6428 Z0.004 E0.05
G1 X0.766 Y0.6428 Z0.0027 E0.05
G1 X0.766 Y0.6428 Z0.0013 E0.05
G1 X0.766 Y0.6428 Z0.0 E0.05
G1 X0.766 Y0.6428 Z-0.0013 E0.05
G1 X0.766 Y0.6428 Z-0.0027 E0.05
G1 X0.766 Y0.6428 Z-0.004 E0.05
G1 X0.766 Y0.6428 Z-0.0053 E0.05
G1 X0.766 Y0.6428 Z-0.0067 E0.05
G1 X0.766 Y0.6428 Z-0.008 E0.05
G1 X0.766 Y0.6428 Z-0.0093 E0.05
G1 X0.766 Y0.6428 Z-0.0107 E0.05
G1 X0.766 Y0.6428 Z-0.012 E0.05
G1 X0.766 Y0.6428 Z-0.0133 E0.05
G1 X1.0 Y0.0 Z0.02 E0.05
G1 X1.0 Y0.0 Z0.018 E0.05
G1 X1.0 Y0.0 Z0.016 E0.05
G1 X1.0 Y0.0 Z0.014 E0.05
G1 X1.0 Y0.0 Z0.012 E0.05
G1 X1.0 Y0.0 Z0.01 E0.05
G1 X1.0 Y0.0 Z0.008 E0.05
G1 X1.0 Y0.0 Z0.006 E0.05
G1 X1.0 Y0.0 Z0.004 E0.05
G1 X1.0 Y0.0 Z0.002 E0.05
G1 X1.0 Y0.0 Z0.0 E0.05
G1 X1.0 Y0.0 Z-0.002 E0.05
G1 X1.0 Y0.0 Z-0.004 E0.05
G1 X1.0 Y0.0 Z-0.006 E0.05
G1 X1.0 Y0.0 Z-0.008 E0.05
G1 X1.0 Y0.0 Z-0.01 E0.05
G1 X1.0 Y0.0 Z-0.012 E0.05
G1 X1.0 Y0.0 Z-0.014 E0.05
G1 X1.0 Y0.0 Z-0.016 E0.05
G1 X1.0 Y0.0 Z-0.018 E0.05
G1 X1.0 Y0.0 Z-0.02 E0.05
G1 X0.766 Y-0.6428 Z0.02 E0.05
G1 X0.766 Y-0.6428 Z0.018 E0.05
G1 X0.766 Y-0.6428 Z0.016 E0.05
G1 X0.766 Y-0.6428 Z0.014 E0.05
G1 X0.766 Y-0.6428 Z0.012 E0.05
G1 X0.766 Y-0.6428 Z0.01 E0.05
G1 X0.766 Y-0.6428 Z0.008 E0.05
G1 X0.766 Y-0.6428 Z0.006 E0.05
G1 X0.766 Y-0.6428 Z0.004 E0.05
G1 X0.766 Y-0.6428 Z0.002 E0.05
G1 X0.766 Y-0.6428 Z0.0 E0.05
G1 X0.766 Y-0.6428 Z-0.002 E0.05
G1 X0.766 Y-0.6428 Z-0.004 E0.05
G1 X0.766 Y-0.6428 Z-0.006 E0.05
G1 X0.766 Y-0.6428 Z-0.008 E0.05
G1 X0.766 Y-0.6428 Z-0.01 E0.05
G1 X0.766 Y-0.6428 Z-0.012 E0.05
G1 X0.766 Y-0.6428 Z-0.014 E0.05
G1 X0.766 Y-0.6428 Z-0.016 E0.05
G1 X0.766 Y-0.6428 Z-0.018 E0.05
G1 X0.766 Y-0.6428 Z-0.02 E0.05
G1 X0.1736 Y-0.9848 Z0.02 E0.05
G1 X0.1736 Y-0.9848 Z0.018 E0.05
G1 X0.1736 Y-0.9848 Z0.016 E0.05
G1 X0.1736 Y-0.9848 Z0.014 E0.05
G1 X0.1736 Y-0.9848 Z0.012 E0.05
G1 X0.1736 Y-0.9848 Z0.01 E0.05
G1 X0.1736 Y-0.9848 Z0.008 E0.05
G1 X0.1736 Y-0.9848 Z0.006 E0.05
G1 X0.1736 Y-0.9848 Z0.004 E0.05
G1 X0.1736 Y-0.9848 Z0.002 E0.05
G1 X0.1736 Y-0.9848 Z0.0 E0.05
G1 X0.1736 Y-0.9848 Z-0.002 E0.05
G1 X0.1736 Y-0.9848 Z-0.004 E0.05
G1 X0.1736 Y-0.9848 Z-0.006 E0.05
G1 X0.1736 Y-0.9848 Z-0.008 E0.05
G1 X0.1736 Y-0.9848 Z-0.01 E0.05
G1 X0.1736 Y-0.9848 Z-0.012 E0.05
G1 X0.1736 Y-0.9848 Z-0.014 E0.05
G1 X0.1736 Y-0.9848 Z-0.016 E0.05
G1 X0.1736 Y-0.9848 Z-0.018 E0.05
G1 X0.1736 Y-0.9848 Z-0.02 E0.05
G1 X-0.5 Y-0.866 Z0.02 E0.05
G1 X-0.5 Y-0.866 Z0.018 E0.05
G1 X-0.5 Y-0.866 Z0.016 E0.05
G1 X-0.5 Y-0.866 Z0.014 E0.05
G1 X-0.5 Y-0.866 Z0.012 E0.05
G1 X-0.5 Y-0.866 Z0.01 E0.05
G1 X-0.5 Y-0.866 Z0.008 E0.05
G1 X-0.5 Y-0.866 Z0.006 E0.05
G1 X-0.5 Y-0.866 Z0.004 E0.05
G1 X-0.5 Y-0.866 Z0.002 E0.05
G1 X-0.5 Y-0.866 Z0.0 E0.05
G1 X-0.5 Y-0.866 Z-0.002 E0.05
G1 X-0.5 Y-0.866 Z-0.004 E0.05
G1 X-0.5 Y-0.866 Z-0.006 E0.05
G1 X-0.5 Y-0.866 Z-0.008 E0.05
G1 X-0.5 Y-0.866 Z-0.01 E0.05
G1 X-0.5 Y-0.866 Z-0.012 E0.05
G1 X-0.5 Y-0.866 Z-0.014 E0.05
G1 X-0.5 Y-0.866 Z-0.016 E0.05
G1 X-0.5 Y-0.866 Z-0.018 E0.05
G1 X-0.5 Y-0.866 Z-0.02 E0.05
G1 X-0.9397 Y-0.342 Z0.02 E0.05
G1 X-0.9397 Y-0.342 Z0.018 E0.05
G1 X-0.9397 Y-0.342 Z0.016 E0.05
G1 X-0.9397 Y-0.342 Z0.014 E0.05
G1 X-0.9397 Y-0.342 Z0.012 E0.05
G1 X-0.9397 Y-0.342 Z0.01 E0.05
G1 X-0.9397 Y-0.342 Z0.008 E0.05
G1 X-0.9397 Y-0.342 Z0.006 E0.05
G1 X-0.9397 Y-0.342 Z0.004 E0.05
G1 X-0.9397 Y-0.342 Z0.002 E0.05
G1 X-0.9397 Y-0.342 Z0.0 E0.05
G1 X-0.9397 Y-0.342 Z-0.002 E0.05
G1 X-0.9397 Y-0.342 Z-0.004 E0.05
G1 X-0.9397 Y-0.342 Z-0.006 E0.05
G1 X-0.9397 Y-0.342 Z-0.008 E0.05
G1 X-0.9397 Y-0.342 Z-0.01 E0.05
G1 X-0.9397 Y-0.342 Z-0.012 E0.05
G1 X-0.9397 Y-0.342 Z-0.014 E0.05
G1 X-0.9397 Y-0.342 Z-0.016 E0.05
G1 X-0.9397 Y-0.342 Z-0.018 E0.05
G1 X-0.9397 Y-0.342 Z-0.02 E0.05
G1 X-0.9397 Y0.342 Z0.02 E0.05
G1 X-0.9397 Y0.342 Z0.018 E0.05
G1 X-0.9397 Y0.342 Z0.016 E0.05
G1 X-0.9397 Y0.342 Z0.014 E0.05
G1 X-0.9397 Y0.342 Z0.012 E0.05
G1 X-0.9397 Y0.342 Z0.01 E0.05
G1 X-0.9397 Y0.342 Z0.008 E0.05
G1 X-0.9397 Y0.342 Z0.006 E0.05
G1 X-0.9397 Y0.342 Z0.004 E0.05
G1 X-0.9397 Y0.342 Z0.002 E0.05
G1 X-0.9397 Y0.342 Z0.0 E0.05
G1 X-0.9397 Y0.342 Z-0.002 E0.05
G1 X-0.9397 Y0.342 Z-0.004 E0.05
G1 X-0.9397 Y0.342 Z-0.006 E0.05
G1 X-0.9397 Y0.342 Z-0.008 E0.05
G1 X-0.9397 Y0.342 Z-0.01 E0.05
G1 X-0.9397 Y0.342 Z-0.012 E0.05
G1 X-0.9397 Y0.342 Z-0.014 E0.05
G1 X-0.9397 Y0.342 Z-0.016 E0.05
G1 X-0.9397 Y0.342 Z-0.018 E0.05
G1 X-0.9397 Y0.342 Z-0.02 E0.05
G1 X-0.5 Y0.866 Z0.02 E0.05
G1 X-0.5 Y0.866 Z0.018 E0.05
G1 X-0.5 Y0.866 Z0.016 E0.05
G1 X-0.5 Y0.866 Z0.014 E0.05
G1 X-0.5 Y0.866 Z0.012 E0.05
G1 X-0.5 Y0.866 Z0.01 E0.05
G1 X-0.5 Y0.866 Z0.008 E0.05
G1 X-0.5 Y0.866 Z0.006 E0.05
G1 X-0.5 Y0.866 Z0.004 E0.05
G1 X-0.5 Y0.866 Z0.002 E0.05
G1 X-0.5 Y0.866 Z0.0 E0.05
G1 X-0.5 Y0.866 Z-0.002 E0.05
G1 X-0.5 Y0.866 Z-0.004 E0.05
G1 X-0.5 Y0.866 Z-0.006 E0.05
G1 X-0.5 Y0.866 Z-0.008 E0.05
G1 X-0.5 Y0.866 Z-0.01 E0.05
G1 X-0.5 Y0.866 Z-0.012 E0.05
G1 X-0.5 Y0.866 Z-0.014 E0.05
G1 X-0.5 Y0.866 Z-0.016 E0.05
G1 X-0.5 Y0.866 Z-0.018 E0.05
G1 X-0.5 Y0.866 Z-0.02 E0.05
G1 X0.1736 Y0.9848 Z0.02 E0.05
G1 X0.1736 Y0.9848 Z0.018 E0.05
G1 X0.1736 Y0.9848 Z0.016 E0.05
G1 X0.1736 Y0.9848 Z0.014 E0.05
G1 X0.1736 Y0.9848 Z0.012 E0.05
G1 X0.1736 Y0.9848 Z0.01 E0.05
G1 X0.1736 Y0.9848 Z0.008 E0.05
G1 X0.1736 Y0.9848 Z0.006 E0.05
G1 X0.1736 Y0.9848 Z0.004 E0.05
G1 X0.1736 Y0.9848 Z0.002 E0.05
G1 X0.1736 Y0.9848 Z0.0 E0.05
G1 X0.1736 Y0.9848 Z-0.002 E0.05
G1 X0.1736 Y0.9848 Z-0.004 E0.05
G1 X0.1736 Y0.9848 Z-0.006 E0.05
G1 X0.1736 Y0.9848 Z-0.008 E0.05
G1 X0.1736 Y0.9848 Z-0.01 E0.05
G1 X0.1736 Y0.9848 Z-0.012 E0.05
G1 X0.1736 Y0.9848 Z-0.014 E0.05
G1 X0.1736 Y0.9848 Z-0.016 E0.05
G1 X0.1736 Y0.9848 Z-0.018 E0.05
G1 X0.1736 Y0.9848 Z-0.02 E0.05
G1 X0.766 Y0.6428 Z0.02 E0.05
G1 X0.766 Y0.6428 Z0.018 E0.05
G1 X0.766 Y0.6428 Z0.016 E0.05
G1 X0.766 Y0.6428 Z0.014 E0.05
G1 X0.766 Y0.6428 Z0.012 E0.05
G1 X0.766 Y0.6428 Z0.01 E0.05
G1 X0.766 Y0.6428 Z0.008 E0.05
G1 X0.766 Y0.6428 Z0.006 E0.05
G1 X0.766 Y0.6428 Z0.004 E0.05
G1 X0.766 Y0.6428 Z0.002 E0.05
G1 X0.766 Y0.6428 Z0.0 E0.05
G1 X0.766 Y0.6428 Z-0.002 E0.05
G1 X0.766 Y0.6428 Z-0.004 E0.05
G1 X0.766 Y0.6428 Z-0.006 E0.05
G1 X0.766 Y0.6428 Z-0.008 E0.05
G1 X0.766 Y0.6428 Z-0.01 E0.05
G1 X0.766 Y0.6428 Z-0.012 E0.05
G1 X0.766 Y0.6428 Z-0.014 E0.05
G1 X0.766 Y0.6428 Z-0.016 E0.05
G1 X0.766 Y0.6428 Z-0.018 E0.05
G1 X0.766 Y0.6428 Z-0.02 E0.05
G1 X1.0 Y0.0 Z0.0267 E0.05
G1 X1.0 Y0.0 Z0.024 E0.05
G1 X1.0 Y0.0 Z0.0213 E0.05
G1 X1.0 Y0.0 Z0.0187 E0.05
G1 X1.0 Y0.0 Z0.016 E0.05
G1 X1.0 Y0.0 Z0.0133 E0.05
G1 X1.0 Y0.0 Z0.0107 E0.05
G1 X1.0 Y0.0 Z0.008 E0.05
G1 X1.0 Y0.0 Z0.0053 E0.05
G1 X1.0 Y0.0 Z0.0027 E0.05
G1 X1.0 Y0.0 Z0.0 E0.05
G1 X1.0 Y0.0 Z-0.0027 E0.05
G1 X1.0 Y0.0 Z-0.0053 E0.05
G1 X1.0 Y0.0 Z-0.008 E0.05
G1 X1.0 Y0.0 Z-0.0107 E0.05
G1 X1.0 Y0.0 Z-0.0133 E0.05
G1 X1.0 Y0.0 Z-0.016 E0.05
G1 X1.0 Y0.0 Z-0.0187 E0.05
G1 X1.0 Y0.0 Z-0.0213 E0.05
G1 X1.0 Y0.0 Z-0.024 E0.05
G1 X1.0 Y0.0 Z-0.0267 E0.05
G1 X0.766 Y-0.6428 Z0.0267 E0.05
G1 X0.766 Y-0.6428 Z0.024 E0.05
G1 X0.766 Y-0.6428 Z0.0213 E0.05
G1 X0.766 Y-0.6428 Z0.0187 E0.05
G1 X0.766 Y-0.6428 Z0.016 E0.05
G1 X0.766 Y-0.6428 Z0.0133 E0.05
G1 X0.766 Y-0.6428 Z0.0107 E0.05
G1 X0.766 Y-0.6428 Z0.008 E0.05
G1 X0.766 Y-0.6428 Z0.0053 E0.05
G1 X0.766 Y-0.6428 Z0.0027 E0.05
G1 X0.766 Y-0.6428 Z0.0 E0.05
G1 X0.766 Y-0.6428 Z-0.0027 E0.05
G1 X0.766 Y-0.6428 Z-0.0053 E0.05
G1 X0.766 Y-0.6428 Z-0.008 E0.05
G1 X0.766 Y-0.6428 Z-0.0107 E0.05
G1 X0.766 Y-0.6428 Z-0.0133 E0.05
G1 X0.766 Y-0.6428 Z-0.016 E0.05
G1 X0.766 Y-0.6428 Z-0.0187 E0.05
G1 X0.766 Y-0.6428 Z-0.0213 E0.05
G1 X0.766 Y-0.6428 Z-0.024 E0.05
G1 X0.766 Y-0.6428 Z-0.0267 E0.05
G1 X0.1736 Y-0.9848 Z0.0267 E0.05
G1 X0.1736 Y-0.9848 Z0.024 E0.05
G1 X0.1736 Y-0.9848 Z0.0213 E0.05
G1 X0.1736 Y-0.9848 Z0.0187 E0.05
G1 X0.1736 Y-0.9848 Z0.016 E0.05
G1 X0.1736 Y-0.9848 Z0.0133 E0.05
G1 X0.1736 Y-0.9848 Z0.0107 E0.05
G1 X0.1736 Y-0.9848 Z0.008 E0.05
G1 X0.1736 Y-0.9848 Z0.0053 E0.05
G1 X0.1736 Y-0.9848 Z0.0027 E0.05
G1 X0.1736 Y-0.9848 Z0.0 E0.05
G1 X0.1736 Y-0.9848 Z-0.0027 E0.05
G1 X0.1736 Y-0.9848 Z-0.0053 E0.05
G1 X0.1736 Y-0.9848 Z-0.008 E0.05
G1 X0.1736 Y-0.9848 Z-0.0107 E0.05
G1 X0.1736 Y-0.9848 Z-0.0133 E0.05
G1 X0.1736 Y-0.9848 Z-0.016 E0.05
G1 X0.1736 Y-0.9848 Z-0.0187 E0.05
G1 X0.1736 Y-0.9848 Z-0.0213 E0.05
G1 X0.1736 Y-0.9848 Z-0.024 E0.05
G1 X0.1736 Y-0.9848 Z-0.0267 E0.05
G1 X-0.5 Y-0.866 Z0.0267 E0.05
G1 X-0.5 Y-0.866 Z0.024 E0.05
G1 X-0.5 Y-0.866 Z0.0213 E0.05
G1 X-0.5 Y-0.866 Z0.0187 E0.05
G1 X-0.5 Y-0.866 Z0.016 E0.05
G1 X-0.5 Y-0.866 Z0.0133 E0.05
G1 X-0.5 Y-0.866 Z0.0107 E0.05
G1 X-0.5 Y-0.866 Z0.008 E0.05
G1 X-0.5 Y-0.866 Z0.0053 E0.05
G1 X-0.5 Y-0.866 Z0.0027 E0.05
G1 X-0.5 Y-0.866 Z0.0 E0.05
G1 X-0.5 Y-0.866 Z-0.0027 E0.05
G1 X-0.5 Y-0.866 Z-0.0053 E0.05
G1 X-0.5 Y-0.866 Z-0.008 E0.05
G1 X-0.5 Y-0.866 Z-0.0107 E0.05
G1 X-0.5 Y-0.866 Z-0.0133 E0.05
G1 X-0.5 Y-0.866 Z-0.016 E0.05
G1 X-0.5 Y-0.866 Z-0.0187 E0.05
G1 X-0.5 Y-0.866 Z-0.0213 E0.05
G1 X-0.5 Y-0.866 Z-0.024 E0.05
G1 X-0.5 Y-0.866 Z-0.0267 E0.05
G1 X-0.9397 Y-0.342 Z0.0267 E0.05
G1 X-0.9397 Y-0.342 Z0.024 E0.05
G1 X-0.9397 Y-0.342 Z0.0213 E0.05
G1 X-0.9397 Y-0.342 Z0.0187 E0.05
G1 X-0.9397 Y-0.342 Z0.016 E0.05
G1 X-0.9397 Y-0.342 Z0.0133 E0.05
G1 X-0.9397 Y-0.342 Z0.0107 E0.05
G1 X-0.9397 Y-0.342 Z0.008 E0.05
G1 X-0.9397 Y-0.342 Z0.0053 E0.05
G1 X-0.9397 Y-0.342 Z0.0027 E0.05
G1 X-0.9397 Y-0.342 Z0.0 E0.05
G1 X-0.9397 Y-0.342 Z-0.0027 E0.05
G1 X-0.9397 Y-0.342 Z-0.0053 E0.05
G1 X-0.9397 Y-0.342 Z-0.008 E0.05
G1 X-0.9397 Y-0.342 Z-0.0107 E0.05
G1 X-0.9397 Y-0.342 Z-0.0133 E0.05
G1 X-0.9397 Y-0.342 Z-0.016 E0.05
G1 X-0.9397 Y-0.342 Z-0.0187 E0.05
G1 X-0.9397 Y-0.342 Z-0.0213 E0.05
G1 X-0.9397 Y-0.342 Z-0.024 E0.05
G1 X-0.9397 Y-0.342 Z-0.0267 E0.05
G1 X-0.9397 Y0.342 Z0.0267 E0.05
G1 X-0.9397 Y0.342 Z0.024 E0.05
G1 X-0.9397 Y0.342 Z0.0213 E0.05
G1 X-0.9397 Y0.342 Z0.0187 E0.05
G1 X-0.9397 Y0.342 Z0.016 E0.05
G1 X-0.9397 Y0.342 Z0.0133 E0.05
G1 X-0.9397 Y0.342 Z0.0107 E0.05
G1 X-0.9397 Y0.342 Z0.008 E0.05
G1 X-0.9397 Y0.342 Z0.0053 E0.05
G1 X-0.9397 Y0.342 Z0.0027 E0.05
G1 X-0.9397 Y0.342 Z0.0 E0.05
G1 X-0.9397 Y0.342 Z-0.0027 E0.05
G1 X-0.9397 Y0.342 Z-0.0053 E0.05
G1 X-0.9397 Y0.342 Z-0.008 E0.05
G1 X-0.9397 Y0.342 Z-0.0107 E0.05
G1 X-0.9397 Y0.342 Z-0.0133 E0.05
G1 X-0.9397 Y0.342 Z-0.016 E0.05
G1 X-0.9397 Y0.342 Z-0.0187 E0.05
G1 X-0.9397 Y0.342 Z-0.0213 E0.05
G1 X-0.9397 Y0.342 Z-0.024 E0.05
G1 X-0.9397 Y0.342 Z-0.0267 E0.05
G1 X-0.5 Y0.866 Z0.0267 E0.05
G1 X-0.5 Y0.866 Z0.024 E0.05
G1 X-0.5 Y0.866 Z0.0213 E0.05
G1 X-0.5 Y0.866 Z0.0187 E0.05
G1 X-0.5 Y0.866 Z0.016 E0.05
G1 X-0.5 Y0.866 Z0.0133 E0.05
G1 X-0.5 Y0.866 Z0.0107 E0.05
G1 X-0.5 Y0.866 Z0.008 E0.05
G1 X-0.5 Y0.866 Z0.0053 E0.05
G1 X-0.5 Y0.866 Z0.0027 E0.05
G1 X-0.5 Y0.866 Z0.0 E0.05
G1 X-0.5 Y0.866 Z-0.0027 E0.05
G1 X-0.5 Y0.866 Z-0.0053 E0.05
G1 X-0.5 Y0.866 Z-0.008 E0.05
G1 X-0.5 Y0.866 Z-0.0107 E0.05
G1 X-0.5 Y0.866 Z-0.0133 E0.05
G1 X-0.5 Y0.866 Z-0.016 E0.05
G1 X-0.5 Y0.866 Z-0.0187 E0.05
G1 X-0.5 Y0.866 Z-0.0213 E0.05
G1 X-0.5 Y0.866 Z-0.024 E0.05
G1 X-0.5 Y0.866 Z-0.0267 E0.05
G1 X0.1736 Y0.9848 Z0.0267 E0.05
G1 X0.1736 Y0.9848 Z0.024 E0.05
G1 X0.1736 Y0.9848 Z0.0213 E0.05
G1 X0.1736 Y0.9848 Z0.0187 E0.05
G1 X0.1736 Y0.9848 Z0.016 E0.05
G1 X0.1736 Y0.9848 Z0.0133 E0.05
G1 X0.1736 Y0.9848 Z0.0107 E0.05
G1 X0.1736 Y0.9848 Z0.008 E0.05
G1 X0.1736 Y0.9848 Z0.0053 E0.05
G1 X0.1736 Y0.9848 Z0.0027 E0.05
G1 X0.1736 Y0.9848 Z0.0 E0.05
G1 X0.1736 Y0.9848 Z-0.0027 E0.05
G1 X0.1736 Y0.9848 Z-0.0053 E0.05
G1 X0.1736 Y0.9848 Z-0.008 E0.05
G1 X0.1736 Y0.9848 Z-0.0107 E0.05
G1 X0.1736 Y0.9848 Z-0.0133 E0.05
G1 X0.1736 Y0.9848 Z-0.016 E0.05
G1 X0.1736 Y0.9848 Z-0.0187 E0.05
G1 X0.1736 Y0.9848 Z-0.0213 E0.05
G1 X0.1736 Y0.9848 Z-0.024 E0.05
G1 X0.1736 Y0.9848 Z-0.0267 E0.05
G1 X0.766 Y0.6428 Z0.0267 E0.05
G1 X0.766 Y0.6428 Z0.024 E0.05
G1 X0.766 Y0.6428 Z0.0213 E0.05
G1 X0.766 Y0.6428 Z0.0187 E0.05
G1 X0.766 Y0.6428 Z0.016 E0.05
G1 X0.766 Y0.6428 Z0.0133 E0.05
G1 X0.766 Y0.6428 Z0.0107 E0.05
G1 X0.766 Y0.6428 Z0.008 E0.05
G1 X0.766 Y0.6428 Z0.0053 E0.05
G1 X0.766 Y0.6428 Z0.0027 E0.05
G1 X0.766 Y0.6428 Z0.0 E0.05
G1 X0.766 Y0.6428 Z-0.0027 E0.05
G1 X0.766 Y0.6428 Z-0.0053 E0.05
G1 X0.766 Y0.6428 Z-0.008 E0.05
G1 X0.766 Y0.6428 Z-0.0107 E0.05
G1 X0.766 Y0.6428 Z-0.0133 E0.05
G1 X0.766 Y0.6428 Z-0.016 E0.05
G1 X0.766 Y0.6428 Z-0.0187 E0.05
G1 X0.766 Y0.6428 Z-0.0213 E0.05
G1 X0.766 Y0.6428 Z-0.024 E0.05
G1 X0.766 Y0.6428 Z-0.0267 E0.05
G1 X1.0 Y0.0 Z0.0333 E0.05
G1 X1.0 Y0.0 Z0.03 E0.05
G1 X1.0 Y0.0 Z0.0267 E0.05
G1 X1.0 Y0.0 Z0.0233 E0.05
G1 X1.0 Y0.0 Z0.02 E0.05
G1 X1.0 Y0.0 Z0.0167 E0.05
G1 X1.0 Y0.0 Z0.0133 E0.05
G1 X1.0 Y0.0 Z0.01 E0.05
G1 X1.0 Y0.0 Z0.0067 E0.05
G1 X1.0 Y0.0 Z0.0033 E0.05
G1 X1.0 Y0.0 Z0.0 E0.05
G1 X1.0 Y0.0 Z-0.0033 E0.05
G1 X1.0 Y0.0 Z-0.0067 E0.05
G1 X1.0 Y0.0 Z-0.01 E0.05
G1 X1.0 Y0.0 Z-0.0133 E0.05
G1 X1.0 Y0.0 Z-0.0167 E0.05
G1 X1.0 Y0.0 Z-0.02 E0.05
G1 X1.0 Y0.0 Z-0.0233 E0.05
G1 X1.0 Y0.0 Z-0.0267 E0.05
G1 X1.0 Y0.0 Z-0.03 E0.05
G1 X1.0 Y0.0 Z-0.0333 E0.05
G1 X0.766 Y-0.6428 Z0.0333 E0.05
G1 X0.766 Y-0.6428 Z0.03 E0.05
G1 X0.766 Y-0.6428 Z0.0267 E0.05
G1 X0.766 Y-0.6428 Z0.0233 E0.05
G1 X0.766 Y-0.6428 Z0.02 E0.05
G1 X0.766 Y-0.6428 Z0.0167 E0.05
G1 X0.766 Y-0.6428 Z0.0133 E0.05
G1 X0.766 Y-0.6428 Z0.01 E0.05
G1 X0.766 Y-0.6428 Z0.0067 E0.05
G1 X0.766 Y-0.6428 Z0.0033 E0.05
G1 X0.766 Y-0.6428 Z0.0 E0.05
G1 X0.766 Y-0.6428 Z-0.0033 E0.05
G1 X0.766 Y-0.6428 Z-0.0067 E0.05
G1 X0.766 Y-0.6428 Z-0.01 E0.05
G1 X0.766 Y-0.6428 Z-0.0133 E0.05
G1 X0.766 Y-0.6428 Z-0.0167 E0.05
G1 X0.766 Y-0.6428 Z-0.02 E0.05
G1 X0.766 Y-0.6428 Z-0.0233 E0.05
G1 X0.766 Y-0.6428 Z-0.0267 E0.05
G1 X0.766 Y-0.6428 Z-0.03 E0.05
G1 X0.766 Y-0.6428 Z-0.0333 E0.05
G1 X0.1736 Y-0.9848 Z0.0333 E0.05
G1 X0.1736 Y-0.9848 Z0.03 E0.05
G1 X0.1736 Y-0.9848 Z0.0267 E0.05
G1 X0.1736 Y-0.9848 Z0.0233 E0.05
G1 X0.1736 Y-0.9848 Z0.02 E0.05
G1 X0.1736 Y-0.9848 Z0.0167 E0.05
G1 X0.1736 Y-0.9848 Z0.0133 E0.05
G1 X0.1736 Y-0.9848 Z0.01 E0.05
G1 X0.1736 Y-0.9848 Z0.0067 E0.05
G1 X0.1736 Y-0.9848 Z0.0033 E0.05
G1 X0.1736 Y-0.9848 Z0.0 E0.05
G1 X0.1736 Y-0.9848 Z-0.0033 E0.05
G1 X0.1736 Y-0.9848 Z-0.0067 E0.05
G1 X0.1736 Y-0.9848 Z-0.01 E0.05
G1 X0.1736 Y-0.9848 Z-0.0133 E0.05
G1 X0.1736 Y-0.9848 Z-0.0167 E0.05
G1 X0.1736 Y-0.9848 Z-0.02 E0.05
G1 X0.1736 Y-0.9848 Z-0.0233 E0.05
G1 X0.1736 Y-0.9848 Z-0.0267 E0.05
G1 X0.1736 Y-0.9848 Z-0.03 E0.05
G1 X0.1736 Y-0.9848 Z-0.0333 E0.05
G1 X-0.5 Y-0.866 Z0.0333 E0.05
G1 X-0.5 Y-0.866 Z0.03 E0.05
G1 X-0.5 Y-0.866 Z0.0267 E0.05
G1 X-0.5 Y-0.866 Z0.0233 E0.05
G1 X-0.5 Y-0.866 Z0.02 E0.05
G1 X-0.5 Y-0.866 Z0.0167 E0.05
G1 X-0.5 Y-0.866 Z0.0133 E0.05
G1 X-0.5 Y-0.866 Z0.01 E0.05
G1 X-0.5 Y-0.866 Z0.0067 E0.05
G1 X-0.5 Y-0.866 Z0.0033 E0.05
G1 X-0.5 Y-0.866 Z0.0 E0.05
G1 X-0.5 Y-0.866 Z-0.0033 E0.05
G1 X-0.5 Y-0.866 Z-0.0067 E0.05
G1 X-0.5 Y-0.866 Z-0.01 E0.05
G1 X-0.5 Y-0.866 Z-0.0133 E0.05
G1 X-0.5 Y-0.866 Z-0.0167 E0.05
G1 X-0.5 Y-0.866 Z-0.02 E0.05
G1 X-0.5 Y-0.866 Z-0.0233 E0.05
G1 X-0.5 Y-0.866 Z-0.0267 E0.05
G1 X-0.5 Y-0.866 Z-0.03 E0.05
G1 X-0.5 Y-0.866 Z-0.0333 E0.05
G1 X-0.9397 Y-0.342 Z0.0333 E0.05
G1 X-0.9397 Y-0.342 Z0.03 E0.05
G1 X-0.9397 Y-0.342 Z0.0267 E0.05
G1 X-0.9397 Y-0.342 Z0.0233 E0.05
G1 X-0.9397 Y-0.342 Z0.02 E0.05
G1 X-0.9397 Y-0.342 Z0.0167 E0.05
G1 X-0.9397 Y-0.342 Z0.0133 E0.05
G1 X-0.9397 Y-0.342 Z0.01 E0.05
G1 X-0.9397 Y-0.342 Z0.0067 E0.05
G1 X-0.9397 Y-0.342 Z0.0033 E0.05
G1 X-0.9397 Y-0.342 Z0.0 E0.05
G1 X-0.9397 Y-0.342 Z-0.0033 E0.05
G1 X-0.9397 Y-0.342 Z-0.0067 E0.05
G1 X-0.9397 Y-0.342 Z-0.01 E0.05
G1 X-0.9397 Y-0.342 Z-0.0133 E0.05
G1 X-0.9397 Y-0.342 Z-0.0167 E0.05
G1 X-0.9397 Y-0.342 Z-0.02 E0.05
G1 X-0.9397 Y-0.342 Z-0.0233 E0.05
G1 X-0.9397 Y-0.342 Z-0.0267 E0.05
G1 X-0.9397 Y-0.342 Z-0.03 E0.05
G1 X-0.9397 Y-0.342 Z-0.0333 E0.05
G1 X-0.9397 Y0.342 Z0.0333 E0.05
G1 X-0.9397 Y0.342 Z0.03 E0.05
G1 X-0.9397 Y0.342 Z0.0267 E0.05
G1 X-0.9397 Y0.342 Z0.0233 E0.05
G1 X-0.9397 Y0.342 Z0.02 E0.05
G1 X-0.9397 Y0.342 Z0.0167 E0.05
G1 X-0.9397 Y0.342 Z0.0133 E0.05
G1 X-0.9397 Y0.342 Z0.01 E0.05
G1 X-0.9397 Y0.342 Z0.0067 E0.05
G1 X-0.9397 Y0.342 Z0.0033 E0.05
G1 X-0.9397 Y0.342 Z0.0 E0.05
G1 X-0.9397 Y0.342 Z-0.0033 E0.05
G1 X-0.9397 Y0.342 Z-0.0067 E0.05
G1 X-0.9397 Y0.342 Z-0.01 E0.05
G1 X-0.9397 Y0.342 Z-0.0133 E0.05
G1 X-0.9397 Y0.342 Z-0.0167 E0.05
G1 X-0.9397 Y0.342 Z-0.02 E0.05
G1 X-0.9397 Y0.342 Z-0.0233 E0.05
G1 X-0.9397 Y0.342 Z-0.0267 E0.05
G1 X-0.9397 Y0.342 Z-0.03 E0.05
G1 X-0.9397 Y0.342 Z-0.0333 E0.05
G1 X-0.5 Y0.866 Z0.0333 E0.05
G1 X-0.5 Y0.866 Z0.03 E0.05
G1 X-0.5 Y0.866 Z0.0267 E0.05
G1 X-0.5 Y0.866 Z0.0233 E0.05
G1 X-0.5 Y0.866 Z0.02 E0.05
G1 X-0.5 Y0.866 Z0.0167 E0.05
G1 X-0.5 Y0.866 Z0.0133 E0.05
G1 X-0.5 Y0.866 Z0.01 E0.05
G1 X-0.5 Y0.866 Z0.0067 E0.05
G1 X-0.5 Y0.866 Z0.0033 E0.05
G1 X-0.5 Y0.866 Z0.0 E0.05
G1 X-0.5 Y0.866 Z-0.0033 E0.05
G1 X-0.5 Y0.866 Z-0.0067 E0.05
G1 X-0.5 Y0.866 Z-0.01 E0.05
G1 X-0.5 Y0.866 Z-0.0133 E0.05
G1 X-0.5 Y0.866 Z-0.0167 E0.05
G1 X-0.5 Y0.866 Z-0.02 E0.05
G1 X-0.5 Y0.866 Z-0.0233 E0.05
G1 X-0.5 Y0.866 Z-0.0267 E0.05
G1 X-0.5 Y0.866 Z-0.03 E0.05
G1 X-0.5 Y0.866 Z-0.0333 E0.05
G1 X0.1736 Y0.9848 Z0.0333 E0.05
G1 X0.1736 Y0.9848 Z0.03 E0.05
G1 X0.1736 Y0.9848 Z0.0267 E0.05
G1 X0.1736 Y0.9848 Z0.0233 E0.05
G1 X0.1736 Y0.9848 Z0.02 E0.05
G1 X0.1736 Y0.9848 Z0.0167 E0.05
G1 X0.1736 Y0.9848 Z0.0133 E0.05
G1 X0.1736 Y0.9848 Z0.01 E0.05
G1 X0.1736 Y0.9848 Z0.0067 E0.05
G1 X0.1736 Y0.9848 Z0.0033 E0.05
G1 X0.1736 Y0.9848 Z0.0 E0.05
G1 X0.1736 Y0.9848 Z-0.0033 E0.05
G1 X0.1736 Y0.9848 Z-0.0067 E0.05
G1 X0.1736 Y0.9848 Z-0.01 E0.05
G1 X0.1736 Y0.9848 Z-0.0133 E0.05
G1 X0.1736 Y0.9848 Z-0.0167 E0.05
G1 X0.1736 Y0.9848 Z-0.02 E0.05
G1 X0.1736 Y0.9848 Z-0.0233 E0.05
G1 X0.1736 Y0.9848 Z-0.0267 E0.05
G1 X0.1736 Y0.9848 Z-0.03 E0.05
G1 X0.1736 Y0.9848 Z-0.0333 E0.05
G1 X0.766 Y0.6428 Z0.0333 E0.05
G1 X0.766 Y0.6428 Z0.03 E0.05
G1 X0.766 Y0.6428 Z0.0267 E0.05
G1 X0.766 Y0.6428 Z0.0233 E0.05
G1 X0.766 Y0.6428 Z0.02 E0.05
G1 X0.766 Y0.6428 Z0.0167 E0.05
G1 X0.766 Y0.6428 Z0.0133 E0.05
G1 X0.766 Y0.6428 Z0.01 E0.05
G1 X0.766 Y0.6428 Z0.0067 E0.05
G1 X0.766 Y0.6428 Z0.0033 E0.05
G1 X0.766 Y0.6428 Z0.0 E0.05
G1 X0.766 Y0.6428 Z-0.0033 E0.05
G1 X0.766 Y0.6428 Z-0.0067 E0.05
G1 X0.766 Y0.6428 Z-0.01 E0.05
G1 X0.766 Y0.6428 Z-0.0133 E0.05
G1 X0.766 Y0.6428 Z-0.0167 E0.05
G1 X0.766 Y0.6428 Z-0.02 E0.05
G1 X0.766 Y0.6428 Z-0.0233 E0.05
G1 X0.766 Y0.6428 Z-0.0267 E0.05
G1 X0.766 Y0.6428 Z-0.03 E0.05
G1 X0.766 Y0.6428 Z-0.0333 E0.05
G1 X1.0 Y0.0 Z0.04 E0.05
G1 X1.0 Y0.0 Z0.036 E0.05
G1 X1.0 Y0.0 Z0.032 E0.05
G1 X1.0 Y0.0 Z0.028 E0.05
G1 X1.0 Y0.0 Z0.024 E0.05
G1 X1.0 Y0.0 Z0.02 E0.05
G1 X1.0 Y0.0 Z0.016 E0.05
G1 X1.0 Y0.0 Z0.012 E0.05
G1 X1.0 Y0.0 Z0.008 E0.05
G1 X1.0 Y0.0 Z0.004 E0.05
G1 X1.0 Y0.0 Z0.0 E0.05
G1 X1.0 Y0.0 Z-0.004 E0.05
G1 X1.0 Y0.0 Z-0.008 E0.05
G1 X1.0 Y0.0 Z-0.012 E0.05
G1 X1.0 Y0.0 Z-0.016 E0.05
G1 X1.0 Y0.0 Z-0.02 E0.05
G1 X1.0 Y0.0 Z-0.024 E0.05
G1 X1.0 Y0.0 Z-0.028 E0.05
G1 X1.0 Y0.0 Z-0.032 E0.05
G1 X1.0 Y0.0 Z-0.036 E0.05
G1 X1.0 Y0.0 Z-0.04 E0.05
G1 X0.766 Y-0.6428 Z0.04 E0.05
G1 X0.766 Y-0.6428 Z0.036 E0.05
G1 X0.766 Y-0.6428 Z0.032 E0.05
G1 X0.766 Y-0.6428 Z0.028 E0.05
G1 X0.766 Y-0.6428 Z0.024 E0.05
G1 X0.766 Y-0.6428 Z0.02 E0.05
G1 X0.766 Y-0.6428 Z0.016 E0.05
G1 X0.766 Y-0.6428 Z0.012 E0.05
G1 X0.766 Y-0.6428 Z0.008 E0.05
G1 X0.766 Y-0.6428 Z0.004 E0.05
G1 X0.766 Y-0.6428 Z0.0 E0.05
G1 X0.766 Y-0.6428 Z-0.004 E0.05
G1 X0.766 Y-0.6428 Z-0.008 E0.05
G1 X0.766 Y-0.6428 Z-0.012 E0.05
G1 X0.766 Y-0.6428 Z-0.016 E0.05
G1 X0.766 Y-0.6428 Z-0.02 E0.05
G1 X0.766 Y-0.6428 Z-0.024 E0.05
G1 X0.766 Y-0.6428 Z-0.028 E0.05
G1 X0.766 Y-0.6428 Z-0.032 E0.05
G1 X0.766 Y-0.6428 Z-0.036 E0.05
G1 X0.766 Y-0.6428 Z-0.04 E0.05
G1 X0.1736 Y-0.9848 Z0.04 E0.05
G1 X0.1736 Y-0.9848 Z0.036 E0.05
G1 X0.1736 Y-0.9848 Z0.032 E0.05
G1 X0.1736 Y-0.9848 Z0.028 E0.05
G1 X0.1736 Y-0.9848 Z0.024 E0.05
G1 X0.1736 Y-0.9848 Z0.02 E0.05
G1 X0.1736 Y-0.9848 Z0.016 E0.05
G1 X0.1736 Y-0.9848 Z0.012 E0.05
G1 X0.1736 Y-0.9848 Z0.008 E0.05
G1 X0.1736 Y-0.9848 Z0.004 E0.05
G1 X0.1736 Y-0.9848 Z0.0 E0.05
G1 X0.1736 Y-0.9848 Z-0.004 E0.05
G1 X0.1736 Y-0.9848 Z-0.008 E0.05
G1 X0.1736 Y-0.9848 Z-0.012 E0.05
G1 X0.1736 Y-0.9848 Z-0.016 E0.05
G1 X0.1736 Y-0.9848 Z-0.02 E0.05
G1 X0.1736 Y-0.9848 Z-0.024 E0.05
G1 X0.1736 Y-0.9848 Z-0.028 E0.05
G1 X0.1736 Y-0.9848 Z-0.032 E0.05
G1 X0.1736 Y-0.9848 Z-0.036 E0.05
G1 X0.1736 Y-0.9848 Z-0.04 E0.05
G1 X-0.5 Y-0.866 Z0.04 E0.05
G1 X-0.5 Y-0.866 Z0.036 E0.05
G1 X-0.5 Y-0.866 Z0.032 E0.05
G1 X-0.5 Y-0.866 Z0.028 E0.05
G1 X-0.5 Y-0.866 Z0.024 E0.05
G1 X-0.5 Y-0.866 Z0.02 E0.05
G1 X-0.5 Y-0.866 Z0.016 E0.05
G1 X-0.5 Y-0.866 Z0.012 E0.05
G1 X-0.5 Y-0.866 Z0.008 E0.05
G1 X-0.5 Y-0.866 Z0.004 E0.05
G1 X-0.5 Y-0.866 Z0.0 E0.05
G1 X-0.5 Y-0.866 Z-0.004 E0.05
G1 X-0.5 Y-0.866 Z-0.008 E0.05
G1 X-0.5 Y-0.866 Z-0.012 E0.05
G1 X-0.5 Y-0.866 Z-0.016 E0.05
G1 X-0.5 Y-0.866 Z-0.02 E0.05
G1 X-0.5 Y-0.866 Z-0.024 E0.05
G1 X-0.5 Y-0.866 Z-0.028 E0.05
G1 X-0.5 Y-0.866 Z-0.032 E0.05
G1 X-0.5 Y-0.866 Z-0.036 E0.05
G1 X-0.5 Y-0.866 Z-0.04 E0.05
G1 X-0.9397 Y-0.342 Z0.04 E0.05
G1 X-0.9397 Y-0.342 Z0.036 E0.05
G1 X-0.9397 Y-0.342 Z0.032 E0.05
G1 X-0.9397 Y-0.342 Z0.028 E0.05
G1 X-0.9397 Y-0.342 Z0.024 E0.05
G1 X-0.9397 Y-0.342 Z0.02 E0.05
G1 X-0.9397 Y-0.342 Z0.016 E0.05
G1 X-0.9397 Y-0.342 Z0.012 E0.05
G1 X-0.9397 Y-0.342 Z0.008 E0.05
G1 X-0.9397 Y-0.342 Z0.004 E0.05
G1 X-0.9397 Y-0.342 Z0.0 E0.05
G1 X-0.9397 Y-0.342 Z-0.004 E0.05
G1 X-0.9397 Y-0.342 Z-0.008 E0.05
G1 X-0.9397 Y-0.342 Z-0.012 E0.05
G1 X-0.9397 Y-0.342 Z-0.016 E0.05
G1 X-0.9397 Y-0.342 Z-0.02 E0.05
G1 X-0.9397 Y-0.342 Z-0.024 E0.05
G1 X-0.9397 Y-0.342 Z-0.028 E0.05
G1 X-0.9397 Y-0.342 Z-0.032 E0.05
G1 X-0.9397 Y-0.342 Z-0.036 E0.05
G1 X-0.9397 Y-0.342 Z-0.04 E0.05
G1 X-0.9397 Y0.342 Z0.04 E0.05
G1 X-0.9397 Y0.342 Z0.036 E0.05
G1 X-0.9397 Y0.342 Z0.032 E0.05
G1 X-0.9397 Y0.342 Z0.028 E0.05
G1 X-0.9397 Y0.342 Z0.024 E0.05
G1 X-0.9397 Y0.342 Z0.02 E0.05
G1 X-0.9397 Y0.342 Z0.016 E0.05
G1 X-0.9397 Y0.342 Z0.012 E0.05
G1 X-0.9397 Y0.342 Z0.008 E0.05
G1 X-0.9397 Y0.342 Z0.004 E0.05
G1 X-0.9397 Y0.342 Z0.0 E0.05
G1 X-0.9397 Y0.342 Z-0.004 E0.05
G1 X-0.9397 Y0.342 Z-0.008 E0.05
G1 X-0.9397 Y0.342 Z-0.012 E0.05
G1 X-0.9397 Y0.342 Z-0.016 E0.05
G1 X-0.9397 Y0.342 Z-0.02 E0.05
G1 X-0.9397 Y0.342 Z-0.024 E0.05
G1 X-0.9397 Y0.342 Z-0.028 E0.05
G1 X-0.9397 Y0.342 Z-0.032 E0.05
G1 X-0.9397 Y0.342 Z-0.036 E0.05
G1 X-0.9397 Y0.342 Z-0.04 E0.05
G1 X-0.5 Y0.866 Z0.04 E0.05
G1 X-0.5 Y0.866 Z0.036 E0.05
G1 X-0.5 Y0.866 Z0.032 E0.05
G1 X-0.5 Y0.866 Z0.028 E0.05
G1 X-0.5 Y0.866 Z0.024 E0.05
G1 X-0.5 Y0.866 Z0.02 E0.05
G1 X-0.5 Y0.866 Z0.016 E0.05
G1 X-0.5 Y0.866 Z0.012 E0.05
G1 X-0.5 Y0.866 Z0.008 E0.05
G1 X-0.5 Y0.866 Z0.004 E0.05
G1 X-0.5 Y0.866 Z0.0 E0.05
G1 X-0.5 Y0.866 Z-0.004 E0.05
G1 X-0.5 Y0.866 Z-0.008 E0.05
G1 X-0.5 Y0.866 Z-0.012 E0.05
G1 X-0.5 Y0.866 Z-0.016 E0.05
G1 X-0.5 Y0.866 Z-0.02 E0.05
G1 X-0.5 Y0.866 Z-0.024 E0.05
G1 X-0.5 Y0.866 Z-0.028 E0.05
G1 X-0.5 Y0.866 Z-0.032 E0.05
G1 X-0.5 Y0.866 Z-0.036 E0.05
G1 X-0.5 Y0.866 Z-0.04 E0.05
G1 X0.1736 Y0.9848 Z0.04 E0.05
G1 X0.1736 Y0.9848 Z0.036 E0.05
G1 X0.1736 Y0.9848 Z0.032 E0.05
G1 X0.1736 Y0.9848 Z0.028 E0.05
G1 X0.1736 Y0.9848 Z0.024 E0.05
G1 X0.1736 Y0.9848 Z0.02 E0.05
G1 X0.1736 Y0.9848 Z0.016 E0.05
G1 X0.1736 Y0.9848 Z0.012 E0.05
G1 X0.1736 Y0.9848 Z0.008 E0.05
G1 X0.1736 Y0.9848 Z0.004 E0.05
G1 X0.1736 Y0.9848 Z0.0 E0.05
G1 X0.1736 Y0.9848 Z-0.004 E0.05
G1 X0.1736 Y0.9848 Z-0.008 E0.05
G1 X0.1736 Y0.9848 Z-0.012 E0.05
G1 X0.1736 Y0.9848 Z-0.016 E0.05
G1 X0.1736 Y0.9848 Z-0.02 E0.05
G1 X0.1736 Y0.9848 Z-0.024 E0.05
G1 X0.1736 Y0.9848 Z-0.028 E0.05
G1 X0.1736 Y0.9848 Z-0.032 E0.05
G1 X0.1736 Y0.9848 Z-0.036 E0.05
G1 X0.1736 Y0.9848 Z-0.04 E0.05
G1 X0.766 Y0.6428 Z0.04 E0.05
G1 X0.766 Y0.6428 Z0.036 E0.05
G1 X0.766 Y0.6428 Z0.032 E0.05
G1 X0.766 Y0.6428 Z0.028 E0.05
G1 X0.766 Y0.6428 Z0.024 E0.05
G1 X0.766 Y0.6428 Z0.02 E0.05
G1 X0.766 Y0.6428 Z0.016 E0.05
G1 X0.766 Y0.6428 Z0.012 E0.05
G1 X0.766 Y0.6428 Z0.008 E0.05
G1 X0.766 Y0.6428 Z0.004 E0.05
G1 X0.766 Y0.6428 Z0.0 E0.05
G1 X0.766 Y0.6428 Z-0.004 E0.05
G1 X0.766 Y0.6428 Z-0.008 E0.05
G1 X0.766 Y0.6428 Z-0.012 E0.05
G1 X0.766 Y0.6428 Z-0.016 E0.05
G1 X0.766 Y0.6428 Z-0.02 E0.05
G1 X0.766 Y0.6428 Z-0.024 E0.05
G1 X0.766 Y0.6428 Z-0.028 E0.05
G1 X0.766 Y0.6428 Z-0.032 E0.05
G1 X0.766 Y0.6428 Z-0.036 E0.05
G1 X0.766 Y0.6428 Z-0.04 E0.05
G1 X1.0 Y0.0 Z0.0467 E0.05
G1 X1.0 Y0.0 Z0.042 E0.05
G1 X1.0 Y0.0 Z0.0373 E0.05
G1 X1.0 Y0.0 Z0.0327 E0.05
G1 X1.0 Y0.0 Z0.028 E0.05
G1 X1.0 Y0.0 Z0.0233 E0.05
G1 X1.0 Y0.0 Z0.0187 E0.05
G1 X1.0 Y0.0 Z0.014 E0.05
G1 X1.0 Y0.0 Z0.0093 E0.05
G1 X1.0 Y0.0 Z0.0047 E0.05
G1 X1.0 Y0.0 Z0.0 E0.05
G1 X1.0 Y0.0 Z-0.0047 E0.05
G1 X1.0 Y0.0 Z-0.0093 E0.05
G1 X1.0 Y0.0 Z-0.014 E0.05
G1 X1.0 Y0.0 Z-0.0187 E0.05
G1 X1.0 Y0.0 Z-0.0233 E0.05
G1 X1.0 Y0.0 Z-0.028 E0.05
G1 X1.0 Y0.0 Z-0.0327 E0.05
G1 X1.0 Y0.0 Z-0.0373 E0.05
G1 X1.0 Y0.0 Z-0.042 E0.05
G1 X1.0 Y0.0 Z-0.0467 E0.05
G1 X0.766 Y-0.6428 Z0.0467 E0.05
G1 X0.766 Y-0.6428 Z0.042 E0.05
G1 X0.766 Y-0.6428 Z0.0373 E0.05
G1 X0.766 Y-0.6428 Z0.0327 E0.05
G1 X0.766 Y-0.6428 Z0.028 E0.05
G1 X0.766 Y-0.6428 Z0.0233 E0.05
G1 X0.766 Y-0.6428 Z0.0187 E0.05
G1 X0.766 Y-0.6428 Z0.014 E0.05
G1 X0.766 Y-0.6428 Z0.0093 E0.05
G1 X0.766 Y-0.6428 Z0.0047 E0.05
G1 X0.766 Y-0.6428 Z0.0 E0.05
G1 X0.766 Y-0.6428 Z-0.0047 E0.05
G1 X0.766 Y-0.6428 Z-0.0093 E0.05
G1 X0.766 Y-0.6428 Z-0.014 E0.05
G1 X0.766 Y-0.6428 Z-0.0187 E0.05
G1 X0.766 Y-0.6428 Z-0.0233 E0.05
G1 X0.766 Y-0.6428 Z-0.028 E0.05
G1 X0.766 Y-0.6428 Z-0.0327 E0.05
G1 X0.766 Y-0.6428 Z-0.0373 E0.05
G1 X0.766 Y-0.6428 Z-0.042 E0.05
G1 X0.766 Y-0.6428 Z-0.0467 E0.05
G1 X0.1736 Y-0.9848 Z0.0467 E0.05
G1 X0.1736 Y-0.9848 Z0.042 E0.05
G1 X0.1736 Y-0.9848 Z0.0373 E0.05
G1 X0.1736 Y-0.9848 Z0.0327 E0.05
G1 X0.1736 Y-0.9848 Z0.028 E0.05
G1 X0.1736 Y-0.9848 Z0.0233 E0.05
G1 X0.1736 Y-0.9848 Z0.0187 E0.05
G1 X0.1736 Y-0.9848 Z0.014 E0.05
G1 X0.1736 Y-0.9848 Z0.0093 E0.05
G1 X0.1736 Y-0.9848 Z0.0047 E0.05
G1 X0.1736 Y-0.9848 Z0.0 E0.05
G1 X0.1736 Y-0.9848 Z-0.0047 E0.05
G1 X0.1736 Y-0.9848 Z-0.0093 E0.05
G1 X0.1736 Y-0.9848 Z-0.014 E0.05
G1 X0.1736 Y-0.9848 Z-0.0187 E0.05
G1 X0.1736 Y-0.9848 Z-0.0233 E0.05
G1 X0.1736 Y-0.9848 Z-0.028 E0.05
G1 X0.1736 Y-0.9848 Z-0.0327 E0.05
G1 X0.1736 Y-0.9848 Z-0.0373 E0.05
G1 X0.1736 Y-0.9848 Z-0.042 E0.05
G1 X0.1736 Y-0.9848 Z-0.0467 E0.05
G1 X-0.5 Y-0.866 Z0.0467 E0.05
G1 X-0.5 Y-0.866 Z0.042 E0.05
G1 X-0.5 Y-0.866 Z0.0373 E0.05
G1 X-0.5 Y-0.866 Z0.0327 E0.05
G1 X-0.5 Y-0.866 Z0.028 E0.05
G1 X-0.5 Y-0.866 Z0.0233 E0.05
G1 X-0.5 Y-0.866 Z0.0187 E0.05
G1 X-0.5 Y-0.866 Z0.014 E0.05
G1 X-0.5 Y-0.866 Z0.0093 E0.05
G1 X-0.5 Y-0.866 Z0.0047 E0.05
G1 X-0.5 Y-0.866 Z0.0 E0.05
G1 X-0.5 Y-0.866 Z-0.0047 E0.05
G1 X-0.5 Y-0.866 Z-0.0093 E0.05
G1 X-0.5 Y-0.866 Z-0.014 E0.05
G1 X-0.5 Y-0.866 Z-0.0187 E0.05
G1 X-0.5 Y-0.866 Z-0.0233 E0.05
G1 X-0.5 Y-0.866 Z-0.028 E0.05
G1 X-0.5 Y-0.866 Z-0.0327 E0.05
G1 X-0.5 Y-0.866 Z-0.0373 E0.05
G1 X-0.5 Y-0.866 Z-0.042 E0.05
G1 X-0.5 Y-0.866 Z-0.0467 E0.05
G1 X-0.9397 Y-0.342 Z0.0467 E0.05
G1 X-0.9397 Y-0.342 Z0.042 E0.05
G1 X-0.9397 Y-0.342 Z0.0373 E0.05
G1 X-0.9397 Y-0.342 Z0.0327 E0.05
G1 X-0.9397 Y-0.342 Z0.028 E0.05
G1 X-0.9397 Y-0.342 Z0.0233 E0.05
G1 X-0.9397 Y-0.342 Z0.0187 E0.05
G1 X-0.9397 Y-0.342 Z0.014 E0.05
G1 X-0.9397 Y-0.342 Z0.0093 E0.05
G1 X-0.9397 Y-0.342 Z0.0047 E0.05
G1 X-0.9397 Y-0.342 Z0.0 E0.05
G1 X-0.9397 Y-0.342 Z-0.0047 E0.05
G1 X-0.9397 Y-0.342 Z-0.0093 E0.05
G1 X-0.9397 Y-0.342 Z-0.014 E0.05
G1 X-0.9397 Y-0.342 Z-0.0187 E0.05
G1 X-0.9397 Y-0.342 Z-0.0233 E0.05
G1 X-0.9397 Y-0.342 Z-0.028 E0.05
G1 X-0.9397 Y-0.342 Z-0.0327 E0.05
G1 X-0.9397 Y-0.342 Z-0.0373 E0.05
G1 X-0.9397 Y-0.342 Z-0.042 E0.05
G1 X-0.9397 Y-0.342 Z-0.0467 E0.05
G1 X-0.9397 Y0.342 Z0.0467 E0.05
G1 X-0.9397 Y0.342 Z0.042 E0.05
G1 X-0.9397 Y0.342 Z0.0373 E0.05
G1 X-0.9397 Y0.342 Z0.0327 E0.05
G1 X-0.9397 Y0.342 Z0.028 E0.05
G1 X-0.9397 Y0.342 Z0.0233 E0.05
G1 X-0.9397 Y0.342 Z0.0187 E0.05
G1 X-0.9397 Y0.342 Z0.014 E0.05
G1 X-0.9397 Y0.342 Z0.0093 E0.05
G1 X-0.9397 Y0.342 Z0.0047 E0.05
G1 X-0.9397 Y0.342 Z0.0 E0.05
G1 X-0.9397 Y0.342 Z-0.0047 E0.05
G1 X-0.9397 Y0.342 Z-0.0093 E0.05
G1 X-0.9397 Y0.342 Z-0.014 E0.05
G1 X-0.9397 Y0.342 Z-0.0187 E0.05
G1 X-0.9397 Y0.342 Z-0.0233 E0.05
G1 X-0.9397 Y0.342 Z-0.028 E0.05
G1 X-0.9397 Y0.342 Z-0.0327 E0.05
G1 X-0.9397 Y0.342 Z-0.0373 E0.05
G1 X-0.9397 Y0.342 Z-0.042 E0.05
G1 X-0.9397 Y0.342 Z-0.0467 E0.05
G1 X-0.5 Y0.866 Z0.0467 E0.05
G1 X-0.5 Y0.866 Z0.042 E0.05
G1 X-0.5 Y0.866 Z0.0373 E0.05
G1 X-0.5 Y0.866 Z0.0327 E0.05
G1 X-0.5 Y0.866 Z0.028 E0.05
G1 X-0.5 Y0.866 Z0.0233 E0.05
G1 X-0.5 Y0.866 Z0.0187 E0.05
G1 X-0.5 Y0.866 Z0.014 E0.05
G1 X-0.5 Y0.866 Z0.0093 E0.05
G1 X-0.5 Y0.866 Z0.0047 E0.05
G1 X-0.5 Y0.866 Z0.0 E0.05
G1 X-0.5 Y0.866 Z-0.0047 E0.05
G1 X-0.5 Y0.866 Z-0.0093 E0.05
G1 X-0.5 Y0.866 Z-0.014 E0.05
G1 X-0.5 Y0.866 Z-0.0187 E0.05
G1 X-0.5 Y0.866 Z-0.0233 E0.05
G1 X-0.5 Y0.866 Z-0.028 E0.05
G1 X-0.5 Y0.866 Z-0.0327 E0.05
G1 X-0.5 Y0.866 Z-0.0373 E0.05
G1 X-0.5 Y0.866 Z-0.042 E0.05
G1 X-0.5 Y0.866 Z-0.0467 E0.05
G1 X0.1736 Y0.9848 Z0.0467 E0.05
G1 X0.1736 Y0.9848 Z0.042 E0.05
G1 X0.1736 Y0.9848 Z0.0373 E0.05
G1 X0.1736 Y0.9848 Z0.0327 E0.05
G1 X0.1736 Y0.9848 Z0.028 E0.05
G1 X0.1736 Y0.9848 Z0.0233 E0.05
G1 X0.1736 Y0.9848 Z0.0187 E0.05
G1 X0.1736 Y0.9848 Z0.014 E0.05
G1 X0.1736 Y0.9848 Z0.0093 E0.05
G1 X0.1736 Y0.9848 Z0.0047 E0.05
G1 X0.1736 Y0.9848 Z0.0 E0.05
G1 X0.1736 Y0.9848 Z-0.0047 E0.05
G1 X0.1736 Y0.9848 Z-0.0093 E0.05
G1 X0.1736 Y0.9848 Z-0.014 E0.05
G1 X0.1736 Y0.9848 Z-0.0187 E0.05
G1 X0.1736 Y0.9848 Z-0.0233 E0.05
G1 X0.1736 Y0.9848 Z-0.028 E0.05
G1 X0.1736 Y0.9848 Z-0.0327 E0.05
G1 X0.1736 Y0.9848 Z-0.0373 E0.05
G1 X0.1736 Y0.9848 Z-0.042 E0.05
G1 X0.1736 Y0.9848 Z-0.0467 E0.05
G1 X0.766 Y0.6428 Z0.0467 E0.05
G1 X0.766 Y0.6428 Z0.042 E0.05
G1 X0.766 Y0.6428 Z0.0373 E0.05
G1 X0.766 Y0.6428 Z0.0327 E0.05
G1 X0.766 Y0.6428 Z0.028 E0.05
G1 X0.766 Y0.6428 Z0.0233 E0.05
G1 X0.766 Y0.6428 Z0.0187 E0.05
G1 X0.766 Y0.6428 Z0.014 E0.05
G1 X0.766 Y0.6428 Z0.0093 E0.05
G1 X0.766 Y0.6428 Z0.0047 E0.05
G1 X0.766 Y0.6428 Z0.0 E0.05
G1 X0.766 Y0.6428 Z-0.0047 E0.05
G1 X0.766 Y0.6428 Z-0.0093 E0.05
G1 X0.766 Y0.6428 Z-0.014 E0.05
G1 X0.766 Y0.6428 Z-0.0187 E0.05
G1 X0.766 Y0.6428 Z-0.0233 E0.05
G1 X0.766 Y0.6428 Z-0.028 E0.05
G1 X0.766 Y0.6428 Z-0.0327 E0.05
G1 X0.766 Y0.6428 Z-0.0373 E0.05
G1 X0.766 Y0.6428 Z-0.042 E0.05
G1 X0.766 Y0.6428 Z-0.0467 E0.05
G1 X1.0 Y0.0 Z0.0533 E0.05
G1 X1.0 Y0.0 Z0.048 E0.05
G1 X1.0 Y0.0 Z0.0427 E0.05
G1 X1.0 Y0.0 Z0.0373 E0.05
G1 X1.0 Y0.0 Z0.032 E0.05
G1 X1.0 Y0.0 Z0.0267 E0.05
G1 X1.0 Y0.0 Z0.0213 E0.05
G1 X1.0 Y0.0 Z0.016 E0.05
G1 X1.0 Y0.0 Z0.0107 E0.05
G1 X1.0 Y0.0 Z0.0053 E0.05
G1 X1.0 Y0.0 Z0.0 E0.05
G1 X1.0 Y0.0 Z-0.0053 E0.05
G1 X1.0 Y0.0 Z-0.0107 E0.05
G1 X1.0 Y0.0 Z-0.016 E0.05
G1 X1.0 Y0.0 Z-0.0213 E0.05
G1 X1.0 Y0.0 Z-0.0267 E0.05
G1 X1.0 Y0.0 Z-0.032 E0.05
G1 X1.0 Y0.0 Z-0.0373 E0.05
G1 X1.0 Y0.0 Z-0.0427 E0.05
G1 X1.0 Y0.0 Z-0.048 E0.05
G1 X1.0 Y0.0 Z-0.0533 E0.05
G1 X0.766 Y-0.6428 Z0.0533 E0.05
G1 X0.766 Y-0.6428 Z0.048 E0.05
G1 X0.766 Y-0.6428 Z0.0427 E0.05
G1 X0.766 Y-0.6428 Z0.0373 E0.05
G1 X0.766 Y-0.6428 Z0.032 E0.05
G1 X0.766 Y-0.6428 Z0.0267 E0.05
G1 X0.766 Y-0.6428 Z0.0213 E0.05
G1 X0.766 Y-0.6428 Z0.016 E0.05
G1 X0.766 Y-0.6428 Z0.0107 E0.05
G1 X0.766 Y-0.6428 Z0.0053 E0.05
G1 X0.766 Y-0.6428 Z0.0 E0.05
G1 X0.766 Y-0.6428 Z-0.0053 E0.05
G1 X0.766 Y-0.6428 Z-0.0107 E0.05
G1 X0.766 Y-0.6428 Z-0.016 E0.05
G1 X0.766 Y-0.6428 Z-0.0213 E0.05
G1 X0.766 Y-0.6428 Z-0.0267 E0.05
G1 X0.766 Y-0.6428 Z-0.032 E0.05
G1 X0.766 Y-0.6428 Z-0.0373 E0.05
G1 X0.766 Y-0.6428 Z-0.0427 E0.05
G1 X0.766 Y-0.6428 Z-0.048 E0.05
G1 X0.766 Y-0.6428 Z-0.0533 E0.05
G1 X0.1736 Y-0.9848 Z0.0533 E0.05
G1 X0.1736 Y-0.9848 Z0.048 E0.05
G1 X0.1736 Y-0.9848 Z0.0427 E0.05
G1 X0.1736 Y-0.9848 Z0.0373 E0.05
G1 X0.1736 Y-0.9848 Z0.032 E0.05
G1 X0.1736 Y-0.9848 Z0.0267 E0.05
G1 X0.1736 Y-0.9848 Z0.0213 E0.05
G1 X0.1736 Y-0.9848 Z0.016 E0.05
G1 X0.1736 Y-0.9848 Z0.0107 E0.05
G1 X0.1736 Y-0.9848 Z0.0053 E0.05
G1 X0.1736 Y-0.9848 Z0.0 E0.05
G1 X0.1736 Y-0.9848 Z-0.0053 E0.05
G1 X0.1736 Y-0.9848 Z-0.0107 E0.05
G1 X0.1736 Y-0.9848 Z-0.016 E0.05
G1 X0.1736 Y-0.9848 Z-0.0213 E0.05
G1 X0.1736 Y-0.9848 Z-0.0267 E0.05
G1 X0.1736 Y-0.9848 Z-0.032 E0.05
G1 X0.1736 Y-0.9848 Z-0.0373 E0.05
G1 X0.1736 Y-0.9848 Z-0.0427 E0.05
G1 X0.1736 Y-0.9848 Z-0.048 E0.05
G1 X0.1736 Y-0.9848 Z-0.0533 E0.05
G1 X-0.5 Y-0.866 Z0.0533 E0.05
G1 X-0.5 Y-0.866 Z0.048 E0.05
G1 X-0.5 Y-0.866 Z0.0427 E0.05
G1 X-0.5 Y-0.866 Z0.0373 E0.05
G1 X-0.5 Y-0.866 Z0.032 E0.05
G1 X-0.5 Y-0.866 Z0.0267 E0.05
G1 X-0.5 Y-0.866 Z0.0213 E0.05
G1 X-0.5 Y-0.866 Z0.016 E0.05
G1 X-0.5 Y-0.866 Z0.0107 E0.05
G1 X-0.5 Y-0.866 Z0.0053 E0.05
G1 X-0.5 Y-0.866 Z0.0 E0.05
G1 X-0.5 Y-0.866 Z-0.0053 E0.05
G1 X-0.5 Y-0.866 Z-0.0107 E0.05
G1 X-0.5 Y-0.866 Z-0.016 E0.05
G1 X-0.5 Y-0.866 Z-0.0213 E0.05
G1 X-0.5 Y-0.866 Z-0.0267 E0.05
G1 X-0.5 Y-0.866 Z-0.032 E0.05
G1 X-0.5 Y-0.866 Z-0.0373 E0.05
G1 X-0.5 Y-0.866 Z-0.0427 E0.05
G1 X-0.5 Y-0.866 Z-0.048 E0.05
G1 X-0.5 Y-0.866 Z-0.0533 E0.05
G1 X-0.9397 Y-0.342 Z0.0533 E0.05
G1 X-0.9397 Y-0.342 Z0.048 E0.05
G1 X-0.9397 Y-0.342 Z0.0427 E0.05
G1 X-0.9397 Y-0.342 Z0.0373 E0.05
G1 X-0.9397 Y-0.342 Z0.032 E0.05
G1 X-0.9397 Y-0.342 Z0.0267 E0.05
G1 X-0.9397 Y-0.342 Z0.0213 E0.05
G1 X-0.9397 Y-0.342 Z0.016 E0.05
G1 X-0.9397 Y-0.342 Z0.0107 E0.05
G1 X-0.9397 Y-0.342 Z0.0053 E0.05
G1 X-0.9397 Y-0.342 Z0.0 E0.05
G1 X-0.9397 Y-0.342 Z-0.0053 E0.05
G1 X-0.9397 Y-0.342 Z-0.0107 E0.05
G1 X-0.9397 Y-0.342 Z-0.016 E0.05
G1 X-0.9397 Y-0.342 Z-0.0213 E0.05
G1 X-0.9397 Y-0.342 Z-0.0267 E0.05
G1 X-0.9397 Y-0.342 Z-0.032 E0.05
G1 X-0.9397 Y-0.342 Z-0.0373 E0.05
G1 X-0.9397 Y-0.342 Z-0.0427 E0.05
G1 X-0.9397 Y-0.342 Z-0.048 E0.05
G1 X-0.9397 Y-0.342 Z-0.0533 E0.05
G1 X-0.9397 Y0.342 Z0.0533 E0.05
G1 X-0.9397 Y0.342 Z0.048 E0.05
G1 X-0.9397 Y0.342 Z0.0427 E0.05
G1 X-0.9397 Y0.342 Z0.0373 E0.05
G1 X-0.9397 Y0.342 Z0.032 E0.05
G1 X-0.9397 Y0.342 Z0.0267 E0.05
G1 X-0.9397 Y0.342 Z0.0213 E0.05
G1 X-0.9397 Y0.342 Z0.016 E0.05
G1 X-0.9397 Y0.342 Z0.0107 E0.05
G1 X-0.9397 Y0.342 Z0.0053 E0.05
G1 X-0.9397 Y0.342 Z0.0 E0.05
G1 X-0.9397 Y0.342 Z-0.0053 E0.05
G1 X-0.9397 Y0.342 Z-0.0107 E0.05
G1 X-0.9397 Y0.342 Z-0.016 E0.05
G1 X-0.9397 Y0.342 Z-0.0213 E0.05
G1 X-0.9397 Y0.342 Z-0.0267 E0.05
G1 X-0.9397 Y0.342 Z-0.032 E0.05
G1 X-0.9397 Y0.342 Z-0.0373 E0.05
G1 X-0.9397 Y0.342 Z-0.0427 E0.05
G1 X-0.9397 Y0.342 Z-0.048 E0.05
G1 X-0.9397 Y0.342 Z-0.0533 E0.05
G1 X-0.5 Y0.866 Z0.0533 E0.05
G1 X-0.5 Y0.866 Z0.048 E0.05
G1 X-0.5 Y0.866 Z0.0427 E0.05
G1 X-0.5 Y0.866 Z0.0373 E0.05
G1 X-0.5 Y0.866 Z0.032 E0.05
G1 X-0.5 Y0.866 Z0.0267 E0.05
G1 X-0.5 Y0.866 Z0.0213 E0.05
G1 X-0.5 Y0.866 Z0.016 E0.05
G1 X-0.5 Y0.866 Z0.0107 E0.05
G1 X-0.5 Y0.866 Z0.0053 E0.05
G1 X-0.5 Y0.866 Z0.0 E0.05
G1 X-0.5 Y0.866 Z-0.0053 E0.05
G1 X-0.5 Y0.866 Z-0.0107 E0.05
G1 X-0.5 Y0.866 Z-0.016 E0.05
G1 X-0.5 Y0.866 Z-0.0213 E0.05
G1 X-0.5 Y0.866 Z-0.0267 E0.05
G1 X-0.5 Y0.866 Z-0.032 E0.05
G1 X-0.5 Y0.866 Z-0.0373 E0.05
G1 X-0.5 Y0.866 Z-0.0427 E0.05
G1 X-0.5 Y0.866 Z-0.048 E0.05
G1 X-0.5 Y0.866 Z-0.0533 E0.05
G1 X0.1736 Y0.9848 Z0.0533 E0.05
G1 X0.1736 Y0.9848 Z0.048 E0.05
G1 X0.1736 Y0.9848 Z0.0427 E0.05
G1 X0.1736 Y0.9848 Z0.0373 E0.05
G1 X0.1736 Y0.9848 Z0.032 E0.05
G1 X0.1736 Y0.9848 Z0.0267 E0.05
G1 X0.1736 Y0.9848 Z0.0213 E0.05
G1 X0.1736 Y0.9848 Z0.016 E0.05
G1 X0.1736 Y0.9848 Z0.0107 E0.05
G1 X0.1736 Y0.9848 Z0.0053 E0.05
G1 X0.1736 Y0.9848 Z0.0 E0.05
G1 X0.1736 Y0.9848 Z-0.0053 E0.05
G1 X0.1736 Y0.9848 Z-0.0107 E0.05
G1 X0.1736 Y0.9848 Z-0.016 E0.05
G1 X0.1736 Y0.9848 Z-0.0213 E0.05
G1 X0.1736 Y0.9848 Z-0.0267 E0.05
G1 X0.1736 Y0.9848 Z-0.032 E0.05
G1 X0.1736 Y0.9848 Z-0.0373 E0.05
G1 X0.1736 Y0.9848 Z-0.0427 E0.05
G1 X0.1736 Y0.9848 Z-0.048 E0.05
G1 X0.1736 Y0.9848 Z-0.0533 E0.05
G1 X0.766 Y0.6428 Z0.0533 E0.05
G1 X0.766 Y0.6428 Z0.048 E0.05
G1 X0.766 Y0.6428 Z0.0427 E0.05
G1 X0.766 Y0.6428 Z0.0373 E0.05
G1 X0.766 Y0.6428 Z0.032 E0.05
G1 X0.766 Y0.6428 Z0.0267 E0.05
G1 X0.766 Y0.6428 Z0.0213 E0.05
G1 X0.766 Y0.6428 Z0.016 E0.05
G1 X0.766 Y0.6428 Z0.0107 E0.05
G1 X0.766 Y0.6428 Z0.0053 E0.05
G1 X0.766 Y0.6428 Z0.0 E0.05
G1 X0.766 Y0.6428 Z-0.0053 E0.05
G1 X0.766 Y0.6428 Z-0.0107 E0.05
G1 X0.766 Y0.6428 Z-0.016 E0.05
G1 X0.766 Y0.6428 Z-0.0213 E0.05
G1 X0.766 Y0.6428 Z-0.0267 E0.05
G1 X0.766 Y0.6428 Z-0.032 E0.05
G1 X0.766 Y0.6428 Z-0.0373 E0.05
G1 X0.766 Y0.6428 Z-0.0427 E0.05
G1 X0.766 Y0.6428 Z-0.048 E0.05
G1 X0.766 Y0.6428 Z-0.0533 E0.05
G1 X1.0 Y0.0 Z0.06 E0.05
G1 X1.0 Y0.0 Z0.054 E0.05
G1 X1.0 Y0.0 Z0.048 E0.05
G1 X1.0 Y0.0 Z0.042 E0.05
G1 X1.0 Y0.0 Z0.036 E0.05
G1 X1.0 Y0.0 Z0.03 E0.05
G1 X1.0 Y0.0 Z0.024 E0.05
G1 X1.0 Y0.0 Z0.018 E0.05
G1 X1.0 Y0.0 Z0.012 E0.05
G1 X1.0 Y0.0 Z0.006 E0.05
G1 X1.0 Y0.0 Z0.0 E0.05
G1 X1.0 Y0.0 Z-0.006 E0.05
G1 X1.0 Y0.0 Z-0.012 E0.05
G1 X1.0 Y0.0 Z-0.018 E0.05
G1 X1.0 Y0.0 Z-0.024 E0.05
G1 X1.0 Y0.0 Z-0.03 E0.05
G1 X1.0 Y0.0 Z-0.036 E0.05
G1 X1.0 Y0.0 Z-0.042 E0.05
G1 X1.0 Y0.0 Z-0.048 E0.05
G1 X1.0 Y0.0 Z-0.054 E0.05
G1 X1.0 Y0.0 Z-0.06 E0.05
G1 X0.766 Y-0.6428 Z0.06 E0.05
G1 X0.766 Y-0.6428 Z0.054 E0.05
G1 X0.766 Y-0.6428 Z0.048 E0.05
G1 X0.766 Y-0.6428 Z0.042 E0.05
G1 X0.766 Y-0.6428 Z0.036 E0.05
G1 X0.766 Y-0.6428 Z0.03 E0.05
G1 X0.766 Y-0.6428 Z0.024 E0.05
G1 X0.766 Y-0.6428 Z0.018 E0.05
G1 X0.766 Y-0.6428 Z0.012 E0.05
G1 X0.766 Y-0.6428 Z0.006 E0.05
G1 X0.766 Y-0.6428 Z0.0 E0.05
G1 X0.766 Y-0.6428 Z-0.006 E0.05
G1 X0.766 Y-0.6428 Z-0.012 E0.05
G1 X0.766 Y-0.6428 Z-0.018 E0.05
G1 X0.766 Y-0.6428 Z-0.024 E0.05
G1 X0.766 Y-0.6428 Z-0.03 E0.05
G1 X0.766 Y-0.6428 Z-0.036 E0.05
G1 X0.766 Y-0.6428 Z-0.042 E0.05
G1 X0.766 Y-0.6428 Z-0.048 E0.05
G1 X0.766 Y-0.6428 Z-0.054 E0.05
G1 X0.766 Y-0.6428 Z-0.06 E0.05
G1 X0.1736 Y-0.9848 Z0.06 E0.05
G1 X0.1736 Y-0.9848 Z0.054 E0.05
G1 X0.1736 Y-0.9848 Z0.048 E0.05
G1 X0.1736 Y-0.9848 Z0.042 E0.05
G1 X0.1736 Y-0.9848 Z0.036 E0.05
G1 X0.1736 Y-0.9848 Z0.03 E0.05
G1 X0.1736 Y-0.9848 Z0.024 E0.05
G1 X0.1736 Y-0.9848 Z0.018 E0.05
G1 X0.1736 Y-0.9848 Z0.012 E0.05
G1 X0.1736 Y-0.9848 Z0.006 E0.05
G1 X0.1736 Y-0.9848 Z0.0 E0.05
G1 X0.1736 Y-0.9848 Z-0.006 E0.05
G1 X0.1736 Y-0.9848 Z-0.012 E0.05
G1 X0.1736 Y-0.9848 Z-0.018 E0.05
G1 X0.1736 Y-0.9848 Z-0.024 E0.05
G1 X0.1736 Y-0.9848 Z-0.03 E0.05
G1 X0.1736 Y-0.9848 Z-0.036 E0.05
G1 X0.1736 Y-0.9848 Z-0.042 E0.05
G1 X0.1736 Y-0.9848 Z-0.048 E0.05
G1 X0.1736 Y-0.9848 Z-0.054 E0.05
G1 X0.1736 Y-0.9848 Z-0.06 E0.05
G1 X-0.5 Y-0.866 Z0.06 E0.05
G1 X-0.5 Y-0.866 Z0.054 E0.05
G1 X-0.5 Y-0.866 Z0.048 E0.05
G1 X-0.5 Y-0.866 Z0.042 E0.05
G1 X-0.5 Y-0.866 Z0.036 E0.05
G1 X-0.5 Y-0.866 Z0.03 E0.05
G1 X-0.5 Y-0.866 Z0.024 E0.05
G1 X-0.5 Y-0.866 Z0.018 E0.05
G1 X-0.5 Y-0.866 Z0.012 E0.05
G1 X-0.5 Y-0.866 Z0.006 E0.05
G1 X-0.5 Y-0.866 Z0.0 E0.05
G1 X-0.5 Y-0.866 Z-0.006 E0.05
G1 X-0.5 Y-0.866 Z-0.012 E0.05
G1 X-0.5 Y-0.866 Z-0.018 E0.05
G1 X-0.5 Y-0.866 Z-0.024 E0.05
G1 X-0.5 Y-0.866 Z-0.03 E0.05
G1 X-0.5 Y-0.866 Z-0.036 E0.05
G1 X-0.5 Y-0.866 Z-0.042 E0.05
G1 X-0.5 Y-0.866 Z-0.048 E0.05
G1 X-0.5 Y-0.866 Z-0.054 E0.05
G1 X-0.5 Y-0.866 Z-0.06 E0.05
G1 X-0.9397 Y-0.342 Z0.06 E0.05
G1 X-0.9397 Y-0.342 Z0.054 E0.05
G1 X-0.9397 Y-0.342 Z0.048 E0.05
G1 X-0.9397 Y-0.342 Z0.042 E0.05
G1 X-0.9397 Y-0.342 Z0.036 E0.05
G1 X-0.9397 Y-0.342 Z0.03 E0.05
G1 X-0.9397 Y-0.342 Z0.024 E0.05
G1 X-0.9397 Y-0.342 Z0.018 E0.05
G1 X-0.9397 Y-0.342 Z0.012 E0.05
G1 X-0.9397 Y-0.342 Z0.006 E0.05
G1 X-0.9397 Y-0.342 Z0.0 E0.05
G1 X-0.9397 Y-0.342 Z-0.006 E0.05
G1 X-0.9397 Y-0.342 Z-0.012 E0.05
G1 X-0.9397 Y-0.342 Z-0.018 E0.05
G1 X-0.9397 Y-0.342 Z-0.024 E0.05
G1 X-0.9397 Y-0.342 Z-0.03 E0.05
G1 X-0.9397 Y-0.342 Z-0.036 E0.05
G1 X-0.9397 Y-0.342 Z-0.042 E0.05
G1 X-0.9397 Y-0.342 Z-0.048 E0.05
G1 X-0.9397 Y-0.342 Z-0.054 E0.05
G1 X-0.9397 Y-0.342 Z-0.06 E0.05
G1 X-0.9397 Y0.342 Z0.06 E0.05
G1 X-0.9397 Y0.342 Z0.054 E0.05
G1 X-0.9397 Y0.342 Z0.048 E0.05
G1 X-0.9397 Y0.342 Z0.042 E0.05
G1 X-0.9397 Y0.342 Z0.036 E0.05
G1 X-0.9397 Y0.342 Z0.03 E0.05
G1 X-0.9397 Y0.342 Z0.024 E0.05
G1 X-0.9397 Y0.342 Z0.018 E0.05
G1 X-0.9397 Y0.342 Z0.012 E0.05
G1 X-0.9397 Y0.342 Z0.006 E0.05
G1 X-0.9397 Y0.342 Z0.0 E0.05
G1 X-0.9397 Y0.342 Z-0.006 E0.05
G1 X-0.9397 Y0.342 Z-0.012 E0.05
G1 X-0.9397 Y0.342 Z-0.018 E0.05
G1 X-0.9397 Y0.342 Z-0.024 E0.05
G1 X-0.9397 Y0.342 Z-0.03 E0.05
G1 X-0.9397 Y0.342 Z-0.036 E0.05
G1 X-0.9397 Y0.342 Z-0.042 E0.05
G1 X-0.9397 Y0.342 Z-0.048 E0.05
G1 X-0.9397 Y0.342 Z-0.054 E0.05
G1 X-0.9397 Y0.342 Z-0.06 E0.05
G1 X-0.5 Y0.866 Z0.06 E0.05
G1 X-0.5 Y0.866 Z0.054 E0.05
G1 X-0.5 Y0.866 Z0.048 E0.05
G1 X-0.5 Y0.866 Z0.042 E0.05
G1 X-0.5 Y0.866 Z0.036 E0.05
G1 X-0.5 Y0.866 Z0.03 E0.05
G1 X-0.5 Y0.866 Z0.024 E0.05
G1 X-0.5 Y0.866 Z0.018 E0.05
G1 X-0.5 Y0.866 Z0.012 E0.05
G1 X-0.5 Y0.866 Z0.006 E0.05
G1 X-0.5 Y0.866 Z0.0 E0.05
G1 X-0.5 Y0.866 Z-0.006 E0.05
G1 X-0.5 Y0.866 Z-0.012 E0.05
G1 X-0.5 Y0.866 Z-0.018 E0.05
G1 X-0.5 Y0.866 Z-0.024 E0.05
G1 X-0.5 Y0.866 Z-0.03 E0.05
G1 X-0.5 Y0.866 Z-0.036 E0.05
G1 X-0.5 Y0.866 Z-0.042 E0.05
G1 X-0.5 Y0.866 Z-0.048 E0.05
G1 X-0.5 Y0.866 Z-0.054 E0.05
G1 X-0.5 Y0.866 Z-0.06 E0.05
G1 X0.1736 Y0.9848 Z0.06 E0.05
G1 X0.1736 Y0.9848 Z0.054 E0.05
G1 X0.1736 Y0.9848 Z0.048 E0.05
G1 X0.1736 Y0.9848 Z0.042 E0.05
G1 X0.1736 Y0.9848 Z0.036 E0.05
G1 X0.1736 Y0.9848 Z0.03 E0.05
G1 X0.1736 Y0.9848 Z0.024 E0.05
G1 X0.1736 Y0.9848 Z0.018 E0.05
G1 X0.1736 Y0.9848 Z0.012 E0.05
G1 X0.1736 Y0.9848 Z0.006 E0.05
G1 X0.1736 Y0.9848 Z0.0 E0.05
G1 X0.1736 Y0.9848 Z-0.006 E0.05
G1 X0.1736 Y0.9848 Z-0.012 E0.05
G1 X0.1736 Y0.9848 Z-0.018 E0.05
G1 X0.1736 Y0.9848 Z-0.024 E0.05
G1 X0.1736 Y0.9848 Z-0.03 E0.05
G1 X0.1736 Y0.9848 Z-0.036 E0.05
G1 X0.1736 Y0.9848 Z-0.042 E0.05
G1 X0.1736 Y0.9848 Z-0.048 E0.05
G1 X0.1736 Y0.9848 Z-0.054 E0.05
G1 X0.1736 Y0.9848 Z-0.06 E0.05
G1 X0.766 Y0.6428 Z0.06 E0.05
G1 X0.766 Y0.6428 Z0.054 E0.05
G1 X0.766 Y0.6428 Z0.048 E0.05
G1 X0.766 Y0.6428 Z0.042 E0.05
G1 X0.766 Y0.6428 Z0.036 E0.05
G1 X0.766 Y0.6428 Z0.03 E0.05
G1 X0.766 Y0.6428 Z0.024 E0.05
G1 X0.766 Y0.6428 Z0.018 E0.05
G1 X0.766 Y0.6428 Z0.012 E0.05
G1 X0.766 Y0.6428 Z0.006 E0.05
G1 X0.766 Y0.6428 Z0.0 E0.05
G1 X0.766 Y0.6428 Z-0.006 E0.05
G1 X0.766 Y0.6428 Z-0.012 E0.05
G1 X0.766 Y0.6428 Z-0.018 E0.05
G1 X0.766 Y0.6428 Z-0.024 E0.05
G1 X0.766 Y0.6428 Z-0.03 E0.05
G1 X0.766 Y0.6428 Z-0.036 E0.05
G1 X0.766 Y0.6428 Z-0.042 E0.05
G1 X0.766 Y0.6428 Z-0.048 E0.05
G1 X0.766 Y0.6428 Z-0.054 E0.05
G1 X0.766 Y0.6428 Z-0.06 E0.05
G1 X1.0 Y0.0 Z0.0667 E0.05
G1 X1.0 Y0.0 Z0.06 E0.05
G1 X1.0 Y0.0 Z0.0533 E0.05
G1 X1.0 Y0.0 Z0.0467 E0.05
G1 X1.0 Y0.0 Z0.04 E0.05
G1 X1.0 Y0.0 Z0.0333 E0.05
G1 X1.0 Y0.0 Z0.0267 E0.05
G1 X1.0 Y0.0 Z0.02 E0.05
G1 X1.0 Y0.0 Z0.0133 E0.05
G1 X1.0 Y0.0 Z0.0067 E0.05
G1 X1.0 Y0.0 Z0.0 E0.05
G1 X1.0 Y0.0 Z-0.0067 E0.05
G1 X1.0 Y0.0 Z-0.0133 E0.05
G1 X1.0 Y0.0 Z-0.02 E0.05
G1 X1.0 Y0.0 Z-0.0267 E0.05
G1 X1.0 Y0.0 Z-0.0333 E0.05
G1 X1.0 Y0.0 Z-0.04 E0.05
G1 X1.0 Y0.0 Z-0.0467 E0.05
G1 X1.0 Y0.0 Z-0.0533 E0.05
G1 X1.0 Y0.0 Z-0.06 E0.05
G1 X1.0 Y0.0 Z-0.0667 E0.05
G1 X0.766 Y-0.6428 Z0.0667 E0.05
G1 X0.766 Y-0.6428 Z0.06 E0.05
G1 X0.766 Y-0.6428 Z0.0533 E0.05
G1 X0.766 Y-0.6428 Z0.0467 E0.05
G1 X0.766 Y-0.6428 Z0.04 E0.05
G1 X0.766 Y-0.6428 Z0.0333 E0.05
G1 X0.766 Y-0.6428 Z0.0267 E0.05
G1 X0.766 Y-0.6428 Z0.02 E0.05
G1 X0.766 Y-0.6428 Z0.0133 E0.05
G1 X0.766 Y-0.6428 Z0.0067 E0.05
G1 X0.766 Y-0.6428 Z0.0 E0.05
G1 X0.766 Y-0.6428 Z-0.0067 E0.05
G1 X0.766 Y-0.6428 Z-0.0133 E0.05
G1 X0.766 Y-0.6428 Z-0.02 E0.05
G1 X0.766 Y-0.6428 Z-0.0267 E0.05
G1 X0.766 Y-0.6428 Z-0.0333 E0.05
G1 X0.766 Y-0.6428 Z-0.04 E0.05
G1 X0.766 Y-0.6428 Z-0.0467 E0.05
G1 X0.766 Y-0.6428 Z-0.0533 E0.05
G1 X0.766 Y-0.6428 Z-0.06 E0.05
G1 X0.766 Y-0.6428 Z-0.0667 E0.05
G1 X0.1736 Y-0.9848 Z0.0667 E0.05
G1 X0.1736 Y-0.9848 Z0.06 E0.05
G1 X0.1736 Y-0.9848 Z0.0533 E0.05
G1 X0.1736 Y-0.9848 Z0.0467 E0.05
G1 X0.1736 Y-0.9848 Z0.04 E0.05
G1 X0.1736 Y-0.9848 Z0.0333 E0.05
G1 X0.1736 Y-0.9848 Z0.0267 E0.05
G1 X0.1736 Y-0.9848 Z0.02 E0.05
G1 X0.1736 Y-0.9848 Z0.0133 E0.05
G1 X0.1736 Y-0.9848 Z0.0067 E0.05
G1 X0.1736 Y-0.9848 Z0.0 E0.05
G1 X0.1736 Y-0.9848 Z-0.0067 E0.05
G1 X0.1736 Y-0.9848 Z-0.0133 E0.05
G1 X0.1736 Y-0.9848 Z-0.02 E0.05
G1 X0.1736 Y-0.9848 Z-0.0267 E0.05
G1 X0.1736 Y-0.9848 Z-0.0333 E0.05
G1 X0.1736 Y-0.9848 Z-0.04 E0.05
G1 X0.1736 Y-0.9848 Z-0.0467 E0.05
G1 X0.1736 Y-0.9848 Z-0.0533 E0.05
G1 X0.1736 Y-0.9848 Z-0.06 E0.05
G1 X0.1736 Y-0.9848 Z-0.0667 E0.05
G1 X-0.5 Y-0.866 Z0.0667 E0.05
G1 X-0.5 Y-0.866 Z0.06 E0.05
G1 X-0.5 Y-0.866 Z0.0533 E0.05
G1 X-0.5 Y-0.866 Z0.0467 E0.05
G1 X-0.5 Y-0.866 Z0.04 E0.05
G1 X-0.5 Y-0.866 Z0.0333 E0.05
G1 X-0.5 Y-0.866 Z0.0267 E0.05
G1 X-0.5 Y-0.866 Z0.02 E0.05
G1 X-0.5 Y-0.866 Z0.0133 E0.05
G1 X-0.5 Y-0.866 Z0.0067 E0.05
G1 X-0.5 Y-0.866 Z0.0 E0.05
G1 X-0.5 Y-0.866 Z-0.0067 E0.05
G1 X-0.5 Y-0.866 Z-0.0133 E0.05
G1 X-0.5 Y-0.866 Z-0.02 E0.05
G1 X-0.5 Y-0.866 Z-0.0267 E0.05
G1 X-0.5 Y-0.866 Z-0.0333 E0.05
G1 X-0.5 Y-0.866 Z-0.04 E0.05
G1 X-0.5 Y-0.866 Z-0.0467 E0.05
G1 X-0.5 Y-0.866 Z-0.0533 E0.05
G1 X-0.5 Y-0.866 Z-0.06 E0.05
G1 X-0.5 Y-0.866 Z-0.0667 E0.05
G1 X-0.9397 Y-0.342 Z0.0667 E0.05
G1 X-0.9397 Y-0.342 Z0.06 E0.05
G1 X-0.9397 Y-0.342 Z0.0533 E0.05
G1 X-0.9397 Y-0.342 Z0.0467 E0.05
G1 X-0.9397 Y-0.342 Z0.04 E0.05
G1 X-0.9397 Y-0.342 Z0.0333 E0.05
G1 X-0.9397 Y-0.342 Z0.0267 E0.05
G1 X-0.9397 Y-0.342 Z0.02 E0.05
G1 X-0.9397 Y-0.342 Z0.0133 E0.05
G1 X-0.9397 Y-0.342 Z0.0067 E0.05
G1 X-0.9397 Y-0.342 Z0.0 E0.05
G1 X-0.9397 Y-0.342 Z-0.0067 E0.05
G1 X-0.9397 Y-0.342 Z-0.0133 E0.05
G1 X-0.9397 Y-0.342 Z-0.02 E0.05
G1 X-0.9397 Y-0.342 Z-0.0267 E0.05
G1 X-0.9397 Y-0.342 Z-0.0333 E0.05
G1 X-0.9397 Y-0.342 Z-0.04 E0.05
G1 X-0.9397 Y-0.342 Z-0.0467 E0.05
G1 X-0.9397 Y-0.342 Z-0.0533 E0.05
G1 X-0.9397 Y-0.342 Z-0.06 E0.05
G1 X-0.9397 Y-0.342 Z-0.0667 E0.05
G1 X-0.9397 Y0.342 Z0.0667 E0.05
G1 X-0.9397 Y0.342 Z0.06 E0.05
G1 X-0.9397 Y0.342 Z0.0533 E0.05
G1 X-0.9397 Y0.342 Z0.0467 E0.05
G1 X-0.9397 Y0.342 Z0.04 E0.05
G1 X-0.9397 Y0.342 Z0.0333 E0.05
G1 X-0.9397 Y0.342 Z0.0267 E0.05
G1 X-0.9397 Y0.342 Z0.02 E0.05
G1 X-0.9397 Y0.342 Z0.0133 E0.05
G1 X-0.9397 Y0.342 Z0.0067 E0.05
G1 X-0.9397 Y0.342 Z0.0 E0.05
G1 X-0.9397 Y0.342 Z-0.0067 E0.05
G1 X-0.9397 Y0.342 Z-0.0133 E0.05
G1 X-0.9397 Y0.342 Z-0.02 E0.05
G1 X-0.9397 Y0.342 Z-0.0267 E0.05
G1 X-0.9397 Y0.342 Z-0.0333 E0.05
G1 X-0.9397 Y0.342 Z-0.04 E0.05
G1 X-0.9397 Y0.342 Z-0.0467 E0.05
G1 X-0.9397 Y0.342 Z-0.0533 E0.05
G1 X-0.9397 Y0.342 Z-0.06 E0.05
G1 X-0.9397 Y0.342 Z-0.0667 E0.05
G1 X-0.5 Y0.866 Z0.0667 E0.05
G1 X-0.5 Y0.866 Z0.06 E0.05
G1 X-0.5 Y0.866 Z0.0533 E0.05
G1 X-0.5 Y0.866 Z0.0467 E0.05
G1 X-0.5 Y0.866 Z0.04 E0.05
G1 X-0.5 Y0.866 Z0.0333 E0.05
G1 X-0.5 Y0.866 Z0.0267 E0.05
G1 X-0.5 Y0.866 Z0.02 E0.05
G1 X-0.5 Y0.866 Z0.0133 E0.05
G1 X-0.5 Y0.866 Z0.0067 E0.05
G1 X-0.5 Y0.866 Z0.0 E0.05
G1 X-0.5 Y0.866 Z-0.0067 E0.05
G1 X-0.5 Y0.866 Z-0.0133 E0.05
G1 X-0.5 Y0.866 Z-0.02 E0.05
G1 X-0.5 Y0.866 Z-0.0267 E0.05
G1 X-0.5 Y0.866 Z-0.0333 E0.05
G1 X-0.5 Y0.866 Z-0.04 E0.05
G1 X-0.5 Y0.866 Z-0.0467 E0.05
G1 X-0.5 Y0.866 Z-0.0533 E0.05
G1 X-0.5 Y0.866 Z-0.06 E0.05
G1 X-0.5 Y0.866 Z-0.0667 E0.05
G1 X0.1736 Y0.9848 Z0.0667 E0.05
G1 X0.1736 Y0.9848 Z0.06 E0.05
G1 X0.1736 Y0.9848 Z0.0533 E0.05
G1 X0.1736 Y0.9848 Z0.0467 E0.05
G1 X0.1736 Y0.9848 Z0.04 E0.05
G1 X0.1736 Y0.9848 Z0.0333 E0.05
G1 X0.1736 Y0.9848 Z0.0267 E0.05
G1 X0.1736 Y0.9848 Z0.02 E0.05
G1 X0.1736 Y0.9848 Z0.0133 E0.05
G1 X0.1736 Y0.9848 Z0.0067 E0.05
G1 X0.1736 Y0.9848 Z0.0 E0.05
G1 X0.1736 Y0.9848 Z-0.0067 E0.05
G1 X0.1736 Y0.9848 Z-0.0133 E0.05
G1 X0.1736 Y0.9848 Z-0.02 E0.05
G1 X0.1736 Y0.9848 Z-0.0267 E0.05
G1 X0.1736 Y0.9848 Z-0.0333 E0.05
G1 X0.1736 Y0.9848 Z-0.04 E0.05
G1 X0.1736 Y0.9848 Z-0.0467 E0.05
G1 X0.1736 Y0.9848 Z-0.0533 E0.05
G1 X0.1736 Y0.9848 Z-0.06 E0.05
G1 X0.1736 Y0.9848 Z-0.0667 E0.05
G1 X0.766 Y0.6428 Z0.0667 E0.05
G1 X0.766 Y0.6428 Z0.06 E0.05
G1 X0.766 Y0.6428 Z0.0533 E0.05
G1 X0.766 Y0.6428 Z0.0467 E0.05
G1 X0.766 Y0.6428 Z0.04 E0.05
G1 X0.766 Y0.6428 Z0.0333 E0.05
G1 X0.766 Y0.6428 Z0.0267 E0.05
G1 X0.766 Y0.6428 Z0.02 E0.05
G1 X0.766 Y0.6428 Z0.0133 E0.05
G1 X0.766 Y0.6428 Z0.0067 E0.05
G1 X0.766 Y0.6428 Z0.0 E0.05
G1 X0.766 Y0.6428 Z-0.0067 E0.05
G1 X0.766 Y0.6428 Z-0.0133 E0.05
G1 X0.766 Y0.6428 Z-0.02 E0.05
G1 X0.766 Y0.6428 Z-0.0267 E0.05
G1 X0.766 Y0.6428 Z-0.0333 E0.05
G1 X0.766 Y0.6428 Z-0.04 E0.05
G1 X0.766 Y0.6428 Z-0.0467 E0.05
G1 X0.766 Y0.6428 Z-0.0533 E0.05
G1 X0.766 Y0.6428 Z-0.06 E0.05
G1 X0.766 Y0.6428 Z-0.0667 E0.05
G1 X1.0 Y0.0 Z0.0733 E0.05
G1 X1.0 Y0.0 Z0.066 E0.05
G1 X1.0 Y0.0 Z0.0587 E0.05
G1 X1.0 Y0.0 Z0.0513 E0.05
G1 X1.0 Y0.0 Z0.044 E0.05
G1 X1.0 Y0.0 Z0.0367 E0.05
G1 X1.0 Y0.0 Z0.0293 E0.05
G1 X1.0 Y0.0 Z0.022 E0.05
G1 X1.0 Y0.0 Z0.0147 E0.05
G1 X1.0 Y0.0 Z0.0073 E0.05
G1 X1.0 Y0.0 Z0.0 E0.05
G1 X1.0 Y0.0 Z-0.0073 E0.05
G1 X1.0 Y0.0 Z-0.0147 E0.05
G1 X1.0 Y0.0 Z-0.022 E0.05
G1 X1.0 Y0.0 Z-0.0293 E0.05
G1 X1.0 Y0.0 Z-0.0367 E0.05
G1 X1.0 Y0.0 Z-0.044 E0.05
G1 X1.0 Y0.0 Z-0.0513 E0.05
G1 X1.0 Y0.0 Z-0.0587 E0.05
G1 X1.0 Y0.0 Z-0.066 E0.05
G1 X1.0 Y0.0 Z-0.0733 E0.05
G1 X0.766 Y-0.6428 Z0.0733 E0.05
G1 X0.766 Y-0.6428 Z0.066 E0.05
G1 X0.766 Y-0.6428 Z0.0587 E0.05
G1 X0.766 Y-0.6428 Z0.0513 E0.05
G1 X0.766 Y-0.6428 Z0.044 E0.05
G1 X0.766 Y-0.6428 Z0.0367 E0.05
G1 X0.766 Y-0.6428 Z0.0293 E0.05
G1 X0.766 Y-0.6428 Z0.022 E0.05
G1 X0.766 Y-0.6428 Z0.0147 E0.05
G1 X0.766 Y-0.6428 Z0.0073 E0.05
G1 X0.766 Y-0.6428 Z0.0 E0.05
G1 X0.766 Y-0.6428 Z-0.0073 E0.05
G1 X0.766 Y-0.6428 Z-0.0147 E0.05
G1 X0.766 Y-0.6428 Z-0.022 E0.05
G1 X0.766 Y-0.6428 Z-0.0293 E0.05
G1 X0.766 Y-0.6428 Z-0.0367 E0.05
G1 X0.766 Y-0.6428 Z-0.044 E0.05
G1 X0.766 Y-0.6428 Z-0.0513 E0.05
G1 X0.766 Y-0.6428 Z-0.0587 E0.05
G1 X0.766 Y-0.6428 Z-0.066 E0.05
G1 X0.766 Y-0.6428 Z-0.0733 E0.05
G1 X0.1736 Y-0.9848 Z0.0733 E0.05
G1 X0.1736 Y-0.9848 Z0.066 E0.05
G1 X0.1736 Y-0.9848 Z0.0587 E0.05
G1 X0.1736 Y-0.9848 Z0.0513 E0.05
G1 X0.1736 Y-0.9848 Z0.044 E0.05
G1 X0.1736 Y-0.9848 Z0.0367 E0.05
G1 X0.1736 Y-0.9848 Z0.0293 E0.05
G1 X0.1736 Y-0.9848 Z0.022 E0.05
G1 X0.1736 Y-0.9848 Z0.0147 E0.05
G1 X0.1736 Y-0.9848 Z0.0073 E0.05
G1 X0.1736 Y-0.9848 Z0.0 E0.05
G1 X0.1736 Y-0.9848 Z-0.0073 E0.05
G1 X0.1736 Y-0.9848 Z-0.0147 E0.05
G1 X0.1736 Y-0.9848 Z-0.022 E0.05
G1 X0.1736 Y-0.9848 Z-0.0293 E0.05
G1 X0.1736 Y-0.9848 Z-0.0367 E0.05
G1 X0.1736 Y-0.9848 Z-0.044 E0.05
G1 X0.1736 Y-0.9848 Z-0.0513 E0.05
G1 X0.1736 Y-0.9848 Z-0.0587 E0.05
G1 X0.1736 Y-0.9848 Z-0.066 E0.05
G1 X0.1736 Y-0.9848 Z-0.0733 E0.05
G1 X-0.5 Y-0.866 Z0.0733 E0.05
G1 X-0.5 Y-0.866 Z0.066 E0.05
G1 X-0.5 Y-0.866 Z0.0587 E0.05
G1 X-0.5 Y-0.866 Z0.0513 E0.05
G1 X-0.5 Y-0.866 Z0.044 E0.05
G1 X-0.5 Y-0.866 Z0.0367 E0.05
G1 X-0.5 Y-0.866 Z0.0293 E0.05
G1 X-0.5 Y-0.866 Z0.022 E0.05
G1 X-0.5 Y-0.866 Z0.0147 E0.05
G1 X-0.5 Y-0.866 Z0.0073 E0.05
G1 X-0.5 Y-0.866 Z0.0 E0.05
G1 X-0.5 Y-0.866 Z-0.0073 E0.05
G1 X-0.5 Y-0.866 Z-0.0147 E0.05
G1 X-0.5 Y-0.866 Z-0.022 E0.05
G1 X-0.5 Y-0.866 Z-0.0293 E0.05
G1 X-0.5 Y-0.866 Z-0.0367 E0.05
G1 X-0.5 Y-0.866 Z-0.044 E0.05
G1 X-0.5 Y-0.866 Z-0.0513 E0.05
G1 X-0.5 Y-0.866 Z-0.0587 E0.05
G1 X-0.5 Y-0.866 Z-0.066 E0.05
G1 X-0.5 Y-0.866 Z-0.0733 E0.05
G1 X-0.9397 Y-0.342 Z0.0733 E0.05
G1 X-0.9397 Y-0.342 Z0.066 E0.05
G1 X-0.9397 Y-0.342 Z0.0587 E0.05
G1 X-0.9397 Y-0.342 Z0.0513 E0.05
G1 X-0.9397 Y-0.342 Z0.044 E0.05
G1 X-0.9397 Y-0.342 Z0.0367 E0.05
G1 X-0.9397 Y-0.342 Z0.0293 E0.05
G1 X-0.9397 Y-0.342 Z0.022 E0.05
G1 X-0.9397 Y-0.342 Z0.0147 E0.05
G1 X-0.9397 Y-0.342 Z0.0073 E0.05
G1 X-0.9397 Y-0.342 Z0.0 E0.05
G1 X-0.9397 Y-0.342 Z-0.0073 E0.05
G1 X-0.9397 Y-0.342 Z-0.0147 E0.05
G1 X-0.9397 Y-0.342 Z-0.022 E0.05
G1 X-0.9397 Y-0.342 Z-0.0293 E0.05
G1 X-0.9397 Y-0.342 Z-0.0367 E0.05
G1 X-0.9397 Y-0.342 Z-0.044 E0.05
G1 X-0.9397 Y-0.342 Z-0.0513 E0.05
G1 X-0.9397 Y-0.342 Z-0.0587 E0.05
G1 X-0.9397 Y-0.342 Z-0.066 E0.05
G1 X-0.9397 Y-0.342 Z-0.0733 E0.05
G1 X-0.9397 Y0.342 Z0.0733 E0.05
G1 X-0.9397 Y0.342 Z0.066 E0.05
G1 X-0.9397 Y0.342 Z0.0587 E0.05
G1 X-0.9397 Y0.342 Z0.0513 E0.05
G1 X-0.9397 Y0.342 Z0.044 E0.05
G1 X-0.9397 Y0.342 Z0.0367 E0.05
G1 X-0.9397 Y0.342 Z0.0293 E0.05
G1 X-0.9397 Y0.342 Z0.022 E0.05
G1 X-0.9397 Y0.342 Z0.0147 E0.05
G1 X-0.9397 Y0.342 Z0.0073 E0.05
G1 X-0.9397 Y0.342 Z0.0 E0.05
G1 X-0.9397 Y0.342 Z-0.0073 E0.05
G1 X-0.9397 Y0.342 Z-0.0147 E0.05
G1 X-0.9397 Y0.342 Z-0.022 E0.05
G1 X-0.9397 Y0.342 Z-0.0293 E0.05
G1 X-0.9397 Y0.342 Z-0.0367 E0.05
G1 X-0.9397 Y0.342 Z-0.044 E0.05
G1 X-0.9397 Y0.342 Z-0.0513 E0.05
G1 X-0.9397 Y0.342 Z-0.0587 E0.05
G1 X-0.9397 Y0.342 Z-0.066 E0.05
G1 X-0.9397 Y0.342 Z-0.0733 E0.05
G1 X-0.5 Y0.866 Z0.0733 E0.05
G1 X-0.5 Y0.866 Z0.066 E0.05
G1 X-0.5 Y0.866 Z0.0587 E0.05
G1 X-0.5 Y0.866 Z0.0513 E0.05
G1 X-0.5 Y0.866 Z0.044 E0.05
G1 X-0.5 Y0.866 Z0.0367 E0.05
G1 X-0.5 Y0.866 Z0.0293 E0.05
G1 X-0.5 Y0.866 Z0.022 E0.05
G1 X-0.5 Y0.866 Z0.0147 E0.05
G1 X-0.5 Y0.866 Z0.0073 E0.05
G1 X-0.5 Y0.866 Z0.0 E0.05
G1 X-0.5 Y0.866 Z-0.0073 E0.05
G1 X-0.5 Y0.866 Z-0.0147 E0.05
G1 X-0.5 Y0.866 Z-0.022 E0.05
G1 X-0.5 Y0.866 Z-0.0293 E0.05
G1 X-0.5 Y0.866 Z-0.0367 E0.05
G1 X-0.5 Y0.866 Z-0.044 E0.05
G1 X-0.5 Y0.866 Z-0.0513 E0.05
G1 X-0.5 Y0.866 Z-0.0587 E0.05
G1 X-0.5 Y0.866 Z-0.066 E0.05
G1 X-0.5 Y0.866 Z-0.0733 E0.05
G1 X0.1736 Y0.9848 Z0.0733 E0.05
G1 X0.1736 Y0.9848 Z0.066 E0.05
G1 X0.1736 Y0.9848 Z0.0587 E0.05
G1 X0.1736 Y0.9848 Z0.0513 E0.05
G1 X0.1736 Y0.9848 Z0.044 E0.05
G1 X0.1736 Y0.9848 Z0.0367 E0.05
G1 X0.1736 Y0.9848 Z0.0293 E0.05
G1 X0.1736 Y0.9848 Z0.022 E0.05
G1 X0.1736 Y0.9848 Z0.0147 E0.05
G1 X0.1736 Y0.9848 Z0.0073 E0.05
G1 X0.1736 Y0.9848 Z0.0 E0.05
G1 X0.1736 Y0.9848 Z-0.0073 E0.05
G1 X0.1736 Y0.9848 Z-0.0147 E0.05
G1 X0.1736 Y0.9848 Z-0.022 E0.05
G1 X0.1736 Y0.9848 Z-0.0293 E0.05
G1 X0.1736 Y0.9848 Z-0.0367 E0.05
G1 X0.1736 Y0.9848 Z-0.044 E0.05
G1 X0.1736 Y0.9848 Z-0.0513 E0.05
G1 X0.1736 Y0.9848 Z-0.0587 E0.05
G1 X0.1736 Y0.9848 Z-0.066 E0.05
G1 X0.1736 Y0.9848 Z-0.0733 E0.05
G1 X0.766 Y0.6428 Z0.0733 E0.05
G1 X0.766 Y0.6428 Z0.066 E0.05
G1 X0.766 Y0.6428 Z0.0587 E0.05
G1 X0.766 Y0.6428 Z0.0513 E0.05
G1 X0.766 Y0.6428 Z0.044 E0.05
G1 X0.766 Y0.6428 Z0.0367 E0.05
G1 X0.766 Y0.6428 Z0.0293 E0.05
G1 X0.766 Y0.6428 Z0.022 E0.05
G1 X0.766 Y0.6428 Z0.0147 E0.05
G1 X0.766 Y0.6428 Z0.0073 E0.05
G1 X0.766 Y0.6428 Z0.0 E0.05
G1 X0.766 Y0.6428 Z-0.0073 E0.05
G1 X0.766 Y0.6428 Z-0.0147 E0.05
G1 X0.766 Y0.6428 Z-0.022 E0.05
G1 X0.766 Y0.6428 Z-0.0293 E0.05
G1 X0.766 Y0.6428 Z-0.0367 E0.05
G1 X0.766 Y0.6428 Z-0.044 E0.05
G1 X0.766 Y0.6428 Z-0.0513 E0.05
G1 X0.766 Y0.6428 Z-0.0587 E0.05
G1 X0.766 Y0.6428 Z-0.066 E0.05
G1 X0.766 Y0.6428 Z-0.0733 E0.05
G1 X1.0 Y0.0 Z0.08 E0.05
G1 X1.0 Y0.0 Z0.072 E0.05
G1 X1.0 Y0.0 Z0.064 E0.05
G1 X1.0 Y0.0 Z0.056 E0.05
G1 X1.0 Y0.0 Z0.048 E0.05
G1 X1.0 Y0.0 Z0.04 E0.05
G1 X1.0 Y0.0 Z0.032 E0.05
G1 X1.0 Y0.0 Z0.024 E0.05
G1 X1.0 Y0.0 Z0.016 E0.05
G1 X1.0 Y0.0 Z0.008 E0.05
G1 X1.0 Y0.0 Z0.0 E0.05
G1 X1.0 Y0.0 Z-0.008 E0.05
G1 X1.0 Y0.0 Z-0.016 E0.05
G1 X1.0 Y0.0 Z-0.024 E0.05
G1 X1.0 Y0.0 Z-0.032 E0.05
G1 X1.0 Y0.0 Z-0.04 E0.05
G1 X1.0 Y0.0 Z-0.048 E0.05
G1 X1.0 Y0.0 Z-0.056 E0.05
G1 X1.0 Y0.0 Z-0.064 E0.05
G1 X1.0 Y0.0 Z-0.072 E0.05
G1 X1.0 Y0.0 Z-0.08 E0.05
G1 X0.766 Y-0.6428 Z0.08 E0.05
G1 X0.766 Y-0.6428 Z0.072 E0.05
G1 X0.766 Y-0.6428 Z0.064 E0.05
G1 X0.766 Y-0.6428 Z0.056 E0.05
G1 X0.766 Y-0.6428 Z0.048 E0.05
G1 X0.766 Y-0.6428 Z0.04 E0.05
G1 X0.766 Y-0.6428 Z0.032 E0.05
G1 X0.766 Y-0.6428 Z0.024 E0.05
G1 X0.766 Y-0.6428 Z0.016 E0.05
G1 X0.766 Y-0.6428 Z0.008 E0.05
G1 X0.766 Y-0.6428 Z0.0 E0.05
G1 X0.766 Y-0.6428 Z-0.008 E0.05
G1 X0.766 Y-0.6428 Z-0.016 E0.05
G1 X0.766 Y-0.6428 Z-0.024 E0.05
G1 X0.766 Y-0.6428 Z-0.032 E0.05
G1 X0.766 Y-0.6428 Z-0.04 E0.05
G1 X0.766 Y-0.6428 Z-0.048 E0.05
G1 X0.766 Y-0.6428 Z-0.056 E0.05
G1 X0.766 Y-0.6428 Z-0.064 E0.05
G1 X0.766 Y-0.6428 Z-0.072 E0.05
G1 X0.766 Y-0.6428 Z-0.08 E0.05
G1 X0.1736 Y-0.9848 Z0.08 E0.05
G1 X0.1736 Y-0.9848 Z0.072 E0.05
G1 X0.1736 Y-0.9848 Z0.064 E0.05
G1 X0.1736 Y-0.9848 Z0.056 E0.05
G1 X0.1736 Y-0.9848 Z0.048 E0.05
G1 X0.1736 Y-0.9848 Z0.04 E0.05
G1 X0.1736 Y-0.9848 Z0.032 E0.05
G1 X0.1736 Y-0.9848 Z0.024 E0.05
G1 X0.1736 Y-0.9848 Z0.016 E0.05
G1 X0.1736 Y-0.9848 Z0.008 E0.05
G1 X0.1736 Y-0.9848 Z0.0 E0.05
G1 X0.1736 Y-0.9848 Z-0.008 E0.05
G1 X0.1736 Y-0.9848 Z-0.016 E0.05
G1 X0.1736 Y-0.9848 Z-0.024 E0.05
G1 X0.1736 Y-0.9848 Z-0.032 E0.05
G1 X0.1736 Y-0.9848 Z-0.04 E0.05
G1 X0.1736 Y-0.9848 Z-0.048 E0.05
G1 X0.1736 Y-0.9848 Z-0.056 E0.05
G1 X0.1736 Y-0.9848 Z-0.064 E0.05
G1 X0.1736 Y-0.9848 Z-0.072 E0.05
G1 X0.1736 Y-0.9848 Z-0.08 E0.05
G1 X-0.5 Y-0.866 Z0.08 E0.05
G1 X-0.5 Y-0.866 Z0.072 E0.05
G1 X-0.5 Y-0.866 Z0.064 E0.05
G1 X-0.5 Y-0.866 Z0.056 E0.05
G1 X-0.5 Y-0.866 Z0.048 E0.05
G1 X-0.5 Y-0.866 Z0.04 E0.05
G1 X-0.5 Y-0.866 Z0.032 E0.05
G1 X-0.5 Y-0.866 Z0.024 E0.05
G1 X-0.5 Y-0.866 Z0.016 E0.05
G1 X-0.5 Y-0.866 Z0.008 E0.05
G1 X-0.5 Y-0.866 Z0.0 E0.05
G1 X-0.5 Y-0.866 Z-0.008 E0.05
G1 X-0.5 Y-0.866 Z-0.016 E0.05
G1 X-0.5 Y-0.866 Z-0.024 E0.05
G1 X-0.5 Y-0.866 Z-0.032 E0.05
G1 X-0.5 Y-0.866 Z-0.04 E0.05
G1 X-0.5 Y-0.866 Z-0.048 E0.05
G1 X-0.5 Y-0.866 Z-0.056 E0.05
G1 X-0.5 Y-0.866 Z-0.064 E0.05
G1 X-0.5 Y-0.866 Z-0.072 E0.05
G1 X-0.5 Y-0.866 Z-0.08 E0.05
G1 X-0.9397 Y-0.342 Z0.08 E0.05
G1 X-0.9397 Y-0.342 Z0.072 E0.05
G1 X-0.9397 Y-0.342 Z0.064 E0.05
G1 X-0.9397 Y-0.342 Z0.056 E0.05
G1 X-0.9397 Y-0.342 Z0.048 E0.05
G1 X-0.9397 Y-0.342 Z0.04 E0.05
G1 X-0.9397 Y-0.342 Z0.032 E0.05
G1 X-0.9397 Y-0.342 Z0.024 E0.05
G1 X-0.9397 Y-0.342 Z0.016 E0.05
G1 X-0.9397 Y-0.342 Z0.008 E0.05
G1 X-0.9397 Y-0.342 Z0.0 E0.05
G1 X-0.9397 Y-0.342 Z-0.008 E0.05
G1 X-0.9397 Y-0.342 Z-0.016 E0.05
G1 X-0.9397 Y-0.342 Z-0.024 E0.05
G1 X-0.9397 Y-0.342 Z-0.032 E0.05
G1 X-0.9397 Y-0.342 Z-0.04 E0.05
G1 X-0.9397 Y-0.342 Z-0.048 E0.05
G1 X-0.9397 Y-0.342 Z-0.056 E0.05
G1 X-0.9397 Y-0.342 Z-0.064 E0.05
G1 X-0.9397 Y-0.342 Z-0.072 E0.05
G1 X-0.9397 Y-0.342 Z-0.08 E0.05
G1 X-0.9397 Y0.342 Z0.08 E0.05
G1 X-0.9397 Y0.342 Z0.072 E0.05
G1 X-0.9397 Y0.342 Z0.064 E0.05
G1 X-0.9397 Y0.342 Z0.056 E0.05
G1 X-0.9397 Y0.342 Z0.048 E0.05
G1 X-0.9397 Y0.342 Z0.04 E0.05
G1 X-0.9397 Y0.342 Z0.032 E0.05
G1 X-0.9397 Y0.342 Z0.024 E0.05
G1 X-0.9397 Y0.342 Z0.016 E0.05
G1 X-0.9397 Y0.342 Z0.008 E0.05
G1 X-0.9397 Y0.342 Z0.0 E0.05
G1 X-0.9397 Y0.342 Z-0.008 E0.05
G1 X-0.9397 Y0.342 Z-0.016 E0.05
G1 X-0.9397 Y0.342 Z-0.024 E0.05
G1 X-0.9397 Y0.342 Z-0.032 E0.05
G1 X-0.9397 Y0.342 Z-0.04 E0.05
G1 X-0.9397 Y0.342 Z-0.048 E0.05
G1 X-0.9397 Y0.342 Z-0.056 E0.05
G1 X-0.9397 Y0.342 Z-0.064 E0.05
G1 X-0.9397 Y0.342 Z-0.072 E0.05
G1 X-0.9397 Y0.342 Z-0.08 E0.05
G1 X-0.5 Y0.866 Z0.08 E0.05
G1 X-0.5 Y0.866 Z0.072 E0.05
G1 X-0.5 Y0.866 Z0.064 E0.05
G1 X-0.5 Y0.866 Z0.056 E0.05
G1 X-0.5 Y0.866 Z0.048 E0.05
G1 X-0.5 Y0.866 Z0.04 E0.05
G1 X-0.5 Y0.866 Z0.032 E0.05
G1 X-0.5 Y0.866 Z0.024 E0.05
G1 X-0.5 Y0.866 Z0.016 E0.05
G1 X-0.5 Y0.866 Z0.008 E0.05
G1 X-0.5 Y0.866 Z0.0 E0.05
G1 X-0.5 Y0.866 Z-0.008 E0.05
G1 X-0.5 Y0.866 Z-0.016 E0.05
G1 X-0.5 Y0.866 Z-0.024 E0.05
G1 X-0.5 Y0.866 Z-0.032 E0.05
G1 X-0.5 Y0.866 Z-0.04 E0.05
G1 X-0.5 Y0.866 Z-0.048 E0.05
G1 X-0.5 Y0.866 Z-0.056 E0.05
G1 X-0.5 Y0.866 Z-0.064 E0.05
G1 X-0.5 Y0.866 Z-0.072 E0.05
G1 X-0.5 Y0.866 Z-0.08 E0.05
G1 X0.1736 Y0.9848 Z0.08 E0.05
G1 X0.1736 Y0.9848 Z0.072 E0.05
G1 X0.1736 Y0.9848 Z0.064 E0.05
G1 X0.1736 Y0.9848 Z0.056 E0.05
G1 X0.1736 Y0.9848 Z0.048 E0.05
G1 X0.1736 Y0.9848 Z0.04 E0.05
G1 X0.1736 Y0.9848 Z0.032 E0.05
G1 X0.1736 Y0.9848 Z0.024 E0.05
G1 X0.1736 Y0.9848 Z0.016 E0.05
G1 X0.1736 Y0.9848 Z0.008 E0.05
G1 X0.1736 Y0.9848 Z0.0 E0.05
G1 X0.1736 Y0.9848 Z-0.008 E0.05
G1 X0.1736 Y0.9848 Z-0.016 E0.05
G1 X0.1736 Y0.9848 Z-0.024 E0.05
G1 X0.1736 Y0.9848 Z-0.032 E0.05
G1 X0.1736 Y0.9848 Z-0.04 E0.05
G1 X0.1736 Y0.9848 Z-0.048 E0.05
G1 X0.1736 Y0.9848 Z-0.056 E0.05
G1 X0.1736 Y0.9848 Z-0.064 E0.05
G1 X0.1736 Y0.9848 Z-0.072 E0.05
G1 X0.1736 Y0.9848 Z-0.08 E0.05
G1 X0.766 Y0.6428 Z0.08 E0.05
G1 X0.766 Y0.6428 Z0.072 E0.05
G1 X0.766 Y0.6428 Z0.064 E0.05
G1 X0.766 Y0.6428 Z0.056 E0.05
G1 X0.766 Y0.6428 Z0.048 E0.05
G1 X0.766 Y0.6428 Z0.04 E0.05
G1 X0.766 Y0.6428 Z0.032 E0.05
G1 X0.766 Y0.6428 Z0.024 E0.05
G1 X0.766 Y0.6428 Z0.016 E0.05
G1 X0.766 Y0.6428 Z0.008 E0.05
G1 X0.766 Y0.6428 Z0.0 E0.05
G1 X0.766 Y0.6428 Z-0.008 E0.05
G1 X0.766 Y0.6428 Z-0.016 E0.05
G1 X0.766 Y0.6428 Z-0.024 E0.05
G1 X0.766 Y0.6428 Z-0.032 E0.05
G1 X0.766 Y0.6428 Z-0.04 E0.05
G1 X0.766 Y0.6428 Z-0.048 E0.05
G1 X0.766 Y0.6428 Z-0.056 E0.05
G1 X0.766 Y0.6428 Z-0.064 E0.05
G1 X0.766 Y0.6428 Z-0.072 E0.05
G1 X0.766 Y0.6428 Z-0.08 E0.05
G1 X1.0 Y0.0 Z0.0867 E0.05
G1 X1.0 Y0.0 Z0.078 E0.05
G1 X1.0 Y0.0 Z0.0693 E0.05
G1 X1.0 Y0.0 Z0.0607 E0.05
G1 X1.0 Y0.0 Z0.052 E0.05
G1 X1.0 Y0.0 Z0.0433 E0.05
G1 X1.0 Y0.0 Z0.0347 E0.05
G1 X1.0 Y0.0 Z0.026 E0.05
G1 X1.0 Y0.0 Z0.0173 E0.05
G1 X1.0 Y0.0 Z0.0087 E0.05
G1 X1.0 Y0.0 Z0.0 E0.05
G1 X1.0 Y0.0 Z-0.0087 E0.05
G1 X1.0 Y0.0 Z-0.0173 E0.05
G1 X1.0 Y0.0 Z-0.026 E0.05
G1 X1.0 Y0.0 Z-0.0347 E0.05
G1 X1.0 Y0.0 Z-0.0433 E0.05
G1 X1.0 Y0.0 Z-0.052 E0.05
G1 X1.0 Y0.0 Z-0.0607 E0.05
G1 X1.0 Y0.0 Z-0.0693 E0.05
G1 X1.0 Y0.0 Z-0.078 E0.05
G1 X1.0 Y0.0 Z-0.0867 E0.05
G1 X0.766 Y-0.6428 Z0.0867 E0.05
G1 X0.766 Y-0.6428 Z0.078 E0.05
G1 X0.766 Y-0.6428 Z0.0693 E0.05
G1 X0.766 Y-0.6428 Z0.0607 E0.05
G1 X0.766 Y-0.6428 Z0.052 E0.05
G1 X0.766 Y-0.6428 Z0.0433 E0.05
G1 X0.766 Y-0.6428 Z0.0347 E0.05
G1 X0.766 Y-0.6428 Z0.026 E0.05
G1 X0.766 Y-0.6428 Z0.0173 E0.05
G1 X0.766 Y-0.6428 Z0.0087 E0.05
G1 X0.766 Y-0.6428 Z0.0 E0.05
G1 X0.766 Y-0.6428 Z-0.0087 E0.05
G1 X0.766 Y-0.6428 Z-0.0173 E0.05
G1 X0.766 Y-0.6428 Z-0.026 E0.05
G1 X0.766 Y-0.6428 Z-0.0347 E0.05
G1 X0.766 Y-0.6428 Z-0.0433 E0.05
G1 X0.766 Y-0.6428 Z-0.052 E0.05
G1 X0.766 Y-0.6428 Z-0.0607 E0.05
G1 X0.766 Y-0.6428 Z-0.0693 E0.05
G1 X0.766 Y-0.6428 Z-0.078 E0.05
G1 X0.766 Y-0.6428 Z-0.0867 E0.05
G1 X0.1736 Y-0.9848 Z0.0867 E0.05
G1 X0.1736 Y-0.9848 Z0.078 E0.05
G1 X0.1736 Y-0.9848 Z0.0693 E0.05
G1 X0.1736 Y-0.9848 Z0.0607 E0.05
G1 X0.1736 Y-0.9848 Z0.052 E0.05
G1 X0.1736 Y-0.9848 Z0.0433 E0.05
G1 X0.1736 Y-0.9848 Z0.0347 E0.05
G1 X0.1736 Y-0.9848 Z0.026 E0.05
G1 X0.1736 Y-0.9848 Z0.0173 E0.05
G1 X0.1736 Y-0.9848 Z0.0087 E0.05
G1 X0.1736 Y-0.9848 Z0.0 E0.05
G1 X0.1736 Y-0.9848 Z-0.0087 E0.05
G1 X0.1736 Y-0.9848 Z-0.0173 E0.05
G1 X0.1736 Y-0.9848 Z-0.026 E0.05
G1 X0.1736 Y-0.9848 Z-0.0347 E0.05
G1 X0.1736 Y-0.9848 Z-0.0433 E0.05
G1 X0.1736 Y-0.9848 Z-0.052 E0.05
G1 X0.1736 Y-0.9848 Z-0.0607 E0.05
G1 X0.1736 Y-0.9848 Z-0.0693 E0.05
G1 X0.1736 Y-0.9848 Z-0.078 E0.05
G1 X0.1736 Y-0.9848 Z-0.0867 E0.05
G1 X-0.5 Y-0.866 Z0.0867 E0.05
G1 X-0.5 Y-0.866 Z0.078 E0.05
G1 X-0.5 Y-0.866 Z0.0693 E0.05
G1 X-0.5 Y-0.866 Z0.0607 E0.05
G1 X-0.5 Y-0.866 Z0.052 E0.05
G1 X-0.5 Y-0.866 Z0.0433 E0.05
G1 X-0.5 Y-0.866 Z0.0347 E0.05
G1 X-0.5 Y-0.866 Z0.026 E0.05
G1 X-0.5 Y-0.866 Z0.0173 E0.05
G1 X-0.5 Y-0.866 Z0.0087 E0.05
G1 X-0.5 Y-0.866 Z0.0 E0.05
G1 X-0.5 Y-0.866 Z-0.0087 E0.05
G1 X-0.5 Y-0.866 Z-0.0173 E0.05
G1 X-0.5 Y-0.866 Z-0.026 E0.05
G1 X-0.5 Y-0.866 Z-0.0347 E0.05
G1 X-0.5 Y-0.866 Z-0.0433 E0.05
G1 X-0.5 Y-0.866 Z-0.052 E0.05
G1 X-0.5 Y-0.866 Z-0.0607 E0.05
G1 X-0.5 Y-0.866 Z-0.0693 E0.05
G1 X-0.5 Y-0.866 Z-0.078 E0.05
G1 X-0.5 Y-0.866 Z-0.0867 E0.05
G1 X-0.9397 Y-0.342 Z0.0867 E0.05
G1 X-0.9397 Y-0.342 Z0.078 E0.05
G1 X-0.9397 Y-0.342 Z0.0693 E0.05
G1 X-0.9397 Y-0.342 Z0.0607 E0.05
G1 X-0.9397 Y-0.342 Z0.052 E0.05
G1 X-0.9397 Y-0.342 Z0.0433 E0.05
G1 X-0.9397 Y-0.342 Z0.0347 E0.05
G1 X-0.9397 Y-0.342 Z0.026 E0.05
G1 X-0.9397 Y-0.342 Z0.0173 E0.05
G1 X-0.9397 Y-0.342 Z0.0087 E0.05
G1 X-0.9397 Y-0.342 Z0.0 E0.05
G1 X-0.9397 Y-0.342 Z-0.0087 E0.05
G1 X-0.9397 Y-0.342 Z-0.0173 E0.05
G1 X-0.9397 Y-0.342 Z-0.026 E0.05
G1 X-0.9397 Y-0.342 Z-0.0347 E0.05
G1 X-0.9397 Y-0.342 Z-0.0433 E0.05
G1 X-0.9397 Y-0.342 Z-0.052 E0.05
G1 X-0.9397 Y-0.342 Z-0.0607 E0.05
G1 X-0.9397 Y-0.342 Z-0.0693 E0.05
G1 X-0.9397 Y-0.342 Z-0.078 E0.05
G1 X-0.9397 Y-0.342 Z-0.0867 E0.05
G1 X-0.9397 Y0.342 Z0.0867 E0.05
G1 X-0.9397 Y0.342 Z0.078 E0.05
G1 X-0.9397 Y0.342 Z0.0693 E0.05
G1 X-0.9397 Y0.342 Z0.0607 E0.05
G1 X-0.9397 Y0.342 Z0.052 E0.05
G1 X-0.9397 Y0.342 Z0.0433 E0.05
G1 X-0.9397 Y0.342 Z0.0347 E0.05
G1 X-0.9397 Y0.342 Z0.026 E0.05
G1 X-0.9397 Y0.342 Z0.0173 E0.05
G1 X-0.9397 Y0.342 Z0.0087 E0.05
G1 X-0.9397 Y0.342 Z0.0 E0.05
G1 X-0.9397 Y0.342 Z-0.0087 E0.05
G1 X-0.9397 Y0.342 Z-0.0173 E0.05
G1 X-0.9397 Y0.342 Z-0.026 E0.05
G1 X-0.9397 Y0.342 Z-0.0347 E0.05
G1 X-0.9397 Y0.342 Z-0.0433 E0.05
G1 X-0.9397 Y0.342 Z-0.052 E0.05
G1 X-0.9397 Y0.342 Z-0.0607 E0.05
G1 X-0.9397 Y0.342 Z-0.0693 E0.05
G1 X-0.9397 Y0.342 Z-0.078 E0.05
G1 X-0.9397 Y0.342 Z-0.0867 E0.05
G1 X-0.5 Y0.866 Z0.0867 E0.05
G1 X-0.5 Y0.866 Z0.078 E0.05
G1 X-0.5 Y0.866 Z0.0693 E0.05
G1 X-0.5 Y0.866 Z0.0607 E0.05
G1 X-0.5 Y0.866 Z0.052 E0.05
G1 X-0.5 Y0.866 Z0.0433 E0.05
G1 X-0.5 Y0.866 Z0.0347 E0.05
G1 X-0.5 Y0.866 Z0.026 E0.05
G1 X-0.5 Y0.866 Z0.0173 E0.05
G1 X-0.5 Y0.866 Z0.0087 E0.05
G1 X-0.5 Y0.866 Z0.0 E0.05
G1 X-0.5 Y0.866 Z-0.0087 E0.05
G1 X-0.5 Y0.866 Z-0.0173 E0.05
G1 X-0.5 Y0.866 Z-0.026 E0.05
G1 X-0.5 Y0.866 Z-0.0347 E0.05
G1 X-0.5 Y0.866 Z-0.0433 E0.05
G1 X-0.5 Y0.866 Z-0.052 E0.05
G1 X-0.5 Y0.866 Z-0.0607 E0.05
G1 X-0.5 Y0.866 Z-0.0693 E0.05
G1 X-0.5 Y0.866 Z-0.078 E0.05
G1 X-0.5 Y0.866 Z-0.0867 E0.05
G1 X0.1736 Y0.9848 Z0.0867 E0.05
G1 X0.1736 Y0.9848 Z0.078 E0.05
G1 X0.1736 Y0.9848 Z0.0693 E0.05
G1 X0.1736 Y0.9848 Z0.0607 E0.05
G1 X0.1736 Y0.9848 Z0.052 E0.05
G1 X0.1736 Y0.9848 Z0.0433 E0.05
G1 X0.1736 Y0.9848 Z0.0347 E0.05
G1 X0.1736 Y0.9848 Z0.026 E0.05
G1 X0.1736 Y0.9848 Z0.0173 E0.05
G1 X0.1736 Y0.9848 Z0.0087 E0.05
G1 X0.1736 Y0.9848 Z0.0 E0.05
G1 X0.1736 Y0.9848 Z-0.0087 E0.05
G1 X0.1736 Y0.9848 Z-0.0173 E0.05
G1 X0.1736 Y0.9848 Z-0.026 E0.05
G1 X0.1736 Y0.9848 Z-0.0347 E0.05
G1 X0.1736 Y0.9848 Z-0.0433 E0.05
G1 X0.1736 Y0.9848 Z-0.052 E0.05
G1 X0.1736 Y0.9848 Z-0.0607 E0.05
G1 X0.1736 Y0.9848 Z-0.0693 E0.05
G1 X0.1736 Y0.9848 Z-0.078 E0.05
G1 X0.1736 Y0.9848 Z-0.0867 E0.05
G1 X0.766 Y0.6428 Z0.0867 E0.05
G1 X0.766 Y0.6428 Z0.078 E0.05
G1 X0.766 Y0.6428 Z0.0693 E0.05
G1 X0.766 Y0.6428 Z0.0607 E0.05
G1 X0.766 Y0.6428 Z0.052 E0.05
G1 X0.766 Y0.6428 Z0.0433 E0.05
G1 X0.766 Y0.6428 Z0.0347 E0.05
G1 X0.766 Y0.6428 Z0.026 E0.05
G1 X0.766 Y0.6428 Z0.0173 E0.05
G1 X0.766 Y0.6428 Z0.0087 E0.05
G1 X0.766 Y0.6428 Z0.0 E0.05
G1 X0.766 Y0.6428 Z-0.0087 E0.05
G1 X0.766 Y0.6428 Z-0.0173 E0.05
G1 X0.766 Y0.6428 Z-0.026 E0.05
G1 X0.766 Y0.6428 Z-0.0347 E0.05
G1 X0.766 Y0.6428 Z-0.0433 E0.05
G1 X0.766 Y0.6428 Z-0.052 E0.05
G1 X0.766 Y0.6428 Z-0.0607 E0.05
G1 X0.766 Y0.6428 Z-0.0693 E0.05
G1 X0.766 Y0.6428 Z-0.078 E0.05
G1 X0.766 Y0.6428 Z-0.0867 E0.05
G1 X1.0 Y0.0 Z0.0933 E0.05
G1 X1.0 Y0.0 Z0.084 E0.05
G1 X1.0 Y0.0 Z0.0747 E0.05
G1 X1.0 Y0.0 Z0.0653 E0.05
G1 X1.0 Y0.0 Z0.056 E0.05
G1 X1.0 Y0.0 Z0.0467 E0.05
G1 X1.0 Y0.0 Z0.0373 E0.05
G1 X1.0 Y0.0 Z0.028 E0.05
G1 X1.0 Y0.0 Z0.0187 E0.05
G1 X1.0 Y0.0 Z0.0093 E0.05
G1 X1.0 Y0.0 Z0.0 E0.05
G1 X1.0 Y0.0 Z-0.0093 E0.05
G1 X1.0 Y0.0 Z-0.0187 E0.05
G1 X1.0 Y0.0 Z-0.028 E0.05
G1 X1.0 Y0.0 Z-0.0373 E0.05
G1 X1.0 Y0.0 Z-0.0467 E0.05
G1 X1.0 Y0.0 Z-0.056 E0.05
G1 X1.0 Y0.0 Z-0.0653 E0.05
G1 X1.0 Y0.0 Z-0.0747 E0.05
G1 X1.0 Y0.0 Z-0.084 E0.05
G1 X1.0 Y0.0 Z-0.0933 E0.05
G1 X0.766 Y-0.6428 Z0.0933 E0.05
G1 X0.766 Y-0.6428 Z0.084 E0.05
G1 X0.766 Y-0.6428 Z0.0747 E0.05
G1 X0.766 Y-0.6428 Z0.0653 E0.05
G1 X0.766 Y-0.6428 Z0.056 E0.05
G1 X0.766 Y-0.6428 Z0.0467 E0.05
G1 X0.766 Y-0.6428 Z0.0373 E0.05
G1 X0.766 Y-0.6428 Z0.028 E0.05
G1 X0.766 Y-0.6428 Z0.0187 E0.05
G1 X0.766 Y-0.6428 Z0.0093 E0.05
G1 X0.766 Y-0.6428 Z0.0 E0.05
G1 X0.766 Y-0.6428 Z-0.0093 E0.05
G1 X0.766 Y-0.6428 Z-0.0187 E0.05
G1 X0.766 Y-0.6428 Z-0.028 E0.05
G1 X0.766 Y-0.6428 Z-0.0373 E0.05
G1 X0.766 Y-0.6428 Z-0.0467 E0.05
G1 X0.766 Y-0.6428 Z-0.056 E0.05
G1 X0.766 Y-0.6428 Z-0.0653 E0.05
G1 X0.766 Y-0.6428 Z-0.0747 E0.05
G1 X0.766 Y-0.6428 Z-0.084 E0.05
G1 X0.766 Y-0.6428 Z-0.0933 E0.05
G1 X0.1736 Y-0.9848 Z0.0933 E0.05
G1 X0.1736 Y-0.9848 Z0.084 E0.05
G1 X0.1736 Y-0.9848 Z0.0747 E0.05
G1 X0.1736 Y-0.9848 Z0.0653 E0.05
G1 X0.1736 Y-0.9848 Z0.056 E0.05
G1 X0.1736 Y-0.9848 Z0.0467 E0.05
G1 X0.1736 Y-0.9848 Z0.0373 E0.05
G1 X0.1736 Y-0.9848 Z0.028 E0.05
G1 X0.1736 Y-0.9848 Z0.0187 E0.05
G1 X0.1736 Y-0.9848 Z0.0093 E0.05
G1 X0.1736 Y-0.9848 Z0.0 E0.05
G1 X0.1736 Y-0.9848 Z-0.0093 E0.05
G1 X0.1736 Y-0.9848 Z-0.0187 E0.05
G1 X0.1736 Y-0.9848 Z-0.028 E0.05
G1 X0.1736 Y-0.9848 Z-0.0373 E0.05
G1 X0.1736 Y-0.9848 Z-0.0467 E0.05
G1 X0.1736 Y-0.9848 Z-0.056 E0.05
G1 X0.1736 Y-0.9848 Z-0.0653 E0.05
G1 X0.1736 Y-0.9848 Z-0.0747 E0.05
G1 X0.1736 Y-0.9848 Z-0.084 E0.05
G1 X0.1736 Y-0.9848 Z-0.0933 E0.05
G1 X-0.5 Y-0.866 Z0.0933 E0.05
G1 X-0.5 Y-0.866 Z0.084 E0.05
G1 X-0.5 Y-0.866 Z0.0747 E0.05
G1 X-0.5 Y-0.866 Z0.0653 E0.05
G1 X-0.5 Y-0.866 Z0.056 E0.05
G1 X-0.5 Y-0.866 Z0.0467 E0.05
G1 X-0.5 Y-0.866 Z0.0373 E0.05
G1 X-0.5 Y-0.866 Z0.028 E0.05
G1 X-0.5 Y-0.866 Z0.0187 E0.05
G1 X-0.5 Y-0.866 Z0.0093 E0.05
G1 X-0.5 Y-0.866 Z0.0 E0.05
G1 X-0.5 Y-0.866 Z-0.0093 E0.05
G1 X-0.5 Y-0.866 Z-0.0187 E0.05
G1 X-0.5 Y-0.866 Z-0.028 E0.05
G1 X-0.5 Y-0.866 Z-0.0373 E0.05
G1 X-0.5 Y-0.866 Z-0.0467 E0.05
G1 X-0.5 Y-0.866 Z-0.056 E0.05
G1 X-0.5 Y-0.866 Z-0.0653 E0.05
G1 X-0.5 Y-0.866 Z-0.0747 E0.05
G1 X-0.5 Y-0.866 Z-0.084 E0.05
G1 X-0.5 Y-0.866 Z-0.0933 E0.05
G1 X-0.9397 Y-0.342 Z0.0933 E0.05
G1 X-0.9397 Y-0.342 Z0.084 E0.05
G1 X-0.9397 Y-0.342 Z0.0747 E0.05
G1 X-0.9397 Y-0.342 Z0.0653 E0.05
G1 X-0.9397 Y-0.342 Z0.056 E0.05
G1 X-0.9397 Y-0.342 Z0.0467 E0.05
G1 X-0.9397 Y-0.342 Z0.0373 E0.05
G1 X-0.9397 Y-0.342 Z0.028 E0.05
G1 X-0.9397 Y-0.342 Z0.0187 E0.05
G1 X-0.9397 Y-0.342 Z0.0093 E0.05
G1 X-0.9397 Y-0.342 Z0.0 E0.05
G1 X-0.9397 Y-0.342 Z-0.0093 E0.05
G1 X-0.9397 Y-0.342 Z-0.0187 E0.05
G1 X-0.9397 Y-0.342 Z-0.028 E0.05
G1 X-0.9397 Y-0.342 Z-0.0373 E0.05
G1 X-0.9397 Y-0.342 Z-0.0467 E0.05
G1 X-0.9397 Y-0.342 Z-0.056 E0.05
G1 X-0.9397 Y-0.342 Z-0.0653 E0.05
G1 X-0.9397 Y-0.342 Z-0.0747 E0.05
G1 X-0.9397 Y-0.342 Z-0.084 E0.05
G1 X-0.9397 Y-0.342 Z-0.0933 E0.05
G1 X-0.9397 Y0.342 Z0.0933 E0.05
G1 X-0.9397 Y0.342 Z0.084 E0.05
G1 X-0.9397 Y0.342 Z0.0747 E0.05
G1 X-0.9397 Y0.342 Z0.0653 E0.05
G1 X-0.9397 Y0.342 Z0.056 E0.05
G1 X-0.9397 Y0.342 Z0.0467 E0.05
G1 X-0.9397 Y0.342 Z0.0373 E0.05
G1 X-0.9397 Y0.342 Z0.028 E0.05
G1 X-0.9397 Y0.342 Z0.0187 E0.05
G1 X-0.9397 Y0.342 Z0.0093 E0.05
G1 X-0.9397 Y0.342 Z0.0 E0.05
G1 X-0.9397 Y0.342 Z-0.0093 E0.05
G1 X-0.9397 Y0.342 Z-0.0187 E0.05
G1 X-0.9397 Y0.342 Z-0.028 E0.05
G1 X-0.9397 Y0.342 Z-0.0373 E0.05
G1 X-0.9397 Y0.342 Z-0.0467 E0.05
G1 X-0.9397 Y0.342 Z-0.056 E0.05
G1 X-0.9397 Y0.342 Z-0.0653 E0.05
G1 X-0.9397 Y0.342 Z-0.0747 E0.05
G1 X-0.9397 Y0.342 Z-0.084 E0.05
G1 X-0.9397 Y0.342 Z-0.0933 E0.05
G1 X-0.5 Y0.866 Z0.0933 E0.05
G1 X-0.5 Y0.866 Z0.084 E0.05
G1 X-0.5 Y0.866 Z0.0747 E0.05
G1 X-0.5 Y0.866 Z0.0653 E0.05
G1 X-0.5 Y0.866 Z0.056 E0.05
G1 X-0.5 Y0.866 Z0.0467 E0.05
G1 X-0.5 Y0.866 Z0.0373 E0.05
G1 X-0.5 Y0.866 Z0.028 E0.05
G1 X-0.5 Y0.866 Z0.0187 E0.05
G1 X-0.5 Y0.866 Z0.0093 E0.05
G1 X-0.5 Y0.866 Z0.0 E0.05
G1 X-0.5 Y0.866 Z-0.0093 E0.05
G1 X-0.5 Y0.866 Z-0.0187 E0.05
G1 X-0.5 Y0.866 Z-0.028 E0.05
G1 X-0.5 Y0.866 Z-0.0373 E0.05
G1 X-0.5 Y0.866 Z-0.0467 E0.05
G1 X-0.5 Y0.866 Z-0.056 E0.05
G1 X-0.5 Y0.866 Z-0.0653 E0.05
G1 X-0.5 Y0.866 Z-0.0747 E0.05
G1 X-0.5 Y0.866 Z-0.084 E0.05
G1 X-0.5 Y0.866 Z-0.0933 E0.05
G1 X0.1736 Y0.9848 Z0.0933 E0.05
G1 X0.1736 Y0.9848 Z0.084 E0.05
G1 X0.1736 Y0.9848 Z0.0747 E0.05
G1 X0.1736 Y0.9848 Z0.0653 E0.05
G1 X0.1736 Y0.9848 Z0.056 E0.05
G1 X0.1736 Y0.9848 Z0.0467 E0.05
G1 X0.1736 Y0.9848 Z0.0373 E0.05
G1 X0.1736 Y0.9848 Z0.028 E0.05
G1 X0.1736 Y0.9848 Z0.0187 E0.05
G1 X0.1736 Y0.9848 Z0.0093 E0.05
G1 X0.1736 Y0.9848 Z0.0 E0.05
G1 X0.1736 Y0.9848 Z-0.0093 E0.05
G1 X0.1736 Y0.9848 Z-0.0187 E0.05
G1 X0.1736 Y0.9848 Z-0.028 E0.05
G1 X0.1736 Y0.9848 Z-0.0373 E0.05
G1 X0.1736 Y0.9848 Z-0.0467 E0.05
G1 X0.1736 Y0.9848 Z-0.056 E0.05
G1 X0.1736 Y0.9848 Z-0.0653 E0.05
G1 X0.1736 Y0.9848 Z-0.0747 E0.05
G1 X0.1736 Y0.9848 Z-0.084 E0.05
G1 X0.1736 Y0.9848 Z-0.0933 E0.05
G1 X0.766 Y0.6428 Z0.0933 E0.05
G1 X0.766 Y0.6428 Z0.084 E0.05
G1 X0.766 Y0.6428 Z0.0747 E0.05
G1 X0.766 Y0.6428 Z0.0653 E0.05
G1 X0.766 Y0.6428 Z0.056 E0.05
G1 X0.766 Y0.6428 Z0.0467 E0.05
G1 X0.766 Y0.6428 Z0.0373 E0.05
G1 X0.766 Y0.6428 Z0.028 E0.05
G1 X0.766 Y0.6428 Z0.0187 E0.05
G1 X0.766 Y0.6428 Z0.0093 E0.05
G1 X0.766 Y0.6428 Z0.0 E0.05
G1 X0.766 Y0.6428 Z-0.0093 E0.05
G1 X0.766 Y0.6428 Z-0.0187 E0.05
G1 X0.766 Y0.6428 Z-0.028 E0.05
G1 X0.766 Y0.6428 Z-0.0373 E0.05
G1 X0.766 Y0.6428 Z-0.0467 E0.05
G1 X0.766 Y0.6428 Z-0.056 E0.05
G1 X0.766 Y0.6428 Z-0.0653 E0.05
G1 X0.766 Y0.6428 Z-0.0747 E0.05
G1 X0.766 Y0.6428 Z-0.084 E0.05
G1 X0.766 Y0.6428 Z-0.0933 E0.05
G1 X1.0 Y0.0 Z0.1 E0.05
G1 X1.0 Y0.0 Z0.09 E0.05
G1 X1.0 Y0.0 Z0.08 E0.05
G1 X1.0 Y0.0 Z0.07 E0.05
G1 X1.0 Y0.0 Z0.06 E0.05
G1 X1.0 Y0.0 Z0.05 E0.05
G1 X1.0 Y0.0 Z0.04 E0.05
G1 X1.0 Y0.0 Z0.03 E0.05
G1 X1.0 Y0.0 Z0.02 E0.05
G1 X1.0 Y0.0 Z0.01 E0.05
G1 X1.0 Y0.0 Z0.0 E0.05
G1 X1.0 Y0.0 Z-0.01 E0.05
G1 X1.0 Y0.0 Z-0.02 E0.05
G1 X1.0 Y0.0 Z-0.03 E0.05
G1 X1.0 Y0.0 Z-0.04 E0.05
G1 X1.0 Y0.0 Z-0.05 E0.05
G1 X1.0 Y0.0 Z-0.06 E0.05
G1 X1.0 Y0.0 Z-0.07 E0.05
G1 X1.0 Y0.0 Z-0.08 E0.05
G1 X1.0 Y0.0 Z-0.09 E0.05
G1 X1.0 Y0.0 Z-0.1 E0.05
G1 X0.766 Y-0.6428 Z0.1 E0.05
G1 X0.766 Y-0.6428 Z0.09 E0.05
G1 X0.766 Y-0.6428 Z0.08 E0.05
G1 X0.766 Y-0.6428 Z0.07 E0.05
G1 X0.766 Y-0.6428 Z0.06 E0.05
G1 X0.766 Y-0.6428 Z0.05 E0.05
G1 X0.766 Y-0.6428 Z0.04 E0.05
G1 X0.766 Y-0.6428 Z0.03 E0.05
G1 X0.766 Y-0.6428 Z0.02 E0.05
G1 X0.766 Y-0.6428 Z0.01 E0.05
G1 X0.766 Y-0.6428 Z0.0 E0.05
G1 X0.766 Y-0.6428 Z-0.01 E0.05
G1 X0.766 Y-0.6428 Z-0.02 E0.05
G1 X0.766 Y-0.6428 Z-0.03 E0.05
G1 X0.766 Y-0.6428 Z-0.04 E0.05
G1 X0.766 Y-0.6428 Z-0.05 E0.05
G1 X0.766 Y-0.6428 Z-0.06 E0.05
G1 X0.766 Y-0.6428 Z-0.07 E0.05
G1 X0.766 Y-0.6428 Z-0.08 E0.05
G1 X0.766 Y-0.6428 Z-0.09 E0.05
G1 X0.766 Y-0.6428 Z-0.1 E0.05
G1 X0.1736 Y-0.9848 Z0.1 E0.05
G1 X0.1736 Y-0.9848 Z0.09 E0.05
G1 X0.1736 Y-0.9848 Z0.08 E0.05
G1 X0.1736 Y-0.9848 Z0.07 E0.05
G1 X0.1736 Y-0.9848 Z0.06 E0.05
G1 X0.1736 Y-0.9848 Z0.05 E0.05
G1 X0.1736 Y-0.9848 Z0.04 E0.05
G1 X0.1736 Y-0.9848 Z0.03 E0.05
G1 X0.1736 Y-0.9848 Z0.02 E0.05
G1 X0.1736 Y-0.9848 Z0.01 E0.05
G1 X0.1736 Y-0.9848 Z0.0 E0.05
G1 X0.1736 Y-0.9848 Z-0.01 E0.05
G1 X0.1736 Y-0.9848 Z-0.02 E0.05
G1 X0.1736 Y-0.9848 Z-0.03 E0.05
G1 X0.1736 Y-0.9848 Z-0.04 E0.05
G1 X0.1736 Y-0.9848 Z-0.05 E0.05
G1 X0.1736 Y-0.9848 Z-0.06 E0.05
G1 X0.1736 Y-0.9848 Z-0.07 E0.05
G1 X0.1736 Y-0.9848 Z-0.08 E0.05
G1 X0.1736 Y-0.9848 Z-0.09 E0.05
G1 X0.1736 Y-0.9848 Z-0.1 E0.05
G1 X-0.5 Y-0.866 Z0.1 E0.05
G1 X-0.5 Y-0.866 Z0.09 E0.05
G1 X-0.5 Y-0.866 Z0.08 E0.05
G1 X-0.5 Y-0.866 Z0.07 E0.05
G1 X-0.5 Y-0.866 Z0.06 E0.05
G1 X-0.5 Y-0.866 Z0.05 E0.05
G1 X-0.5 Y-0.866 Z0.04 E0.05
G1 X-0.5 Y-0.866 Z0.03 E0.05
G1 X-0.5 Y-0.866 Z0.02 E0.05
G1 X-0.5 Y-0.866 Z0.01 E0.05
G1 X-0.5 Y-0.866 Z0.0 E0.05
G1 X-0.5 Y-0.866 Z-0.01 E0.05
G1 X-0.5 Y-0.866 Z-0.02 E0.05
G1 X-0.5 Y-0.866 Z-0.03 E0.05
G1 X-0.5 Y-0.866 Z-0.04 E0.05
G1 X-0.5 Y-0.866 Z-0.05 E0.05
G1 X-0.5 Y-0.866 Z-0.06 E0.05
G1 X-0.5 Y-0.866 Z-0.07 E0.05
G1 X-0.5 Y-0.866 Z-0.08 E0.05
G1 X-0.5 Y-0.866 Z-0.09 E0.05
G1 X-0.5 Y-0.866 Z-0.1 E0.05
G1 X-0.9397 Y-0.342 Z0.1 E0.05
G1 X-0.9397 Y-0.342 Z0.09 E0.05
G1 X-0.9397 Y-0.342 Z0.08 E0.05
G1 X-0.9397 Y-0.342 Z0.07 E0.05
G1 X-0.9397 Y-0.342 Z0.06 E0.05
G1 X-0.9397 Y-0.342 Z0.05 E0.05
G1 X-0.9397 Y-0.342 Z0.04 E0.05
G1 X-0.9397 Y-0.342 Z0.03 E0.05
G1 X-0.9397 Y-0.342 Z0.02 E0.05
G1 X-0.9397 Y-0.342 Z0.01 E0.05
G1 X-0.9397 Y-0.342 Z0.0 E0.05
G1 X-0.9397 Y-0.342 Z-0.01 E0.05
G1 X-0.9397 Y-0.342 Z-0.02 E0.05
G1 X-0.9397 Y-0.342 Z-0.03 E0.05
G1 X-0.9397 Y-0.342 Z-0.04 E0.05
G1 X-0.9397 Y-0.342 Z-0.05 E0.05
G1 X-0.9397 Y-0.342 Z-0.06 E0.05
G1 X-0.9397 Y-0.342 Z-0.07 E0.05
G1 X-0.9397 Y-0.342 Z-0.08 E0.05
G1 X-0.9397 Y-0.342 Z-0.09 E0.05
G1 X-0.9397 Y-0.342 Z-0.1 E0.05
G1 X-0.9397 Y0.342 Z0.1 E0.05
G1 X-0.9397 Y0.342 Z0.09 E0.05
G1 X-0.9397 Y0.342 Z0.08 E0.05
G1 X-0.9397 Y0.342 Z0.07 E0.05
G1 X-0.9397 Y0.342 Z0.06 E0.05
G1 X-0.9397 Y0.342 Z0.05 E0.05
G1 X-0.9397 Y0.342 Z0.04 E0.05
G1 X-0.9397 Y0.342 Z0.03 E0.05
G1 X-0.9397 Y0.342 Z0.02 E0.05
G1 X-0.9397 Y0.342 Z0.01 E0.05
G1 X-0.9397 Y0.342 Z0.0 E0.05
G1 X-0.9397 Y0.342 Z-0.01 E0.05
G1 X-0.9397 Y0.342 Z-0.02 E0.05
G1 X-0.9397 Y0.342 Z-0.03 E0.05
G1 X-0.9397 Y0.342 Z-0.04 E0.05
G1 X-0.9397 Y0.342 Z-0.05 E0.05
G1 X-0.9397 Y0.342 Z-0.06 E0.05
G1 X-0.9397 Y0.342 Z-0.07 E0.05
G1 X-0.9397 Y0.342 Z-0.08 E0.05
G1 X-0.9397 Y0.342 Z-0.09 E0.05
G1 X-0.9397 Y0.342 Z-0.1 E0.05
G1 X-0.5 Y0.866 Z0.1 E0.05
G1 X-0.5 Y0.866 Z0.09 E0.05
G1 X-0.5 Y0.866 Z0.08 E0.05
G1 X-0.5 Y0.866 Z0.07 E0.05
G1 X-0.5 Y0.866 Z0.06 E0.05
G1 X-0.5 Y0.866 Z0.05 E0.05
G1 X-0.5 Y0.866 Z0.04 E0.05
G1 X-0.5 Y0.866 Z0.03 E0.05
G1 X-0.5 Y0.866 Z0.02 E0.05
G1 X-0.5 Y0.866 Z0.01 E0.05
G1 X-0.5 Y0.866 Z0.0 E0.05
G1 X-0.5 Y0.866 Z-0.01 E0.05
G1 X-0.5 Y0.866 Z-0.02 E0.05
G1 X-0.5 Y0.866 Z-0.03 E0.05
G1 X-0.5 Y0.866 Z-0.04 E0.05
G1 X-0.5 Y0.866 Z-0.05 E0.05
G1 X-0.5 Y0.866 Z-0.06 E0.05
G1 X-0.5 Y0.866 Z-0.07 E0.05
G1 X-0.5 Y0.866 Z-0.08 E0.05
G1 X-0.5 Y0.866 Z-0.09 E0.05
G1 X-0.5 Y0.866 Z-0.1 E0.05
G1 X0.1736 Y0.9848 Z0.1 E0.05
G1 X0.1736 Y0.9848 Z0.09 E0.05
G1 X0.1736 Y0.9848 Z0.08 E0.05
G1 X0.1736 Y0.9848 Z0.07 E0.05
G1 X0.1736 Y0.9848 Z0.06 E0.05
G1 X0.1736 Y0.9848 Z0.05 E0.05
G1 X0.1736 Y0.9848 Z0.04 E0.05
G1 X0.1736 Y0.9848 Z0.03 E0.05
G1 X0.1736 Y0.9848 Z0.02 E0.05
G1 X0.1736 Y0.9848 Z0.01 E0.05
G1 X0.1736 Y0.9848 Z0.0 E0.05
G1 X0.1736 Y0.9848 Z-0.01 E0.05
G1 X0.1736 Y0.9848 Z-0.02 E0.05
G1 X0.1736 Y0.9848 Z-0.03 E0.05
G1 X0.1736 Y0.9848 Z-0.04 E0.05
G1 X0.1736 Y0.9848 Z-0.05 E0.05
G1 X0.1736 Y0.9848 Z-0.06 E0.05
G1 X0.1736 Y0.9848 Z-0.07 E0.05
G1 X0.1736 Y0.9848 Z-0.08 E0.05
G1 X0.1736 Y0.9848 Z-0.09 E0.05
G1 X0.1736 Y0.9848 Z-0.1 E0.05
G1 X0.766 Y0.6428 Z0.1 E0.05
G1 X0.766 Y0.6428 Z0.09 E0.05
G1 X0.766 Y0.6428 Z0.08 E0.05
G1 X0.766 Y0.6428 Z0.07 E0.05
G1 X0.766 Y0.6428 Z0.06 E0.05
G1 X0.766 Y0.6428 Z0.05 E0.05
G1 X0.766 Y0.6428 Z0.04 E0.05
G1 X0.766 Y0.6428 Z0.03 E0.05
G1 X0.766 Y0.6428 Z0.02 E0.05
G1 X0.766 Y0.6428 Z0.01 E0.05
G1 X0.766 Y0.6428 Z0.0 E0.05
G1 X0.766 Y0.6428 Z-0.01 E0.05
G1 X0.766 Y0.6428 Z-0.02 E0.05
G1 X0.766 Y0.6428 Z-0.03 E0.05
G1 X0.766 Y0.6428 Z-0.04 E0.05
G1 X0.766 Y0.6428 Z-0.05 E0.05
G1 X0.766 Y0.6428 Z-0.06 E0.05
G1 X0.766 Y0.6428 Z-0.07 E0.05
G1 X0.766 Y0.6428 Z-0.08 E0.05
G1 X0.766 Y0.6428 Z-0.09 E0.05
G1 X0.766 Y0.6428 Z-0.1 E0.05
G1 X1.0 Y0.0 Z0.1067 E0.05
G1 X1.0 Y0.0 Z0.096 E0.05
G1 X1.0 Y0.0 Z0.0853 E0.05
G1 X1.0 Y0.0 Z0.0747 E0.05
G1 X1.0 Y0.0 Z0.064 E0.05
G1 X1.0 Y0.0 Z0.0533 E0.05
G1 X1.0 Y0.0 Z0.0427 E0.05
G1 X1.0 Y0.0 Z0.032 E0.05
G1 X1.0 Y0.0 Z0.0213 E0.05
G1 X1.0 Y0.0 Z0.0107 E0.05
G1 X1.0 Y0.0 Z0.0 E0.05
G1 X1.0 Y0.0 Z-0.0107 E0.05
G1 X1.0 Y0.0 Z-0.0213 E0.05
G1 X1.0 Y0.0 Z-0.032 E0.05
G1 X1.0 Y0.0 Z-0.0427 E0.05
G1 X1.0 Y0.0 Z-0.0533 E0.05
G1 X1.0 Y0.0 Z-0.064 E0.05
G1 X1.0 Y0.0 Z-0.0747 E0.05
G1 X1.0 Y0.0 Z-0.0853 E0.05
G1 X1.0 Y0.0 Z-0.096 E0.05
G1 X1.0 Y0.0 Z-0.1067 E0.05
G1 X0.766 Y-0.6428 Z0.1067 E0.05
G1 X0.766 Y-0.6428 Z0.096 E0.05
G1 X0.766 Y-0.6428 Z0.0853 E0.05
G1 X0.766 Y-0.6428 Z0.0747 E0.05
G1 X0.766 Y-0.6428 Z0.064 E0.05
G1 X0.766 Y-0.6428 Z0.0533 E0.05
G1 X0.766 Y-0.6428 Z0.0427 E0.05
G1 X0.766 Y-0.6428 Z0.032 E0.05
G1 X0.766 Y-0.6428 Z0.0213 E0.05
G1 X0.766 Y-0.6428 Z0.0107 E0.05
G1 X0.766 Y-0.6428 Z0.0 E0.05
G1 X0.766 Y-0.6428 Z-0.0107 E0.05
G1 X0.766 Y-0.6428 Z-0.0213 E0.05
G1 X0.766 Y-0.6428 Z-0.032 E0.05
G1 X0.766 Y-0.6428 Z-0.0427 E0.05
G1 X0.766 Y-0.6428 Z-0.0533 E0.05
G1 X0.766 Y-0.6428 Z-0.064 E0.05
G1 X0.766 Y-0.6428 Z-0.0747 E0.05
G1 X0.766 Y-0.6428 Z-0.0853 E0.05
G1 X0.766 Y-0.6428 Z-0.096 E0.05
G1 X0.766 Y-0.6428 Z-0.1067 E0.05
G1 X0.1736 Y-0.9848 Z0.1067 E0.05
G1 X0.1736 Y-0.9848 Z0.096 E0.05
G1 X0.1736 Y-0.9848 Z0.0853 E0.05
G1 X0.1736 Y-0.9848 Z0.0747 E0.05
G1 X0.1736 Y-0.9848 Z0.064 E0.05
G1 X0.1736 Y-0.9848 Z0.0533 E0.05
G1 X0.1736 Y-0.9848 Z0.0427 E0.05
G1 X0.1736 Y-0.9848 Z0.032 E0.05
G1 X0.1736 Y-0.9848 Z0.0213 E0.05
G1 X0.1736 Y-0.9848 Z0.0107 E0.05
G1 X0.1736 Y-0.9848 Z0.0 E0.05
G1 X0.1736 Y-0.9848 Z-0.0107 E0.05
G1 X0.1736 Y-0.9848 Z-0.0213 E0.05
G1 X0.1736 Y-0.9848 Z-0.032 E0.05
G1 X0.1736 Y-0.9848 Z-0.0427 E0.05
G1 X0.1736 Y-0.9848 Z-0.0533 E0.05
G1 X0.1736 Y-0.9848 Z-0.064 E0.05
G1 X0.1736 Y-0.9848 Z-0.0747 E0.05
G1 X0.1736 Y-0.9848 Z-0.0853 E0.05
G1 X0.1736 Y-0.9848 Z-0.096 E0.05
G1 X0.1736 Y-0.9848 Z-0.1067 E0.05
G1 X-0.5 Y-0.866 Z0.1067 E0.05
G1 X-0.5 Y-0.866 Z0.096 E0.05
G1 X-0.5 Y-0.866 Z0.0853 E0.05
G1 X-0.5 Y-0.866 Z0.0747 E0.05
G1 X-0.5 Y-0.866 Z0.064 E0.05
G1 X-0.5 Y-0.866 Z0.0533 E0.05
G1 X-0.5 Y-0.866 Z0.0427 E0.05
G1 X-0.5 Y-0.866 Z0.032 E0.05
G1 X-0.5 Y-0.866 Z0.0213 E0.05
G1 X-0.5 Y-0.866 Z0.0107 E0.05
G1 X-0.5 Y-0.866 Z0.0 E0.05
G1 X-0.5 Y-0.866 Z-0.0107 E0.05
G1 X-0.5 Y-0.866 Z-0.0213 E0.05
G1 X-0.5 Y-0.866 Z-0.032 E0.05
G1 X-0.5 Y-0.866 Z-0.0427 E0.05
G1 X-0.5 Y-0.866 Z-0.0533 E0.05
G1 X-0.5 Y-0.866 Z-0.064 E0.05
G1 X-0.5 Y-0.866 Z-0.0747 E0.05
G1 X-0.5 Y-0.866 Z-0.0853 E0.05
G1 X-0.5 Y-0.866 Z-0.096 E0.05
G1 X-0.5 Y-0.866 Z-0.1067 E0.05
G1 X-0.9397 Y-0.342 Z0.1067 E0.05
G1 X-0.9397 Y-0.342 Z0.096 E0.05
G1 X-0.9397 Y-0.342 Z0.0853 E0.05
G1 X-0.9397 Y-0.342 Z0.0747 E0.05
G1 X-0.9397 Y-0.342 Z0.064 E0.05
G1 X-0.9397 Y-0.342 Z0.0533 E0.05
G1 X-0.9397 Y-0.342 Z0.0427 E0.05
G1 X-0.9397 Y-0.342 Z0.032 E0.05
G1 X-0.9397 Y-0.342 Z0.0213 E0.05
G1 X-0.9397 Y-0.342 Z0.0107 E0.05
G1 X-0.9397 Y-0.342 Z0.0 E0.05
G1 X-0.9397 Y-0.342 Z-0.0107 E0.05
G1 X-0.9397 Y-0.342 Z-0.0213 E0.05
G1 X-0.9397 Y-0.342 Z-0.032 E0.05
G1 X-0.9397 Y-0.342 Z-0.0427 E0.05
G1 X-0.9397 Y-0.342 Z-0.0533 E0.05
G1 X-0.9397 Y-0.342 Z-0.064 E0.05
G1 X-0.9397 Y-0.342 Z-0.0747 E0.05
G1 X-0.9397 Y-0.342 Z-0.0853 E0.05
G1 X-0.9397 Y-0.342 Z-0.096 E0.05
G1 X-0.9397 Y-0.342 Z-0.1067 E0.05
