; *************************************************
; *************************************************
; ******* File generated by Extruder Turtle *******
; ******* written by Leah Buechley and  ***********
; ******* and Franklin Pezutti-Dyer ***************
; **** Hand and Machine Lab, UNM, 2021-present ****
; *************************************************
; *************************************************
; ********** Default printer parameters ***********
; Printer: ender
; Nozzle size: 0.2
; Extrude width: 0.4
; Layer height: 0.2
; Extrude rate: 0.05
; Speed: 1000
; Mix Factor: 0.9
; *************** Ender initialization **************
G92 E0 ; Reset Extruder 
G28 ; Home all axes
G90 ; Absolute coordinates for X,Y,Z   
M190 S60 ; Set bed temperature and wait 
M109 S205 ; Set extruder temperature and wait 
G1 Z2.0 F3000 ; Move Z to 2mm above bed 
G1 X0.1 Y20 Z0.3 F5000.0 ; Move to start position
G1 X0.1 Y200.0 Z0.3 F1500.0 E15 ; Draw the first line
G1 X0.4 Y200.0 Z0.3 F5000.0 ; Move to side a little
G1 X0.4 Y20 Z0.3 F1500.0 E30 ; Draw the second line
G92 E0 ; Reset Extruder
G1 Z2.0 F3000 ; Move Z Axis up little to prevent scratching of Heat Bed 
G1 X5 Y20 Z0.3 F5000.0 ; Move over to prevent blob squish 
G92 E0 ; Reset extruder position to zero 
G1 F300 E-3 
G1 F2000
G1 0 0 .3               ; Lift nozzle above bed a little
G1 X100 Y100 Z.1        ; Go to the starting position 
F300 E3                 ; Extrude to get ready
M83 					; Relative extrustion
G91                     ; Relative coordinates for X,Y,Z axes
G1 F1000
; ********** End printer initialization ***********
; *************************************************

; *************** Begin print *********************
G1 X40.0 Y0.0 Z0.0 E2.0
G1 X0.0 Y-0.6981 Z0.0 E0.035
G1 X-0.0122 Y-0.698 Z0.0 E0.035
G1 X-0.0244 Y-0.6977 Z0.0 E0.035
G1 X-0.0365 Y-0.6972 Z0.0 E0.035
G1 X-0.0487 Y-0.6964 Z0.0 E0.035
G1 X-0.0608 Y-0.6955 Z0.0 E0.035
G1 X-0.073 Y-0.6943 Z0.0 E0.035
G1 X-0.0851 Y-0.6929 Z0.0 E0.035
G1 X-0.0972 Y-0.6913 Z0.0 E0.035
G1 X-0.1092 Y-0.6895 Z0.0 E0.035
G1 X-0.1212 Y-0.6875 Z0.0 E0.035
G1 X-0.1332 Y-0.6853 Z0.0 E0.035
G1 X-0.1451 Y-0.6829 Z0.0 E0.035
G1 X-0.157 Y-0.6802 Z0.0 E0.035
G1 X-0.1689 Y-0.6774 Z0.0 E0.035
G1 X-0.1807 Y-0.6743 Z0.0 E0.035
G1 X-0.1924 Y-0.6711 Z0.0 E0.035
G1 X-0.2041 Y-0.6676 Z0.0 E0.035
G1 X-0.2157 Y-0.664 Z0.0 E0.035
G1 X-0.2273 Y-0.6601 Z0.0 E0.035
G1 X-0.2388 Y-0.656 Z0.0 E0.035
G1 X-0.2502 Y-0.6518 Z0.0 E0.035
G1 X-0.2615 Y-0.6473 Z0.0 E0.035
G1 X-0.2728 Y-0.6426 Z0.0 E0.035
G1 X-0.284 Y-0.6378 Z0.0 E0.035
G1 X-0.295 Y-0.6327 Z0.0 E0.035
G1 X-0.306 Y-0.6275 Z0.0 E0.035
G1 X-0.3169 Y-0.622 Z0.0 E0.035
G1 X-0.3278 Y-0.6164 Z0.0 E0.035
G1 X-0.3385 Y-0.6106 Z0.0 E0.035
G1 X-0.3491 Y-0.6046 Z0.0 E0.035
G1 X-0.3596 Y-0.5984 Z0.0 E0.035
G1 X-0.37 Y-0.592 Z0.0 E0.035
G1 X-0.3802 Y-0.5855 Z0.0 E0.035
G1 X-0.3904 Y-0.5788 Z0.0 E0.035
G1 X-0.4004 Y-0.5719 Z0.0 E0.035
G1 X-0.4104 Y-0.5648 Z0.0 E0.035
G1 X-0.4201 Y-0.5576 Z0.0 E0.035
G1 X-0.4298 Y-0.5501 Z0.0 E0.035
G1 X-0.4393 Y-0.5426 Z0.0 E0.035
G1 X-0.4488 Y-0.5348 Z0.0 E0.035
G1 X-0.458 Y-0.5269 Z0.0 E0.035
G1 X-0.4671 Y-0.5188 Z0.0 E0.035
G1 X-0.4761 Y-0.5106 Z0.0 E0.035
G1 X-0.485 Y-0.5022 Z0.0 E0.035
G1 X-0.4937 Y-0.4937 Z0.0 E0.035
G1 X-0.5022 Y-0.485 Z0.0 E0.035
G1 X-0.5106 Y-0.4761 Z0.0 E0.035
G1 X-0.5188 Y-0.4671 Z0.0 E0.035
G1 X-0.5269 Y-0.458 Z0.0 E0.035
G1 X-0.5348 Y-0.4488 Z0.0 E0.035
G1 X-0.5426 Y-0.4393 Z0.0 E0.035
G1 X-0.5501 Y-0.4298 Z0.0 E0.035
G1 X-0.5576 Y-0.4201 Z0.0 E0.035
G1 X-0.5648 Y-0.4104 Z0.0 E0.035
G1 X-0.5719 Y-0.4004 Z0.0 E0.035
G1 X-0.5788 Y-0.3904 Z0.0 E0.035
G1 X-0.5855 Y-0.3802 Z0.0 E0.035
G1 X-0.592 Y-0.37 Z0.0 E0.035
G1 X-0.5984 Y-0.3596 Z0.0 E0.035
G1 X-0.6046 Y-0.3491 Z0.0 E0.035
G1 X-0.6106 Y-0.3385 Z0.0 E0.035
G1 X-0.6164 Y-0.3278 Z0.0 E0.035
G1 X-0.622 Y-0.3169 Z0.0 E0.035
G1 X-0.6275 Y-0.306 Z0.0 E0.035
G1 X-0.6327 Y-0.295 Z0.0 E0.035
G1 X-0.6378 Y-0.284 Z0.0 E0.035
G1 X-0.6426 Y-0.2728 Z0.0 E0.035
G1 X-0.6473 Y-0.2615 Z0.0 E0.035
G1 X-0.6518 Y-0.2502 Z0.0 E0.035
G1 X-0.656 Y-0.2388 Z0.0 E0.035
G1 X-0.6601 Y-0.2273 Z0.0 E0.035
G1 X-0.664 Y-0.2157 Z0.0 E0.035
G1 X-0.6676 Y-0.2041 Z0.0 E0.035
G1 X-0.6711 Y-0.1924 Z0.0 E0.035
G1 X-0.6743 Y-0.1807 Z0.0 E0.035
G1 X-0.6774 Y-0.1689 Z0.0 E0.035
G1 X-0.6802 Y-0.157 Z0.0 E0.035
G1 X-0.6829 Y-0.1451 Z0.0 E0.035
G1 X-0.6853 Y-0.1332 Z0.0 E0.035
G1 X-0.6875 Y-0.1212 Z0.0 E0.035
G1 X-0.6895 Y-0.1092 Z0.0 E0.035
G1 X-0.6913 Y-0.0972 Z0.0 E0.035
G1 X-0.6929 Y-0.0851 Z0.0 E0.035
G1 X-0.6943 Y-0.073 Z0.0 E0.035
G1 X-0.6955 Y-0.0608 Z0.0 E0.035
G1 X-0.6964 Y-0.0487 Z0.0 E0.035
G1 X-0.6972 Y-0.0365 Z0.0 E0.035
G1 X-0.6977 Y-0.0244 Z0.0 E0.035
G1 X-0.698 Y-0.0122 Z0.0 E0.035
G1 X-0.6981 Y-0.0 Z0.0 E0.035
G1 X-0.698 Y0.0122 Z0.0 E0.035
G1 X-0.6977 Y0.0244 Z0.0 E0.035
G1 X-0.6972 Y0.0365 Z0.0 E0.035
G1 X-0.6964 Y0.0487 Z0.0 E0.035
G1 X-0.6955 Y0.0608 Z0.0 E0.035
G1 X-0.6943 Y0.073 Z0.0 E0.035
G1 X-0.6929 Y0.0851 Z0.0 E0.035
G1 X-0.6913 Y0.0972 Z0.0 E0.035
G1 X-0.6895 Y0.1092 Z0.0 E0.035
G1 X-0.6875 Y0.1212 Z0.0 E0.035
G1 X-0.6853 Y0.1332 Z0.0 E0.035
G1 X-0.6829 Y0.1451 Z0.0 E0.035
G1 X-0.6802 Y0.157 Z0.0 E0.035
G1 X-0.6774 Y0.1689 Z0.0 E0.035
G1 X-0.6743 Y0.1807 Z0.0 E0.035
G1 X-0.6711 Y0.1924 Z0.0 E0.035
G1 X-0.6676 Y0.2041 Z0.0 E0.035
G1 X-0.664 Y0.2157 Z0.0 E0.035
G1 X-0.6601 Y0.2273 Z0.0 E0.035
G1 X-0.656 Y0.2388 Z0.0 E0.035
G1 X-0.6518 Y0.2502 Z0.0 E0.035
G1 X-0.6473 Y0.2615 Z0.0 E0.035
G1 X-0.6426 Y0.2728 Z0.0 E0.035
G1 X-0.6378 Y0.284 Z0.0 E0.035
G1 X-0.6327 Y0.295 Z0.0 E0.035
G1 X-0.6275 Y0.306 Z0.0 E0.035
G1 X-0.622 Y0.3169 Z0.0 E0.035
G1 X-0.6164 Y0.3278 Z0.0 E0.035
G1 X-0.6106 Y0.3385 Z0.0 E0.035
G1 X-0.6046 Y0.3491 Z0.0 E0.035
G1 X-0.5984 Y0.3596 Z0.0 E0.035
G1 X-0.592 Y0.37 Z0.0 E0.035
G1 X-0.5855 Y0.3802 Z0.0 E0.035
G1 X-0.5788 Y0.3904 Z0.0 E0.035
G1 X-0.5719 Y0.4004 Z0.0 E0.035
G1 X-0.5648 Y0.4104 Z0.0 E0.035
G1 X-0.5576 Y0.4201 Z0.0 E0.035
G1 X-0.5501 Y0.4298 Z0.0 E0.035
G1 X-0.5426 Y0.4393 Z0.0 E0.035
G1 X-0.5348 Y0.4488 Z0.0 E0.035
G1 X-0.5269 Y0.458 Z0.0 E0.035
G1 X-0.5188 Y0.4671 Z0.0 E0.035
G1 X-0.5106 Y0.4761 Z0.0 E0.035
G1 X-0.5022 Y0.485 Z0.0 E0.035
G1 X-0.4937 Y0.4937 Z0.0 E0.035
G1 X-0.485 Y0.5022 Z0.0 E0.035
G1 X-0.4761 Y0.5106 Z0.0 E0.035
G1 X-0.4671 Y0.5188 Z0.0 E0.035
G1 X-0.458 Y0.5269 Z0.0 E0.035
G1 X-0.4488 Y0.5348 Z0.0 E0.035
G1 X-0.4393 Y0.5426 Z0.0 E0.035
G1 X-0.4298 Y0.5501 Z0.0 E0.035
G1 X-0.4201 Y0.5576 Z0.0 E0.035
G1 X-0.4104 Y0.5648 Z0.0 E0.035
G1 X-0.4004 Y0.5719 Z0.0 E0.035
G1 X-0.3904 Y0.5788 Z0.0 E0.035
G1 X-0.3802 Y0.5855 Z0.0 E0.035
G1 X-0.37 Y0.592 Z0.0 E0.035
G1 X-0.3596 Y0.5984 Z0.0 E0.035
G1 X-0.3491 Y0.6046 Z0.0 E0.035
G1 X-0.3385 Y0.6106 Z0.0 E0.035
G1 X-0.3278 Y0.6164 Z0.0 E0.035
G1 X-0.3169 Y0.622 Z0.0 E0.035
G1 X-0.306 Y0.6275 Z0.0 E0.035
G1 X-0.295 Y0.6327 Z0.0 E0.035
G1 X-0.284 Y0.6378 Z0.0 E0.035
G1 X-0.2728 Y0.6426 Z0.0 E0.035
G1 X-0.2615 Y0.6473 Z0.0 E0.035
G1 X-0.2502 Y0.6518 Z0.0 E0.035
G1 X-0.2388 Y0.656 Z0.0 E0.035
G1 X-0.2273 Y0.6601 Z0.0 E0.035
G1 X-0.2157 Y0.664 Z0.0 E0.035
G1 X-0.2041 Y0.6676 Z0.0 E0.035
G1 X-0.1924 Y0.6711 Z0.0 E0.035
G1 X-0.1807 Y0.6743 Z0.0 E0.035
G1 X-0.1689 Y0.6774 Z0.0 E0.035
G1 X-0.157 Y0.6802 Z0.0 E0.035
G1 X-0.1451 Y0.6829 Z0.0 E0.035
G1 X-0.1332 Y0.6853 Z0.0 E0.035
G1 X-0.1212 Y0.6875 Z0.0 E0.035
G1 X-0.1092 Y0.6895 Z0.0 E0.035
G1 X-0.0972 Y0.6913 Z0.0 E0.035
G1 X-0.0851 Y0.6929 Z0.0 E0.035
G1 X-0.073 Y0.6943 Z0.0 E0.035
G1 X-0.0608 Y0.6955 Z0.0 E0.035
G1 X-0.0487 Y0.6964 Z0.0 E0.035
G1 X-0.0365 Y0.6972 Z0.0 E0.035
G1 X-0.0244 Y0.6977 Z0.0 E0.035
G1 X-0.0122 Y0.698 Z0.0 E0.035
G1 X-0.0 Y0.6981 Z0.0 E0.035
G1 X0.0122 Y0.698 Z0.0 E0.035
G1 X0.0244 Y0.6977 Z0.0 E0.035
G1 X0.0365 Y0.6972 Z0.0 E0.035
G1 X0.0487 Y0.6964 Z0.0 E0.035
G1 X0.0608 Y0.6955 Z0.0 E0.035
G1 X0.073 Y0.6943 Z0.0 E0.035
G1 X0.0851 Y0.6929 Z0.0 E0.035
G1 X0.0972 Y0.6913 Z0.0 E0.035
G1 X0.1092 Y0.6895 Z0.0 E0.035
G1 X0.1212 Y0.6875 Z0.0 E0.035
G1 X0.1332 Y0.6853 Z0.0 E0.035
G1 X0.1451 Y0.6829 Z0.0 E0.035
G1 X0.157 Y0.6802 Z0.0 E0.035
G1 X0.1689 Y0.6774 Z0.0 E0.035
G1 X0.1807 Y0.6743 Z0.0 E0.035
G1 X0.1924 Y0.6711 Z0.0 E0.035
G1 X0.2041 Y0.6676 Z0.0 E0.035
G1 X0.2157 Y0.664 Z0.0 E0.035
G1 X0.2273 Y0.6601 Z0.0 E0.035
G1 X0.2388 Y0.656 Z0.0 E0.035
G1 X0.2502 Y0.6518 Z0.0 E0.035
G1 X0.2615 Y0.6473 Z0.0 E0.035
G1 X0.2728 Y0.6426 Z0.0 E0.035
G1 X0.284 Y0.6378 Z0.0 E0.035
G1 X0.295 Y0.6327 Z0.0 E0.035
G1 X0.306 Y0.6275 Z0.0 E0.035
G1 X0.3169 Y0.622 Z0.0 E0.035
G1 X0.3278 Y0.6164 Z0.0 E0.035
G1 X0.3385 Y0.6106 Z0.0 E0.035
G1 X0.3491 Y0.6046 Z0.0 E0.035
G1 X0.3596 Y0.5984 Z0.0 E0.035
G1 X0.37 Y0.592 Z0.0 E0.035
G1 X0.3802 Y0.5855 Z0.0 E0.035
G1 X0.3904 Y0.5788 Z0.0 E0.035
G1 X0.4004 Y0.5719 Z0.0 E0.035
G1 X0.4104 Y0.5648 Z0.0 E0.035
G1 X0.4201 Y0.5576 Z0.0 E0.035
G1 X0.4298 Y0.5501 Z0.0 E0.035
G1 X0.4393 Y0.5426 Z0.0 E0.035
G1 X0.4488 Y0.5348 Z0.0 E0.035
G1 X0.458 Y0.5269 Z0.0 E0.035
G1 X0.4671 Y0.5188 Z0.0 E0.035
G1 X0.4761 Y0.5106 Z0.0 E0.035
G1 X0.485 Y0.5022 Z0.0 E0.035
G1 X0.4937 Y0.4937 Z0.0 E0.035
G1 X0.5022 Y0.485 Z0.0 E0.035
G1 X0.5106 Y0.4761 Z0.0 E0.035
G1 X0.5188 Y0.4671 Z0.0 E0.035
G1 X0.5269 Y0.458 Z0.0 E0.035
G1 X0.5348 Y0.4488 Z0.0 E0.035
G1 X0.5426 Y0.4393 Z0.0 E0.035
G1 X0.5501 Y0.4298 Z0.0 E0.035
G1 X0.5576 Y0.4201 Z0.0 E0.035
G1 X0.5648 Y0.4104 Z0.0 E0.035
G1 X0.5719 Y0.4004 Z0.0 E0.035
G1 X0.5788 Y0.3904 Z0.0 E0.035
G1 X0.5855 Y0.3802 Z0.0 E0.035
G1 X0.592 Y0.37 Z0.0 E0.035
G1 X0.5984 Y0.3596 Z0.0 E0.035
G1 X0.6046 Y0.3491 Z0.0 E0.035
G1 X0.6106 Y0.3385 Z0.0 E0.035
G1 X0.6164 Y0.3278 Z0.0 E0.035
G1 X0.622 Y0.3169 Z0.0 E0.035
G1 X0.6275 Y0.306 Z0.0 E0.035
G1 X0.6327 Y0.295 Z0.0 E0.035
G1 X0.6378 Y0.284 Z0.0 E0.035
G1 X0.6426 Y0.2728 Z0.0 E0.035
G1 X0.6473 Y0.2615 Z0.0 E0.035
G1 X0.6518 Y0.2502 Z0.0 E0.035
G1 X0.656 Y0.2388 Z0.0 E0.035
G1 X0.6601 Y0.2273 Z0.0 E0.035
G1 X0.664 Y0.2157 Z0.0 E0.035
G1 X0.6676 Y0.2041 Z0.0 E0.035
G1 X0.6711 Y0.1924 Z0.0 E0.035
G1 X0.6743 Y0.1807 Z0.0 E0.035
G1 X0.6774 Y0.1689 Z0.0 E0.035
G1 X0.6802 Y0.157 Z0.0 E0.035
G1 X0.6829 Y0.1451 Z0.0 E0.035
G1 X0.6853 Y0.1332 Z0.0 E0.035
G1 X0.6875 Y0.1212 Z0.0 E0.035
G1 X0.6895 Y0.1092 Z0.0 E0.035
G1 X0.6913 Y0.0972 Z0.0 E0.035
G1 X0.6929 Y0.0851 Z0.0 E0.035
G1 X0.6943 Y0.073 Z0.0 E0.035
G1 X0.6955 Y0.0608 Z0.0 E0.035
G1 X0.6964 Y0.0487 Z0.0 E0.035
G1 X0.6972 Y0.0365 Z0.0 E0.035
G1 X0.6977 Y0.0244 Z0.0 E0.035
G1 X0.698 Y0.0122 Z0.0 E0.035
G1 X0.6981 Y0.0 Z0.0 E0.035
G1 X0.698 Y-0.0122 Z0.0 E0.035
G1 X0.6977 Y-0.0244 Z0.0 E0.035
G1 X0.6972 Y-0.0365 Z0.0 E0.035
G1 X0.6964 Y-0.0487 Z0.0 E0.035
G1 X0.6955 Y-0.0608 Z0.0 E0.035
G1 X0.6943 Y-0.073 Z0.0 E0.035
G1 X0.6929 Y-0.0851 Z0.0 E0.035
G1 X0.6913 Y-0.0972 Z0.0 E0.035
G1 X0.6895 Y-0.1092 Z0.0 E0.035
G1 X0.6875 Y-0.1212 Z0.0 E0.035
G1 X0.6853 Y-0.1332 Z0.0 E0.035
G1 X0.6829 Y-0.1451 Z0.0 E0.035
G1 X0.6802 Y-0.157 Z0.0 E0.035
G1 X0.6774 Y-0.1689 Z0.0 E0.035
G1 X0.6743 Y-0.1807 Z0.0 E0.035
G1 X0.6711 Y-0.1924 Z0.0 E0.035
G1 X0.6676 Y-0.2041 Z0.0 E0.035
G1 X0.664 Y-0.2157 Z0.0 E0.035
G1 X0.6601 Y-0.2273 Z0.0 E0.035
G1 X0.656 Y-0.2388 Z0.0 E0.035
G1 X0.6518 Y-0.2502 Z0.0 E0.035
G1 X0.6473 Y-0.2615 Z0.0 E0.035
G1 X0.6426 Y-0.2728 Z0.0 E0.035
G1 X0.6378 Y-0.284 Z0.0 E0.035
G1 X0.6327 Y-0.295 Z0.0 E0.035
G1 X0.6275 Y-0.306 Z0.0 E0.035
G1 X0.622 Y-0.3169 Z0.0 E0.035
G1 X0.6164 Y-0.3278 Z0.0 E0.035
G1 X0.6106 Y-0.3385 Z0.0 E0.035
G1 X0.6046 Y-0.3491 Z0.0 E0.035
G1 X0.5984 Y-0.3596 Z0.0 E0.035
G1 X0.592 Y-0.37 Z0.0 E0.035
G1 X0.5855 Y-0.3802 Z0.0 E0.035
G1 X0.5788 Y-0.3904 Z0.0 E0.035
G1 X0.5719 Y-0.4004 Z0.0 E0.035
G1 X0.5648 Y-0.4104 Z0.0 E0.035
G1 X0.5576 Y-0.4201 Z0.0 E0.035
G1 X0.5501 Y-0.4298 Z0.0 E0.035
G1 X0.5426 Y-0.4393 Z0.0 E0.035
G1 X0.5348 Y-0.4488 Z0.0 E0.035
G1 X0.5269 Y-0.458 Z0.0 E0.035
G1 X0.5188 Y-0.4671 Z0.0 E0.035
G1 X0.5106 Y-0.4761 Z0.0 E0.035
G1 X0.5022 Y-0.485 Z0.0 E0.035
G1 X0.4937 Y-0.4937 Z0.0 E0.035
G1 X0.485 Y-0.5022 Z0.0 E0.035
G1 X0.4761 Y-0.5106 Z0.0 E0.035
G1 X0.4671 Y-0.5188 Z0.0 E0.035
G1 X0.458 Y-0.5269 Z0.0 E0.035
G1 X0.4488 Y-0.5348 Z0.0 E0.035
G1 X0.4393 Y-0.5426 Z0.0 E0.035
G1 X0.4298 Y-0.5501 Z0.0 E0.035
G1 X0.4201 Y-0.5576 Z0.0 E0.035
G1 X0.4104 Y-0.5648 Z0.0 E0.035
G1 X0.4004 Y-0.5719 Z0.0 E0.035
G1 X0.3904 Y-0.5788 Z0.0 E0.035
G1 X0.3802 Y-0.5855 Z0.0 E0.035
G1 X0.37 Y-0.592 Z0.0 E0.035
G1 X0.3596 Y-0.5984 Z0.0 E0.035
G1 X0.3491 Y-0.6046 Z0.0 E0.035
G1 X0.3385 Y-0.6106 Z0.0 E0.035
G1 X0.3278 Y-0.6164 Z0.0 E0.035
G1 X0.3169 Y-0.622 Z0.0 E0.035
G1 X0.306 Y-0.6275 Z0.0 E0.035
G1 X0.295 Y-0.6327 Z0.0 E0.035
G1 X0.284 Y-0.6378 Z0.0 E0.035
G1 X0.2728 Y-0.6426 Z0.0 E0.035
G1 X0.2615 Y-0.6473 Z0.0 E0.035
G1 X0.2502 Y-0.6518 Z0.0 E0.035
G1 X0.2388 Y-0.656 Z0.0 E0.035
G1 X0.2273 Y-0.6601 Z0.0 E0.035
G1 X0.2157 Y-0.664 Z0.0 E0.035
G1 X0.2041 Y-0.6676 Z0.0 E0.035
G1 X0.1924 Y-0.6711 Z0.0 E0.035
G1 X0.1807 Y-0.6743 Z0.0 E0.035
G1 X0.1689 Y-0.6774 Z0.0 E0.035
G1 X0.157 Y-0.6802 Z0.0 E0.035
G1 X0.1451 Y-0.6829 Z0.0 E0.035
G1 X0.1332 Y-0.6853 Z0.0 E0.035
G1 X0.1212 Y-0.6875 Z0.0 E0.035
G1 X0.1092 Y-0.6895 Z0.0 E0.035
G1 X0.0972 Y-0.6913 Z0.0 E0.035
G1 X0.0851 Y-0.6929 Z0.0 E0.035
G1 X0.073 Y-0.6943 Z0.0 E0.035
G1 X0.0608 Y-0.6955 Z0.0 E0.035
G1 X0.0487 Y-0.6964 Z0.0 E0.035
G1 X0.0365 Y-0.6972 Z0.0 E0.035
G1 X0.0244 Y-0.6977 Z0.0 E0.035
G1 X0.0122 Y-0.698 Z0.0 E0.035
G1 Z0.2
G1 X0.0 Y-0.6981 Z0.0 E0.035
G1 X-0.0122 Y-0.698 Z0.0 E0.035
G1 X-0.0244 Y-0.6977 Z0.0 E0.035
G1 X-0.0365 Y-0.6972 Z0.0 E0.035
G1 X-0.0487 Y-0.6964 Z0.0 E0.035
G1 X-0.0608 Y-0.6955 Z0.0 E0.035
G1 X-0.073 Y-0.6943 Z0.0 E0.035
G1 X-0.0851 Y-0.6929 Z0.0 E0.035
G1 X-0.0972 Y-0.6913 Z0.0 E0.035
G1 X-0.1092 Y-0.6895 Z0.0 E0.035
G1 X-0.1212 Y-0.6875 Z0.0 E0.035
G1 X-0.1332 Y-0.6853 Z0.0 E0.035
G1 X-0.1451 Y-0.6829 Z0.0 E0.035
G1 X-0.157 Y-0.6802 Z0.0 E0.035
G1 X-0.1689 Y-0.6774 Z0.0 E0.035
G1 X-0.1807 Y-0.6743 Z0.0 E0.035
G1 X-0.1924 Y-0.6711 Z0.0 E0.035
G1 X-0.2041 Y-0.6676 Z0.0 E0.035
G1 X-0.2157 Y-0.664 Z0.0 E0.035
G1 X-0.2273 Y-0.6601 Z0.0 E0.035
G1 X-0.2388 Y-0.656 Z0.0 E0.035
G1 X-0.2502 Y-0.6518 Z0.0 E0.035
G1 X-0.2615 Y-0.6473 Z0.0 E0.035
G1 X-0.2728 Y-0.6426 Z0.0 E0.035
G1 X-0.284 Y-0.6378 Z0.0 E0.035
G1 X-0.295 Y-0.6327 Z0.0 E0.035
G1 X-0.306 Y-0.6275 Z0.0 E0.035
G1 X-0.3169 Y-0.622 Z0.0 E0.035
G1 X-0.3278 Y-0.6164 Z0.0 E0.035
G1 X-0.3385 Y-0.6106 Z0.0 E0.035
G1 X-0.3491 Y-0.6046 Z0.0 E0.035
G1 X-0.3596 Y-0.5984 Z0.0 E0.035
G1 X-0.37 Y-0.592 Z0.0 E0.035
G1 X-0.3802 Y-0.5855 Z0.0 E0.035
G1 X-0.3904 Y-0.5788 Z0.0 E0.035
G1 X-0.4004 Y-0.5719 Z0.0 E0.035
G1 X-0.4104 Y-0.5648 Z0.0 E0.035
G1 X-0.4201 Y-0.5576 Z0.0 E0.035
G1 X-0.4298 Y-0.5501 Z0.0 E0.035
G1 X-0.4393 Y-0.5426 Z0.0 E0.035
G1 X-0.4488 Y-0.5348 Z0.0 E0.035
G1 X-0.458 Y-0.5269 Z0.0 E0.035
G1 X-0.4671 Y-0.5188 Z0.0 E0.035
G1 X-0.4761 Y-0.5106 Z0.0 E0.035
G1 X-0.485 Y-0.5022 Z0.0 E0.035
G1 X-0.4937 Y-0.4937 Z0.0 E0.035
G1 X-0.5022 Y-0.485 Z0.0 E0.035
G1 X-0.5106 Y-0.4761 Z0.0 E0.035
G1 X-0.5188 Y-0.4671 Z0.0 E0.035
G1 X-0.5269 Y-0.458 Z0.0 E0.035
G1 X-0.5348 Y-0.4488 Z0.0 E0.035
G1 X-0.5426 Y-0.4393 Z0.0 E0.035
G1 X-0.5501 Y-0.4298 Z0.0 E0.035
G1 X-0.5576 Y-0.4201 Z0.0 E0.035
G1 X-0.5648 Y-0.4104 Z0.0 E0.035
G1 X-0.5719 Y-0.4004 Z0.0 E0.035
G1 X-0.5788 Y-0.3904 Z0.0 E0.035
G1 X-0.5855 Y-0.3802 Z0.0 E0.035
G1 X-0.592 Y-0.37 Z0.0 E0.035
G1 X-0.5984 Y-0.3596 Z0.0 E0.035
G1 X-0.6046 Y-0.3491 Z0.0 E0.035
G1 X-0.6106 Y-0.3385 Z0.0 E0.035
G1 X-0.6164 Y-0.3278 Z0.0 E0.035
G1 X-0.622 Y-0.3169 Z0.0 E0.035
G1 X-0.6275 Y-0.306 Z0.0 E0.035
G1 X-0.6327 Y-0.295 Z0.0 E0.035
G1 X-0.6378 Y-0.284 Z0.0 E0.035
G1 X-0.6426 Y-0.2728 Z0.0 E0.035
G1 X-0.6473 Y-0.2615 Z0.0 E0.035
G1 X-0.6518 Y-0.2502 Z0.0 E0.035
G1 X-0.656 Y-0.2388 Z0.0 E0.035
G1 X-0.6601 Y-0.2273 Z0.0 E0.035
G1 X-0.664 Y-0.2157 Z0.0 E0.035
G1 X-0.6676 Y-0.2041 Z0.0 E0.035
G1 X-0.6711 Y-0.1924 Z0.0 E0.035
G1 X-0.6743 Y-0.1807 Z0.0 E0.035
G1 X-0.6774 Y-0.1689 Z0.0 E0.035
G1 X-0.6802 Y-0.157 Z0.0 E0.035
G1 X-0.6829 Y-0.1451 Z0.0 E0.035
G1 X-0.6853 Y-0.1332 Z0.0 E0.035
G1 X-0.6875 Y-0.1212 Z0.0 E0.035
G1 X-0.6895 Y-0.1092 Z0.0 E0.035
G1 X-0.6913 Y-0.0972 Z0.0 E0.035
G1 X-0.6929 Y-0.0851 Z0.0 E0.035
G1 X-0.6943 Y-0.073 Z0.0 E0.035
G1 X-0.6955 Y-0.0608 Z0.0 E0.035
G1 X-0.6964 Y-0.0487 Z0.0 E0.035
G1 X-0.6972 Y-0.0365 Z0.0 E0.035
G1 X-0.6977 Y-0.0244 Z0.0 E0.035
G1 X-0.698 Y-0.0122 Z0.0 E0.035
G1 X-0.6981 Y-0.0 Z0.0 E0.035
G1 X-0.698 Y0.0122 Z0.0 E0.035
G1 X-0.6977 Y0.0244 Z0.0 E0.035
G1 X-0.6972 Y0.0365 Z0.0 E0.035
G1 X-0.6964 Y0.0487 Z0.0 E0.035
G1 X-0.6955 Y0.0608 Z0.0 E0.035
G1 X-0.6943 Y0.073 Z0.0 E0.035
G1 X-0.6929 Y0.0851 Z0.0 E0.035
G1 X-0.6913 Y0.0972 Z0.0 E0.035
G1 X-0.6895 Y0.1092 Z0.0 E0.035
G1 X-0.6875 Y0.1212 Z0.0 E0.035
G1 X-0.6853 Y0.1332 Z0.0 E0.035
G1 X-0.6829 Y0.1451 Z0.0 E0.035
G1 X-0.6802 Y0.157 Z0.0 E0.035
G1 X-0.6774 Y0.1689 Z0.0 E0.035
G1 X-0.6743 Y0.1807 Z0.0 E0.035
G1 X-0.6711 Y0.1924 Z0.0 E0.035
G1 X-0.6676 Y0.2041 Z0.0 E0.035
G1 X-0.664 Y0.2157 Z0.0 E0.035
G1 X-0.6601 Y0.2273 Z0.0 E0.035
G1 X-0.656 Y0.2388 Z0.0 E0.035
G1 X-0.6518 Y0.2502 Z0.0 E0.035
G1 X-0.6473 Y0.2615 Z0.0 E0.035
G1 X-0.6426 Y0.2728 Z0.0 E0.035
G1 X-0.6378 Y0.284 Z0.0 E0.035
G1 X-0.6327 Y0.295 Z0.0 E0.035
G1 X-0.6275 Y0.306 Z0.0 E0.035
G1 X-0.622 Y0.3169 Z0.0 E0.035
G1 X-0.6164 Y0.3278 Z0.0 E0.035
G1 X-0.6106 Y0.3385 Z0.0 E0.035
G1 X-0.6046 Y0.3491 Z0.0 E0.035
G1 X-0.5984 Y0.3596 Z0.0 E0.035
G1 X-0.592 Y0.37 Z0.0 E0.035
G1 X-0.5855 Y0.3802 Z0.0 E0.035
G1 X-0.5788 Y0.3904 Z0.0 E0.035
G1 X-0.5719 Y0.4004 Z0.0 E0.035
G1 X-0.5648 Y0.4104 Z0.0 E0.035
G1 X-0.5576 Y0.4201 Z0.0 E0.035
G1 X-0.5501 Y0.4298 Z0.0 E0.035
G1 X-0.5426 Y0.4393 Z0.0 E0.035
G1 X-0.5348 Y0.4488 Z0.0 E0.035
G1 X-0.5269 Y0.458 Z0.0 E0.035
G1 X-0.5188 Y0.4671 Z0.0 E0.035
G1 X-0.5106 Y0.4761 Z0.0 E0.035
G1 X-0.5022 Y0.485 Z0.0 E0.035
G1 X-0.4937 Y0.4937 Z0.0 E0.035
G1 X-0.485 Y0.5022 Z0.0 E0.035
G1 X-0.4761 Y0.5106 Z0.0 E0.035
G1 X-0.4671 Y0.5188 Z0.0 E0.035
G1 X-0.458 Y0.5269 Z0.0 E0.035
G1 X-0.4488 Y0.5348 Z0.0 E0.035
G1 X-0.4393 Y0.5426 Z0.0 E0.035
G1 X-0.4298 Y0.5501 Z0.0 E0.035
G1 X-0.4201 Y0.5576 Z0.0 E0.035
G1 X-0.4104 Y0.5648 Z0.0 E0.035
G1 X-0.4004 Y0.5719 Z0.0 E0.035
G1 X-0.3904 Y0.5788 Z0.0 E0.035
G1 X-0.3802 Y0.5855 Z0.0 E0.035
G1 X-0.37 Y0.592 Z0.0 E0.035
G1 X-0.3596 Y0.5984 Z0.0 E0.035
G1 X-0.3491 Y0.6046 Z0.0 E0.035
G1 X-0.3385 Y0.6106 Z0.0 E0.035
G1 X-0.3278 Y0.6164 Z0.0 E0.035
G1 X-0.3169 Y0.622 Z0.0 E0.035
G1 X-0.306 Y0.6275 Z0.0 E0.035
G1 X-0.295 Y0.6327 Z0.0 E0.035
G1 X-0.284 Y0.6378 Z0.0 E0.035
G1 X-0.2728 Y0.6426 Z0.0 E0.035
G1 X-0.2615 Y0.6473 Z0.0 E0.035
G1 X-0.2502 Y0.6518 Z0.0 E0.035
G1 X-0.2388 Y0.656 Z0.0 E0.035
G1 X-0.2273 Y0.6601 Z0.0 E0.035
G1 X-0.2157 Y0.664 Z0.0 E0.035
G1 X-0.2041 Y0.6676 Z0.0 E0.035
G1 X-0.1924 Y0.6711 Z0.0 E0.035
G1 X-0.1807 Y0.6743 Z0.0 E0.035
G1 X-0.1689 Y0.6774 Z0.0 E0.035
G1 X-0.157 Y0.6802 Z0.0 E0.035
G1 X-0.1451 Y0.6829 Z0.0 E0.035
G1 X-0.1332 Y0.6853 Z0.0 E0.035
G1 X-0.1212 Y0.6875 Z0.0 E0.035
G1 X-0.1092 Y0.6895 Z0.0 E0.035
G1 X-0.0972 Y0.6913 Z0.0 E0.035
G1 X-0.0851 Y0.6929 Z0.0 E0.035
G1 X-0.073 Y0.6943 Z0.0 E0.035
G1 X-0.0608 Y0.6955 Z0.0 E0.035
G1 X-0.0487 Y0.6964 Z0.0 E0.035
G1 X-0.0365 Y0.6972 Z0.0 E0.035
G1 X-0.0244 Y0.6977 Z0.0 E0.035
G1 X-0.0122 Y0.698 Z0.0 E0.035
G1 X-0.0 Y0.6981 Z0.0 E0.035
G1 X0.0122 Y0.698 Z0.0 E0.035
G1 X0.0244 Y0.6977 Z0.0 E0.035
G1 X0.0365 Y0.6972 Z0.0 E0.035
G1 X0.0487 Y0.6964 Z0.0 E0.035
G1 X0.0608 Y0.6955 Z0.0 E0.035
G1 X0.073 Y0.6943 Z0.0 E0.035
G1 X0.0851 Y0.6929 Z0.0 E0.035
G1 X0.0972 Y0.6913 Z0.0 E0.035
G1 X0.1092 Y0.6895 Z0.0 E0.035
G1 X0.1212 Y0.6875 Z0.0 E0.035
G1 X0.1332 Y0.6853 Z0.0 E0.035
G1 X0.1451 Y0.6829 Z0.0 E0.035
G1 X0.157 Y0.6802 Z0.0 E0.035
G1 X0.1689 Y0.6774 Z0.0 E0.035
G1 X0.1807 Y0.6743 Z0.0 E0.035
G1 X0.1924 Y0.6711 Z0.0 E0.035
G1 X0.2041 Y0.6676 Z0.0 E0.035
G1 X0.2157 Y0.664 Z0.0 E0.035
G1 X0.2273 Y0.6601 Z0.0 E0.035
G1 X0.2388 Y0.656 Z0.0 E0.035
G1 X0.2502 Y0.6518 Z0.0 E0.035
G1 X0.2615 Y0.6473 Z0.0 E0.035
G1 X0.2728 Y0.6426 Z0.0 E0.035
G1 X0.284 Y0.6378 Z0.0 E0.035
G1 X0.295 Y0.6327 Z0.0 E0.035
G1 X0.306 Y0.6275 Z0.0 E0.035
G1 X0.3169 Y0.622 Z0.0 E0.035
G1 X0.3278 Y0.6164 Z0.0 E0.035
G1 X0.3385 Y0.6106 Z0.0 E0.035
G1 X0.3491 Y0.6046 Z0.0 E0.035
G1 X0.3596 Y0.5984 Z0.0 E0.035
G1 X0.37 Y0.592 Z0.0 E0.035
G1 X0.3802 Y0.5855 Z0.0 E0.035
G1 X0.3904 Y0.5788 Z0.0 E0.035
G1 X0.4004 Y0.5719 Z0.0 E0.035
G1 X0.4104 Y0.5648 Z0.0 E0.035
G1 X0.4201 Y0.5576 Z0.0 E0.035
G1 X0.4298 Y0.5501 Z0.0 E0.035
G1 X0.4393 Y0.5426 Z0.0 E0.035
G1 X0.4488 Y0.5348 Z0.0 E0.035
G1 X0.458 Y0.5269 Z0.0 E0.035
G1 X0.4671 Y0.5188 Z0.0 E0.035
G1 X0.4761 Y0.5106 Z0.0 E0.035
G1 X0.485 Y0.5022 Z0.0 E0.035
G1 X0.4937 Y0.4937 Z0.0 E0.035
G1 X0.5022 Y0.485 Z0.0 E0.035
G1 X0.5106 Y0.4761 Z0.0 E0.035
G1 X0.5188 Y0.4671 Z0.0 E0.035
G1 X0.5269 Y0.458 Z0.0 E0.035
G1 X0.5348 Y0.4488 Z0.0 E0.035
G1 X0.5426 Y0.4393 Z0.0 E0.035
G1 X0.5501 Y0.4298 Z0.0 E0.035
G1 X0.5576 Y0.4201 Z0.0 E0.035
G1 X0.5648 Y0.4104 Z0.0 E0.035
G1 X0.5719 Y0.4004 Z0.0 E0.035
G1 X0.5788 Y0.3904 Z0.0 E0.035
G1 X0.5855 Y0.3802 Z0.0 E0.035
G1 X0.592 Y0.37 Z0.0 E0.035
G1 X0.5984 Y0.3596 Z0.0 E0.035
G1 X0.6046 Y0.3491 Z0.0 E0.035
G1 X0.6106 Y0.3385 Z0.0 E0.035
G1 X0.6164 Y0.3278 Z0.0 E0.035
G1 X0.622 Y0.3169 Z0.0 E0.035
G1 X0.6275 Y0.306 Z0.0 E0.035
G1 X0.6327 Y0.295 Z0.0 E0.035
G1 X0.6378 Y0.284 Z0.0 E0.035
G1 X0.6426 Y0.2728 Z0.0 E0.035
G1 X0.6473 Y0.2615 Z0.0 E0.035
G1 X0.6518 Y0.2502 Z0.0 E0.035
G1 X0.656 Y0.2388 Z0.0 E0.035
G1 X0.6601 Y0.2273 Z0.0 E0.035
G1 X0.664 Y0.2157 Z0.0 E0.035
G1 X0.6676 Y0.2041 Z0.0 E0.035
G1 X0.6711 Y0.1924 Z0.0 E0.035
G1 X0.6743 Y0.1807 Z0.0 E0.035
G1 X0.6774 Y0.1689 Z0.0 E0.035
G1 X0.6802 Y0.157 Z0.0 E0.035
G1 X0.6829 Y0.1451 Z0.0 E0.035
G1 X0.6853 Y0.1332 Z0.0 E0.035
G1 X0.6875 Y0.1212 Z0.0 E0.035
G1 X0.6895 Y0.1092 Z0.0 E0.035
G1 X0.6913 Y0.0972 Z0.0 E0.035
G1 X0.6929 Y0.0851 Z0.0 E0.035
G1 X0.6943 Y0.073 Z0.0 E0.035
G1 X0.6955 Y0.0608 Z0.0 E0.035
G1 X0.6964 Y0.0487 Z0.0 E0.035
G1 X0.6972 Y0.0365 Z0.0 E0.035
G1 X0.6977 Y0.0244 Z0.0 E0.035
G1 X0.698 Y0.0122 Z0.0 E0.035
G1 X0.6981 Y0.0 Z0.0 E0.035
G1 X0.698 Y-0.0122 Z0.0 E0.035
G1 X0.6977 Y-0.0244 Z0.0 E0.035
G1 X0.6972 Y-0.0365 Z0.0 E0.035
G1 X0.6964 Y-0.0487 Z0.0 E0.035
G1 X0.6955 Y-0.0608 Z0.0 E0.035
G1 X0.6943 Y-0.073 Z0.0 E0.035
G1 X0.6929 Y-0.0851 Z0.0 E0.035
G1 X0.6913 Y-0.0972 Z0.0 E0.035
G1 X0.6895 Y-0.1092 Z0.0 E0.035
G1 X0.6875 Y-0.1212 Z0.0 E0.035
G1 X0.6853 Y-0.1332 Z0.0 E0.035
G1 X0.6829 Y-0.1451 Z0.0 E0.035
G1 X0.6802 Y-0.157 Z0.0 E0.035
G1 X0.6774 Y-0.1689 Z0.0 E0.035
G1 X0.6743 Y-0.1807 Z0.0 E0.035
G1 X0.6711 Y-0.1924 Z0.0 E0.035
G1 X0.6676 Y-0.2041 Z0.0 E0.035
G1 X0.664 Y-0.2157 Z0.0 E0.035
G1 X0.6601 Y-0.2273 Z0.0 E0.035
G1 X0.656 Y-0.2388 Z0.0 E0.035
G1 X0.6518 Y-0.2502 Z0.0 E0.035
G1 X0.6473 Y-0.2615 Z0.0 E0.035
G1 X0.6426 Y-0.2728 Z0.0 E0.035
G1 X0.6378 Y-0.284 Z0.0 E0.035
G1 X0.6327 Y-0.295 Z0.0 E0.035
G1 X0.6275 Y-0.306 Z0.0 E0.035
G1 X0.622 Y-0.3169 Z0.0 E0.035
G1 X0.6164 Y-0.3278 Z0.0 E0.035
G1 X0.6106 Y-0.3385 Z0.0 E0.035
G1 X0.6046 Y-0.3491 Z0.0 E0.035
G1 X0.5984 Y-0.3596 Z0.0 E0.035
G1 X0.592 Y-0.37 Z0.0 E0.035
G1 X0.5855 Y-0.3802 Z0.0 E0.035
G1 X0.5788 Y-0.3904 Z0.0 E0.035
G1 X0.5719 Y-0.4004 Z0.0 E0.035
G1 X0.5648 Y-0.4104 Z0.0 E0.035
G1 X0.5576 Y-0.4201 Z0.0 E0.035
G1 X0.5501 Y-0.4298 Z0.0 E0.035
G1 X0.5426 Y-0.4393 Z0.0 E0.035
G1 X0.5348 Y-0.4488 Z0.0 E0.035
G1 X0.5269 Y-0.458 Z0.0 E0.035
G1 X0.5188 Y-0.4671 Z0.0 E0.035
G1 X0.5106 Y-0.4761 Z0.0 E0.035
G1 X0.5022 Y-0.485 Z0.0 E0.035
G1 X0.4937 Y-0.4937 Z0.0 E0.035
G1 X0.485 Y-0.5022 Z0.0 E0.035
G1 X0.4761 Y-0.5106 Z0.0 E0.035
G1 X0.4671 Y-0.5188 Z0.0 E0.035
G1 X0.458 Y-0.5269 Z0.0 E0.035
G1 X0.4488 Y-0.5348 Z0.0 E0.035
G1 X0.4393 Y-0.5426 Z0.0 E0.035
G1 X0.4298 Y-0.5501 Z0.0 E0.035
G1 X0.4201 Y-0.5576 Z0.0 E0.035
G1 X0.4104 Y-0.5648 Z0.0 E0.035
G1 X0.4004 Y-0.5719 Z0.0 E0.035
G1 X0.3904 Y-0.5788 Z0.0 E0.035
G1 X0.3802 Y-0.5855 Z0.0 E0.035
G1 X0.37 Y-0.592 Z0.0 E0.035
G1 X0.3596 Y-0.5984 Z0.0 E0.035
G1 X0.3491 Y-0.6046 Z0.0 E0.035
G1 X0.3385 Y-0.6106 Z0.0 E0.035
G1 X0.3278 Y-0.6164 Z0.0 E0.035
G1 X0.3169 Y-0.622 Z0.0 E0.035
G1 X0.306 Y-0.6275 Z0.0 E0.035
G1 X0.295 Y-0.6327 Z0.0 E0.035
G1 X0.284 Y-0.6378 Z0.0 E0.035
G1 X0.2728 Y-0.6426 Z0.0 E0.035
G1 X0.2615 Y-0.6473 Z0.0 E0.035
G1 X0.2502 Y-0.6518 Z0.0 E0.035
G1 X0.2388 Y-0.656 Z0.0 E0.035
G1 X0.2273 Y-0.6601 Z0.0 E0.035
G1 X0.2157 Y-0.664 Z0.0 E0.035
G1 X0.2041 Y-0.6676 Z0.0 E0.035
G1 X0.1924 Y-0.6711 Z0.0 E0.035
G1 X0.1807 Y-0.6743 Z0.0 E0.035
G1 X0.1689 Y-0.6774 Z0.0 E0.035
G1 X0.157 Y-0.6802 Z0.0 E0.035
G1 X0.1451 Y-0.6829 Z0.0 E0.035
G1 X0.1332 Y-0.6853 Z0.0 E0.035
G1 X0.1212 Y-0.6875 Z0.0 E0.035
G1 X0.1092 Y-0.6895 Z0.0 E0.035
G1 X0.0972 Y-0.6913 Z0.0 E0.035
G1 X0.0851 Y-0.6929 Z0.0 E0.035
G1 X0.073 Y-0.6943 Z0.0 E0.035
G1 X0.0608 Y-0.6955 Z0.0 E0.035
G1 X0.0487 Y-0.6964 Z0.0 E0.035
G1 X0.0365 Y-0.6972 Z0.0 E0.035
G1 X0.0244 Y-0.6977 Z0.0 E0.035
G1 X0.0122 Y-0.698 Z0.0 E0.035
G1 Z0.2
G1 X0.0 Y-0.6981 Z0.0 E0.035
G1 X-0.0122 Y-0.698 Z0.0 E0.035
G1 X-0.0244 Y-0.6977 Z0.0 E0.035
G1 X-0.0365 Y-0.6972 Z0.0 E0.035
G1 X-0.0487 Y-0.6964 Z0.0 E0.035
G1 X-0.0608 Y-0.6955 Z0.0 E0.035
G1 X-0.073 Y-0.6943 Z0.0 E0.035
G1 X-0.0851 Y-0.6929 Z0.0 E0.035
G1 X-0.0972 Y-0.6913 Z0.0 E0.035
G1 X-0.1092 Y-0.6895 Z0.0 E0.035
G1 X-0.1212 Y-0.6875 Z0.0 E0.035
G1 X-0.1332 Y-0.6853 Z0.0 E0.035
G1 X-0.1451 Y-0.6829 Z0.0 E0.035
G1 X-0.157 Y-0.6802 Z0.0 E0.035
G1 X-0.1689 Y-0.6774 Z0.0 E0.035
G1 X-0.1807 Y-0.6743 Z0.0 E0.035
G1 X-0.1924 Y-0.6711 Z0.0 E0.035
G1 X-0.2041 Y-0.6676 Z0.0 E0.035
G1 X-0.2157 Y-0.664 Z0.0 E0.035
G1 X-0.2273 Y-0.6601 Z0.0 E0.035
G1 X-0.2388 Y-0.656 Z0.0 E0.035
G1 X-0.2502 Y-0.6518 Z0.0 E0.035
G1 X-0.2615 Y-0.6473 Z0.0 E0.035
G1 X-0.2728 Y-0.6426 Z0.0 E0.035
G1 X-0.284 Y-0.6378 Z0.0 E0.035
G1 X-0.295 Y-0.6327 Z0.0 E0.035
G1 X-0.306 Y-0.6275 Z0.0 E0.035
G1 X-0.3169 Y-0.622 Z0.0 E0.035
G1 X-0.3278 Y-0.6164 Z0.0 E0.035
G1 X-0.3385 Y-0.6106 Z0.0 E0.035
G1 X-0.3491 Y-0.6046 Z0.0 E0.035
G1 X-0.3596 Y-0.5984 Z0.0 E0.035
G1 X-0.37 Y-0.592 Z0.0 E0.035
G1 X-0.3802 Y-0.5855 Z0.0 E0.035
G1 X-0.3904 Y-0.5788 Z0.0 E0.035
G1 X-0.4004 Y-0.5719 Z0.0 E0.035
G1 X-0.4104 Y-0.5648 Z0.0 E0.035
G1 X-0.4201 Y-0.5576 Z0.0 E0.035
G1 X-0.4298 Y-0.5501 Z0.0 E0.035
G1 X-0.4393 Y-0.5426 Z0.0 E0.035
G1 X-0.4488 Y-0.5348 Z0.0 E0.035
G1 X-0.458 Y-0.5269 Z0.0 E0.035
G1 X-0.4671 Y-0.5188 Z0.0 E0.035
G1 X-0.4761 Y-0.5106 Z0.0 E0.035
G1 X-0.485 Y-0.5022 Z0.0 E0.035
G1 X-0.4937 Y-0.4937 Z0.0 E0.035
G1 X-0.5022 Y-0.485 Z0.0 E0.035
G1 X-0.5106 Y-0.4761 Z0.0 E0.035
G1 X-0.5188 Y-0.4671 Z0.0 E0.035
G1 X-0.5269 Y-0.458 Z0.0 E0.035
G1 X-0.5348 Y-0.4488 Z0.0 E0.035
G1 X-0.5426 Y-0.4393 Z0.0 E0.035
G1 X-0.5501 Y-0.4298 Z0.0 E0.035
G1 X-0.5576 Y-0.4201 Z0.0 E0.035
G1 X-0.5648 Y-0.4104 Z0.0 E0.035
G1 X-0.5719 Y-0.4004 Z0.0 E0.035
G1 X-0.5788 Y-0.3904 Z0.0 E0.035
G1 X-0.5855 Y-0.3802 Z0.0 E0.035
G1 X-0.592 Y-0.37 Z0.0 E0.035
G1 X-0.5984 Y-0.3596 Z0.0 E0.035
G1 X-0.6046 Y-0.3491 Z0.0 E0.035
G1 X-0.6106 Y-0.3385 Z0.0 E0.035
G1 X-0.6164 Y-0.3278 Z0.0 E0.035
G1 X-0.622 Y-0.3169 Z0.0 E0.035
G1 X-0.6275 Y-0.306 Z0.0 E0.035
G1 X-0.6327 Y-0.295 Z0.0 E0.035
G1 X-0.6378 Y-0.284 Z0.0 E0.035
G1 X-0.6426 Y-0.2728 Z0.0 E0.035
G1 X-0.6473 Y-0.2615 Z0.0 E0.035
G1 X-0.6518 Y-0.2502 Z0.0 E0.035
G1 X-0.656 Y-0.2388 Z0.0 E0.035
G1 X-0.6601 Y-0.2273 Z0.0 E0.035
G1 X-0.664 Y-0.2157 Z0.0 E0.035
G1 X-0.6676 Y-0.2041 Z0.0 E0.035
G1 X-0.6711 Y-0.1924 Z0.0 E0.035
G1 X-0.6743 Y-0.1807 Z0.0 E0.035
G1 X-0.6774 Y-0.1689 Z0.0 E0.035
G1 X-0.6802 Y-0.157 Z0.0 E0.035
G1 X-0.6829 Y-0.1451 Z0.0 E0.035
G1 X-0.6853 Y-0.1332 Z0.0 E0.035
G1 X-0.6875 Y-0.1212 Z0.0 E0.035
G1 X-0.6895 Y-0.1092 Z0.0 E0.035
G1 X-0.6913 Y-0.0972 Z0.0 E0.035
G1 X-0.6929 Y-0.0851 Z0.0 E0.035
G1 X-0.6943 Y-0.073 Z0.0 E0.035
G1 X-0.6955 Y-0.0608 Z0.0 E0.035
G1 X-0.6964 Y-0.0487 Z0.0 E0.035
G1 X-0.6972 Y-0.0365 Z0.0 E0.035
G1 X-0.6977 Y-0.0244 Z0.0 E0.035
G1 X-0.698 Y-0.0122 Z0.0 E0.035
G1 X-0.6981 Y-0.0 Z0.0 E0.035
G1 X-0.698 Y0.0122 Z0.0 E0.035
G1 X-0.6977 Y0.0244 Z0.0 E0.035
G1 X-0.6972 Y0.0365 Z0.0 E0.035
G1 X-0.6964 Y0.0487 Z0.0 E0.035
G1 X-0.6955 Y0.0608 Z0.0 E0.035
G1 X-0.6943 Y0.073 Z0.0 E0.035
G1 X-0.6929 Y0.0851 Z0.0 E0.035
G1 X-0.6913 Y0.0972 Z0.0 E0.035
G1 X-0.6895 Y0.1092 Z0.0 E0.035
G1 X-0.6875 Y0.1212 Z0.0 E0.035
G1 X-0.6853 Y0.1332 Z0.0 E0.035
G1 X-0.6829 Y0.1451 Z0.0 E0.035
G1 X-0.6802 Y0.157 Z0.0 E0.035
G1 X-0.6774 Y0.1689 Z0.0 E0.035
G1 X-0.6743 Y0.1807 Z0.0 E0.035
G1 X-0.6711 Y0.1924 Z0.0 E0.035
G1 X-0.6676 Y0.2041 Z0.0 E0.035
G1 X-0.664 Y0.2157 Z0.0 E0.035
G1 X-0.6601 Y0.2273 Z0.0 E0.035
G1 X-0.656 Y0.2388 Z0.0 E0.035
G1 X-0.6518 Y0.2502 Z0.0 E0.035
G1 X-0.6473 Y0.2615 Z0.0 E0.035
G1 X-0.6426 Y0.2728 Z0.0 E0.035
G1 X-0.6378 Y0.284 Z0.0 E0.035
G1 X-0.6327 Y0.295 Z0.0 E0.035
G1 X-0.6275 Y0.306 Z0.0 E0.035
G1 X-0.622 Y0.3169 Z0.0 E0.035
G1 X-0.6164 Y0.3278 Z0.0 E0.035
G1 X-0.6106 Y0.3385 Z0.0 E0.035
G1 X-0.6046 Y0.3491 Z0.0 E0.035
G1 X-0.5984 Y0.3596 Z0.0 E0.035
G1 X-0.592 Y0.37 Z0.0 E0.035
G1 X-0.5855 Y0.3802 Z0.0 E0.035
G1 X-0.5788 Y0.3904 Z0.0 E0.035
G1 X-0.5719 Y0.4004 Z0.0 E0.035
G1 X-0.5648 Y0.4104 Z0.0 E0.035
G1 X-0.5576 Y0.4201 Z0.0 E0.035
G1 X-0.5501 Y0.4298 Z0.0 E0.035
G1 X-0.5426 Y0.4393 Z0.0 E0.035
G1 X-0.5348 Y0.4488 Z0.0 E0.035
G1 X-0.5269 Y0.458 Z0.0 E0.035
G1 X-0.5188 Y0.4671 Z0.0 E0.035
G1 X-0.5106 Y0.4761 Z0.0 E0.035
G1 X-0.5022 Y0.485 Z0.0 E0.035
G1 X-0.4937 Y0.4937 Z0.0 E0.035
G1 X-0.485 Y0.5022 Z0.0 E0.035
G1 X-0.4761 Y0.5106 Z0.0 E0.035
G1 X-0.4671 Y0.5188 Z0.0 E0.035
G1 X-0.458 Y0.5269 Z0.0 E0.035
G1 X-0.4488 Y0.5348 Z0.0 E0.035
G1 X-0.4393 Y0.5426 Z0.0 E0.035
G1 X-0.4298 Y0.5501 Z0.0 E0.035
G1 X-0.4201 Y0.5576 Z0.0 E0.035
G1 X-0.4104 Y0.5648 Z0.0 E0.035
G1 X-0.4004 Y0.5719 Z0.0 E0.035
G1 X-0.3904 Y0.5788 Z0.0 E0.035
G1 X-0.3802 Y0.5855 Z0.0 E0.035
G1 X-0.37 Y0.592 Z0.0 E0.035
G1 X-0.3596 Y0.5984 Z0.0 E0.035
G1 X-0.3491 Y0.6046 Z0.0 E0.035
G1 X-0.3385 Y0.6106 Z0.0 E0.035
G1 X-0.3278 Y0.6164 Z0.0 E0.035
G1 X-0.3169 Y0.622 Z0.0 E0.035
G1 X-0.306 Y0.6275 Z0.0 E0.035
G1 X-0.295 Y0.6327 Z0.0 E0.035
G1 X-0.284 Y0.6378 Z0.0 E0.035
G1 X-0.2728 Y0.6426 Z0.0 E0.035
G1 X-0.2615 Y0.6473 Z0.0 E0.035
G1 X-0.2502 Y0.6518 Z0.0 E0.035
G1 X-0.2388 Y0.656 Z0.0 E0.035
G1 X-0.2273 Y0.6601 Z0.0 E0.035
G1 X-0.2157 Y0.664 Z0.0 E0.035
G1 X-0.2041 Y0.6676 Z0.0 E0.035
G1 X-0.1924 Y0.6711 Z0.0 E0.035
G1 X-0.1807 Y0.6743 Z0.0 E0.035
G1 X-0.1689 Y0.6774 Z0.0 E0.035
G1 X-0.157 Y0.6802 Z0.0 E0.035
G1 X-0.1451 Y0.6829 Z0.0 E0.035
G1 X-0.1332 Y0.6853 Z0.0 E0.035
G1 X-0.1212 Y0.6875 Z0.0 E0.035
G1 X-0.1092 Y0.6895 Z0.0 E0.035
G1 X-0.0972 Y0.6913 Z0.0 E0.035
G1 X-0.0851 Y0.6929 Z0.0 E0.035
G1 X-0.073 Y0.6943 Z0.0 E0.035
G1 X-0.0608 Y0.6955 Z0.0 E0.035
G1 X-0.0487 Y0.6964 Z0.0 E0.035
G1 X-0.0365 Y0.6972 Z0.0 E0.035
G1 X-0.0244 Y0.6977 Z0.0 E0.035
G1 X-0.0122 Y0.698 Z0.0 E0.035
G1 X-0.0 Y0.6981 Z0.0 E0.035
G1 X0.0122 Y0.698 Z0.0 E0.035
G1 X0.0244 Y0.6977 Z0.0 E0.035
G1 X0.0365 Y0.6972 Z0.0 E0.035
G1 X0.0487 Y0.6964 Z0.0 E0.035
G1 X0.0608 Y0.6955 Z0.0 E0.035
G1 X0.073 Y0.6943 Z0.0 E0.035
G1 X0.0851 Y0.6929 Z0.0 E0.035
G1 X0.0972 Y0.6913 Z0.0 E0.035
G1 X0.1092 Y0.6895 Z0.0 E0.035
G1 X0.1212 Y0.6875 Z0.0 E0.035
G1 X0.1332 Y0.6853 Z0.0 E0.035
G1 X0.1451 Y0.6829 Z0.0 E0.035
G1 X0.157 Y0.6802 Z0.0 E0.035
G1 X0.1689 Y0.6774 Z0.0 E0.035
G1 X0.1807 Y0.6743 Z0.0 E0.035
G1 X0.1924 Y0.6711 Z0.0 E0.035
G1 X0.2041 Y0.6676 Z0.0 E0.035
G1 X0.2157 Y0.664 Z0.0 E0.035
G1 X0.2273 Y0.6601 Z0.0 E0.035
G1 X0.2388 Y0.656 Z0.0 E0.035
G1 X0.2502 Y0.6518 Z0.0 E0.035
G1 X0.2615 Y0.6473 Z0.0 E0.035
G1 X0.2728 Y0.6426 Z0.0 E0.035
G1 X0.284 Y0.6378 Z0.0 E0.035
G1 X0.295 Y0.6327 Z0.0 E0.035
G1 X0.306 Y0.6275 Z0.0 E0.035
G1 X0.3169 Y0.622 Z0.0 E0.035
G1 X0.3278 Y0.6164 Z0.0 E0.035
G1 X0.3385 Y0.6106 Z0.0 E0.035
G1 X0.3491 Y0.6046 Z0.0 E0.035
G1 X0.3596 Y0.5984 Z0.0 E0.035
G1 X0.37 Y0.592 Z0.0 E0.035
G1 X0.3802 Y0.5855 Z0.0 E0.035
G1 X0.3904 Y0.5788 Z0.0 E0.035
G1 X0.4004 Y0.5719 Z0.0 E0.035
G1 X0.4104 Y0.5648 Z0.0 E0.035
G1 X0.4201 Y0.5576 Z0.0 E0.035
G1 X0.4298 Y0.5501 Z0.0 E0.035
G1 X0.4393 Y0.5426 Z0.0 E0.035
G1 X0.4488 Y0.5348 Z0.0 E0.035
G1 X0.458 Y0.5269 Z0.0 E0.035
G1 X0.4671 Y0.5188 Z0.0 E0.035
G1 X0.4761 Y0.5106 Z0.0 E0.035
G1 X0.485 Y0.5022 Z0.0 E0.035
G1 X0.4937 Y0.4937 Z0.0 E0.035
G1 X0.5022 Y0.485 Z0.0 E0.035
G1 X0.5106 Y0.4761 Z0.0 E0.035
G1 X0.5188 Y0.4671 Z0.0 E0.035
G1 X0.5269 Y0.458 Z0.0 E0.035
G1 X0.5348 Y0.4488 Z0.0 E0.035
G1 X0.5426 Y0.4393 Z0.0 E0.035
G1 X0.5501 Y0.4298 Z0.0 E0.035
G1 X0.5576 Y0.4201 Z0.0 E0.035
G1 X0.5648 Y0.4104 Z0.0 E0.035
G1 X0.5719 Y0.4004 Z0.0 E0.035
G1 X0.5788 Y0.3904 Z0.0 E0.035
G1 X0.5855 Y0.3802 Z0.0 E0.035
G1 X0.592 Y0.37 Z0.0 E0.035
G1 X0.5984 Y0.3596 Z0.0 E0.035
G1 X0.6046 Y0.3491 Z0.0 E0.035
G1 X0.6106 Y0.3385 Z0.0 E0.035
G1 X0.6164 Y0.3278 Z0.0 E0.035
G1 X0.622 Y0.3169 Z0.0 E0.035
G1 X0.6275 Y0.306 Z0.0 E0.035
G1 X0.6327 Y0.295 Z0.0 E0.035
G1 X0.6378 Y0.284 Z0.0 E0.035
G1 X0.6426 Y0.2728 Z0.0 E0.035
G1 X0.6473 Y0.2615 Z0.0 E0.035
G1 X0.6518 Y0.2502 Z0.0 E0.035
G1 X0.656 Y0.2388 Z0.0 E0.035
G1 X0.6601 Y0.2273 Z0.0 E0.035
G1 X0.664 Y0.2157 Z0.0 E0.035
G1 X0.6676 Y0.2041 Z0.0 E0.035
G1 X0.6711 Y0.1924 Z0.0 E0.035
G1 X0.6743 Y0.1807 Z0.0 E0.035
G1 X0.6774 Y0.1689 Z0.0 E0.035
G1 X0.6802 Y0.157 Z0.0 E0.035
G1 X0.6829 Y0.1451 Z0.0 E0.035
G1 X0.6853 Y0.1332 Z0.0 E0.035
G1 X0.6875 Y0.1212 Z0.0 E0.035
G1 X0.6895 Y0.1092 Z0.0 E0.035
G1 X0.6913 Y0.0972 Z0.0 E0.035
G1 X0.6929 Y0.0851 Z0.0 E0.035
G1 X0.6943 Y0.073 Z0.0 E0.035
G1 X0.6955 Y0.0608 Z0.0 E0.035
G1 X0.6964 Y0.0487 Z0.0 E0.035
G1 X0.6972 Y0.0365 Z0.0 E0.035
G1 X0.6977 Y0.0244 Z0.0 E0.035
G1 X0.698 Y0.0122 Z0.0 E0.035
G1 X0.6981 Y0.0 Z0.0 E0.035
G1 X0.698 Y-0.0122 Z0.0 E0.035
G1 X0.6977 Y-0.0244 Z0.0 E0.035
G1 X0.6972 Y-0.0365 Z0.0 E0.035
G1 X0.6964 Y-0.0487 Z0.0 E0.035
G1 X0.6955 Y-0.0608 Z0.0 E0.035
G1 X0.6943 Y-0.073 Z0.0 E0.035
G1 X0.6929 Y-0.0851 Z0.0 E0.035
G1 X0.6913 Y-0.0972 Z0.0 E0.035
G1 X0.6895 Y-0.1092 Z0.0 E0.035
G1 X0.6875 Y-0.1212 Z0.0 E0.035
G1 X0.6853 Y-0.1332 Z0.0 E0.035
G1 X0.6829 Y-0.1451 Z0.0 E0.035
G1 X0.6802 Y-0.157 Z0.0 E0.035
G1 X0.6774 Y-0.1689 Z0.0 E0.035
G1 X0.6743 Y-0.1807 Z0.0 E0.035
G1 X0.6711 Y-0.1924 Z0.0 E0.035
G1 X0.6676 Y-0.2041 Z0.0 E0.035
G1 X0.664 Y-0.2157 Z0.0 E0.035
G1 X0.6601 Y-0.2273 Z0.0 E0.035
G1 X0.656 Y-0.2388 Z0.0 E0.035
G1 X0.6518 Y-0.2502 Z0.0 E0.035
G1 X0.6473 Y-0.2615 Z0.0 E0.035
G1 X0.6426 Y-0.2728 Z0.0 E0.035
G1 X0.6378 Y-0.284 Z0.0 E0.035
G1 X0.6327 Y-0.295 Z0.0 E0.035
G1 X0.6275 Y-0.306 Z0.0 E0.035
G1 X0.622 Y-0.3169 Z0.0 E0.035
G1 X0.6164 Y-0.3278 Z0.0 E0.035
G1 X0.6106 Y-0.3385 Z0.0 E0.035
G1 X0.6046 Y-0.3491 Z0.0 E0.035
G1 X0.5984 Y-0.3596 Z0.0 E0.035
G1 X0.592 Y-0.37 Z0.0 E0.035
G1 X0.5855 Y-0.3802 Z0.0 E0.035
G1 X0.5788 Y-0.3904 Z0.0 E0.035
G1 X0.5719 Y-0.4004 Z0.0 E0.035
G1 X0.5648 Y-0.4104 Z0.0 E0.035
G1 X0.5576 Y-0.4201 Z0.0 E0.035
G1 X0.5501 Y-0.4298 Z0.0 E0.035
G1 X0.5426 Y-0.4393 Z0.0 E0.035
G1 X0.5348 Y-0.4488 Z0.0 E0.035
G1 X0.5269 Y-0.458 Z0.0 E0.035
G1 X0.5188 Y-0.4671 Z0.0 E0.035
G1 X0.5106 Y-0.4761 Z0.0 E0.035
G1 X0.5022 Y-0.485 Z0.0 E0.035
G1 X0.4937 Y-0.4937 Z0.0 E0.035
G1 X0.485 Y-0.5022 Z0.0 E0.035
G1 X0.4761 Y-0.5106 Z0.0 E0.035
G1 X0.4671 Y-0.5188 Z0.0 E0.035
G1 X0.458 Y-0.5269 Z0.0 E0.035
G1 X0.4488 Y-0.5348 Z0.0 E0.035
G1 X0.4393 Y-0.5426 Z0.0 E0.035
G1 X0.4298 Y-0.5501 Z0.0 E0.035
G1 X0.4201 Y-0.5576 Z0.0 E0.035
G1 X0.4104 Y-0.5648 Z0.0 E0.035
G1 X0.4004 Y-0.5719 Z0.0 E0.035
G1 X0.3904 Y-0.5788 Z0.0 E0.035
G1 X0.3802 Y-0.5855 Z0.0 E0.035
G1 X0.37 Y-0.592 Z0.0 E0.035
G1 X0.3596 Y-0.5984 Z0.0 E0.035
G1 X0.3491 Y-0.6046 Z0.0 E0.035
G1 X0.3385 Y-0.6106 Z0.0 E0.035
G1 X0.3278 Y-0.6164 Z0.0 E0.035
G1 X0.3169 Y-0.622 Z0.0 E0.035
G1 X0.306 Y-0.6275 Z0.0 E0.035
G1 X0.295 Y-0.6327 Z0.0 E0.035
G1 X0.284 Y-0.6378 Z0.0 E0.035
G1 X0.2728 Y-0.6426 Z0.0 E0.035
G1 X0.2615 Y-0.6473 Z0.0 E0.035
G1 X0.2502 Y-0.6518 Z0.0 E0.035
G1 X0.2388 Y-0.656 Z0.0 E0.035
G1 X0.2273 Y-0.6601 Z0.0 E0.035
G1 X0.2157 Y-0.664 Z0.0 E0.035
G1 X0.2041 Y-0.6676 Z0.0 E0.035
G1 X0.1924 Y-0.6711 Z0.0 E0.035
G1 X0.1807 Y-0.6743 Z0.0 E0.035
G1 X0.1689 Y-0.6774 Z0.0 E0.035
G1 X0.157 Y-0.6802 Z0.0 E0.035
G1 X0.1451 Y-0.6829 Z0.0 E0.035
G1 X0.1332 Y-0.6853 Z0.0 E0.035
G1 X0.1212 Y-0.6875 Z0.0 E0.035
G1 X0.1092 Y-0.6895 Z0.0 E0.035
G1 X0.0972 Y-0.6913 Z0.0 E0.035
G1 X0.0851 Y-0.6929 Z0.0 E0.035
G1 X0.073 Y-0.6943 Z0.0 E0.035
G1 X0.0608 Y-0.6955 Z0.0 E0.035
G1 X0.0487 Y-0.6964 Z0.0 E0.035
G1 X0.0365 Y-0.6972 Z0.0 E0.035
G1 X0.0244 Y-0.6977 Z0.0 E0.035
G1 X0.0122 Y-0.698 Z0.0 E0.035
G1 Z0.2
G1 X0.0 Y-0.6981 Z0.0 E0.035
G1 X-0.0122 Y-0.698 Z0.0 E0.035
G1 X-0.0244 Y-0.6977 Z0.0 E0.035
G1 X-0.0365 Y-0.6972 Z0.0 E0.035
G1 X-0.0487 Y-0.6964 Z0.0 E0.035
G1 X-0.0608 Y-0.6955 Z0.0 E0.035
G1 X-0.073 Y-0.6943 Z0.0 E0.035
G1 X-0.0851 Y-0.6929 Z0.0 E0.035
G1 X-0.0972 Y-0.6913 Z0.0 E0.035
G1 X-0.1092 Y-0.6895 Z0.0 E0.035
G1 X-0.1212 Y-0.6875 Z0.0 E0.035
G1 X-0.1332 Y-0.6853 Z0.0 E0.035
G1 X-0.1451 Y-0.6829 Z0.0 E0.035
G1 X-0.157 Y-0.6802 Z0.0 E0.035
G1 X-0.1689 Y-0.6774 Z0.0 E0.035
G1 X-0.1807 Y-0.6743 Z0.0 E0.035
G1 X-0.1924 Y-0.6711 Z0.0 E0.035
G1 X-0.2041 Y-0.6676 Z0.0 E0.035
G1 X-0.2157 Y-0.664 Z0.0 E0.035
G1 X-0.2273 Y-0.6601 Z0.0 E0.035
G1 X-0.2388 Y-0.656 Z0.0 E0.035
G1 X-0.2502 Y-0.6518 Z0.0 E0.035
G1 X-0.2615 Y-0.6473 Z0.0 E0.035
G1 X-0.2728 Y-0.6426 Z0.0 E0.035
G1 X-0.284 Y-0.6378 Z0.0 E0.035
G1 X-0.295 Y-0.6327 Z0.0 E0.035
G1 X-0.306 Y-0.6275 Z0.0 E0.035
G1 X-0.3169 Y-0.622 Z0.0 E0.035
G1 X-0.3278 Y-0.6164 Z0.0 E0.035
G1 X-0.3385 Y-0.6106 Z0.0 E0.035
G1 X-0.3491 Y-0.6046 Z0.0 E0.035
G1 X-0.3596 Y-0.5984 Z0.0 E0.035
G1 X-0.37 Y-0.592 Z0.0 E0.035
G1 X-0.3802 Y-0.5855 Z0.0 E0.035
G1 X-0.3904 Y-0.5788 Z0.0 E0.035
G1 X-0.4004 Y-0.5719 Z0.0 E0.035
G1 X-0.4104 Y-0.5648 Z0.0 E0.035
G1 X-0.4201 Y-0.5576 Z0.0 E0.035
G1 X-0.4298 Y-0.5501 Z0.0 E0.035
G1 X-0.4393 Y-0.5426 Z0.0 E0.035
G1 X-0.4488 Y-0.5348 Z0.0 E0.035
G1 X-0.458 Y-0.5269 Z0.0 E0.035
G1 X-0.4671 Y-0.5188 Z0.0 E0.035
G1 X-0.4761 Y-0.5106 Z0.0 E0.035
G1 X-0.485 Y-0.5022 Z0.0 E0.035
G1 X-0.4937 Y-0.4937 Z0.0 E0.035
G1 X-0.5022 Y-0.485 Z0.0 E0.035
G1 X-0.5106 Y-0.4761 Z0.0 E0.035
G1 X-0.5188 Y-0.4671 Z0.0 E0.035
G1 X-0.5269 Y-0.458 Z0.0 E0.035
G1 X-0.5348 Y-0.4488 Z0.0 E0.035
G1 X-0.5426 Y-0.4393 Z0.0 E0.035
G1 X-0.5501 Y-0.4298 Z0.0 E0.035
G1 X-0.5576 Y-0.4201 Z0.0 E0.035
G1 X-0.5648 Y-0.4104 Z0.0 E0.035
G1 X-0.5719 Y-0.4004 Z0.0 E0.035
G1 X-0.5788 Y-0.3904 Z0.0 E0.035
G1 X-0.5855 Y-0.3802 Z0.0 E0.035
G1 X-0.592 Y-0.37 Z0.0 E0.035
G1 X-0.5984 Y-0.3596 Z0.0 E0.035
G1 X-0.6046 Y-0.3491 Z0.0 E0.035
G1 X-0.6106 Y-0.3385 Z0.0 E0.035
G1 X-0.6164 Y-0.3278 Z0.0 E0.035
G1 X-0.622 Y-0.3169 Z0.0 E0.035
G1 X-0.6275 Y-0.306 Z0.0 E0.035
G1 X-0.6327 Y-0.295 Z0.0 E0.035
G1 X-0.6378 Y-0.284 Z0.0 E0.035
G1 X-0.6426 Y-0.2728 Z0.0 E0.035
G1 X-0.6473 Y-0.2615 Z0.0 E0.035
G1 X-0.6518 Y-0.2502 Z0.0 E0.035
G1 X-0.656 Y-0.2388 Z0.0 E0.035
G1 X-0.6601 Y-0.2273 Z0.0 E0.035
G1 X-0.664 Y-0.2157 Z0.0 E0.035
G1 X-0.6676 Y-0.2041 Z0.0 E0.035
G1 X-0.6711 Y-0.1924 Z0.0 E0.035
G1 X-0.6743 Y-0.1807 Z0.0 E0.035
G1 X-0.6774 Y-0.1689 Z0.0 E0.035
G1 X-0.6802 Y-0.157 Z0.0 E0.035
G1 X-0.6829 Y-0.1451 Z0.0 E0.035
G1 X-0.6853 Y-0.1332 Z0.0 E0.035
G1 X-0.6875 Y-0.1212 Z0.0 E0.035
G1 X-0.6895 Y-0.1092 Z0.0 E0.035
G1 X-0.6913 Y-0.0972 Z0.0 E0.035
G1 X-0.6929 Y-0.0851 Z0.0 E0.035
G1 X-0.6943 Y-0.073 Z0.0 E0.035
G1 X-0.6955 Y-0.0608 Z0.0 E0.035
G1 X-0.6964 Y-0.0487 Z0.0 E0.035
G1 X-0.6972 Y-0.0365 Z0.0 E0.035
G1 X-0.6977 Y-0.0244 Z0.0 E0.035
G1 X-0.698 Y-0.0122 Z0.0 E0.035
G1 X-0.6981 Y-0.0 Z0.0 E0.035
G1 X-0.698 Y0.0122 Z0.0 E0.035
G1 X-0.6977 Y0.0244 Z0.0 E0.035
G1 X-0.6972 Y0.0365 Z0.0 E0.035
G1 X-0.6964 Y0.0487 Z0.0 E0.035
G1 X-0.6955 Y0.0608 Z0.0 E0.035
G1 X-0.6943 Y0.073 Z0.0 E0.035
G1 X-0.6929 Y0.0851 Z0.0 E0.035
G1 X-0.6913 Y0.0972 Z0.0 E0.035
G1 X-0.6895 Y0.1092 Z0.0 E0.035
G1 X-0.6875 Y0.1212 Z0.0 E0.035
G1 X-0.6853 Y0.1332 Z0.0 E0.035
G1 X-0.6829 Y0.1451 Z0.0 E0.035
G1 X-0.6802 Y0.157 Z0.0 E0.035
G1 X-0.6774 Y0.1689 Z0.0 E0.035
G1 X-0.6743 Y0.1807 Z0.0 E0.035
G1 X-0.6711 Y0.1924 Z0.0 E0.035
G1 X-0.6676 Y0.2041 Z0.0 E0.035
G1 X-0.664 Y0.2157 Z0.0 E0.035
G1 X-0.6601 Y0.2273 Z0.0 E0.035
G1 X-0.656 Y0.2388 Z0.0 E0.035
G1 X-0.6518 Y0.2502 Z0.0 E0.035
G1 X-0.6473 Y0.2615 Z0.0 E0.035
G1 X-0.6426 Y0.2728 Z0.0 E0.035
G1 X-0.6378 Y0.284 Z0.0 E0.035
G1 X-0.6327 Y0.295 Z0.0 E0.035
G1 X-0.6275 Y0.306 Z0.0 E0.035
G1 X-0.622 Y0.3169 Z0.0 E0.035
G1 X-0.6164 Y0.3278 Z0.0 E0.035
G1 X-0.6106 Y0.3385 Z0.0 E0.035
G1 X-0.6046 Y0.3491 Z0.0 E0.035
G1 X-0.5984 Y0.3596 Z0.0 E0.035
G1 X-0.592 Y0.37 Z0.0 E0.035
G1 X-0.5855 Y0.3802 Z0.0 E0.035
G1 X-0.5788 Y0.3904 Z0.0 E0.035
G1 X-0.5719 Y0.4004 Z0.0 E0.035
G1 X-0.5648 Y0.4104 Z0.0 E0.035
G1 X-0.5576 Y0.4201 Z0.0 E0.035
G1 X-0.5501 Y0.4298 Z0.0 E0.035
G1 X-0.5426 Y0.4393 Z0.0 E0.035
G1 X-0.5348 Y0.4488 Z0.0 E0.035
G1 X-0.5269 Y0.458 Z0.0 E0.035
G1 X-0.5188 Y0.4671 Z0.0 E0.035
G1 X-0.5106 Y0.4761 Z0.0 E0.035
G1 X-0.5022 Y0.485 Z0.0 E0.035
G1 X-0.4937 Y0.4937 Z0.0 E0.035
G1 X-0.485 Y0.5022 Z0.0 E0.035
G1 X-0.4761 Y0.5106 Z0.0 E0.035
G1 X-0.4671 Y0.5188 Z0.0 E0.035
G1 X-0.458 Y0.5269 Z0.0 E0.035
G1 X-0.4488 Y0.5348 Z0.0 E0.035
G1 X-0.4393 Y0.5426 Z0.0 E0.035
G1 X-0.4298 Y0.5501 Z0.0 E0.035
G1 X-0.4201 Y0.5576 Z0.0 E0.035
G1 X-0.4104 Y0.5648 Z0.0 E0.035
G1 X-0.4004 Y0.5719 Z0.0 E0.035
G1 X-0.3904 Y0.5788 Z0.0 E0.035
G1 X-0.3802 Y0.5855 Z0.0 E0.035
G1 X-0.37 Y0.592 Z0.0 E0.035
G1 X-0.3596 Y0.5984 Z0.0 E0.035
G1 X-0.3491 Y0.6046 Z0.0 E0.035
G1 X-0.3385 Y0.6106 Z0.0 E0.035
G1 X-0.3278 Y0.6164 Z0.0 E0.035
G1 X-0.3169 Y0.622 Z0.0 E0.035
G1 X-0.306 Y0.6275 Z0.0 E0.035
G1 X-0.295 Y0.6327 Z0.0 E0.035
G1 X-0.284 Y0.6378 Z0.0 E0.035
G1 X-0.2728 Y0.6426 Z0.0 E0.035
G1 X-0.2615 Y0.6473 Z0.0 E0.035
G1 X-0.2502 Y0.6518 Z0.0 E0.035
G1 X-0.2388 Y0.656 Z0.0 E0.035
G1 X-0.2273 Y0.6601 Z0.0 E0.035
G1 X-0.2157 Y0.664 Z0.0 E0.035
G1 X-0.2041 Y0.6676 Z0.0 E0.035
G1 X-0.1924 Y0.6711 Z0.0 E0.035
G1 X-0.1807 Y0.6743 Z0.0 E0.035
G1 X-0.1689 Y0.6774 Z0.0 E0.035
G1 X-0.157 Y0.6802 Z0.0 E0.035
G1 X-0.1451 Y0.6829 Z0.0 E0.035
G1 X-0.1332 Y0.6853 Z0.0 E0.035
G1 X-0.1212 Y0.6875 Z0.0 E0.035
G1 X-0.1092 Y0.6895 Z0.0 E0.035
G1 X-0.0972 Y0.6913 Z0.0 E0.035
G1 X-0.0851 Y0.6929 Z0.0 E0.035
G1 X-0.073 Y0.6943 Z0.0 E0.035
G1 X-0.0608 Y0.6955 Z0.0 E0.035
G1 X-0.0487 Y0.6964 Z0.0 E0.035
G1 X-0.0365 Y0.6972 Z0.0 E0.035
G1 X-0.0244 Y0.6977 Z0.0 E0.035
G1 X-0.0122 Y0.698 Z0.0 E0.035
G1 X-0.0 Y0.6981 Z0.0 E0.035
G1 X0.0122 Y0.698 Z0.0 E0.035
G1 X0.0244 Y0.6977 Z0.0 E0.035
G1 X0.0365 Y0.6972 Z0.0 E0.035
G1 X0.0487 Y0.6964 Z0.0 E0.035
G1 X0.0608 Y0.6955 Z0.0 E0.035
G1 X0.073 Y0.6943 Z0.0 E0.035
G1 X0.0851 Y0.6929 Z0.0 E0.035
G1 X0.0972 Y0.6913 Z0.0 E0.035
G1 X0.1092 Y0.6895 Z0.0 E0.035
G1 X0.1212 Y0.6875 Z0.0 E0.035
G1 X0.1332 Y0.6853 Z0.0 E0.035
G1 X0.1451 Y0.6829 Z0.0 E0.035
G1 X0.157 Y0.6802 Z0.0 E0.035
G1 X0.1689 Y0.6774 Z0.0 E0.035
G1 X0.1807 Y0.6743 Z0.0 E0.035
G1 X0.1924 Y0.6711 Z0.0 E0.035
G1 X0.2041 Y0.6676 Z0.0 E0.035
G1 X0.2157 Y0.664 Z0.0 E0.035
G1 X0.2273 Y0.6601 Z0.0 E0.035
G1 X0.2388 Y0.656 Z0.0 E0.035
G1 X0.2502 Y0.6518 Z0.0 E0.035
G1 X0.2615 Y0.6473 Z0.0 E0.035
G1 X0.2728 Y0.6426 Z0.0 E0.035
G1 X0.284 Y0.6378 Z0.0 E0.035
G1 X0.295 Y0.6327 Z0.0 E0.035
G1 X0.306 Y0.6275 Z0.0 E0.035
G1 X0.3169 Y0.622 Z0.0 E0.035
G1 X0.3278 Y0.6164 Z0.0 E0.035
G1 X0.3385 Y0.6106 Z0.0 E0.035
G1 X0.3491 Y0.6046 Z0.0 E0.035
G1 X0.3596 Y0.5984 Z0.0 E0.035
G1 X0.37 Y0.592 Z0.0 E0.035
G1 X0.3802 Y0.5855 Z0.0 E0.035
G1 X0.3904 Y0.5788 Z0.0 E0.035
G1 X0.4004 Y0.5719 Z0.0 E0.035
G1 X0.4104 Y0.5648 Z0.0 E0.035
G1 X0.4201 Y0.5576 Z0.0 E0.035
G1 X0.4298 Y0.5501 Z0.0 E0.035
G1 X0.4393 Y0.5426 Z0.0 E0.035
G1 X0.4488 Y0.5348 Z0.0 E0.035
G1 X0.458 Y0.5269 Z0.0 E0.035
G1 X0.4671 Y0.5188 Z0.0 E0.035
G1 X0.4761 Y0.5106 Z0.0 E0.035
G1 X0.485 Y0.5022 Z0.0 E0.035
G1 X0.4937 Y0.4937 Z0.0 E0.035
G1 X0.5022 Y0.485 Z0.0 E0.035
G1 X0.5106 Y0.4761 Z0.0 E0.035
G1 X0.5188 Y0.4671 Z0.0 E0.035
G1 X0.5269 Y0.458 Z0.0 E0.035
G1 X0.5348 Y0.4488 Z0.0 E0.035
G1 X0.5426 Y0.4393 Z0.0 E0.035
G1 X0.5501 Y0.4298 Z0.0 E0.035
G1 X0.5576 Y0.4201 Z0.0 E0.035
G1 X0.5648 Y0.4104 Z0.0 E0.035
G1 X0.5719 Y0.4004 Z0.0 E0.035
G1 X0.5788 Y0.3904 Z0.0 E0.035
G1 X0.5855 Y0.3802 Z0.0 E0.035
G1 X0.592 Y0.37 Z0.0 E0.035
G1 X0.5984 Y0.3596 Z0.0 E0.035
G1 X0.6046 Y0.3491 Z0.0 E0.035
G1 X0.6106 Y0.3385 Z0.0 E0.035
G1 X0.6164 Y0.3278 Z0.0 E0.035
G1 X0.622 Y0.3169 Z0.0 E0.035
G1 X0.6275 Y0.306 Z0.0 E0.035
G1 X0.6327 Y0.295 Z0.0 E0.035
G1 X0.6378 Y0.284 Z0.0 E0.035
G1 X0.6426 Y0.2728 Z0.0 E0.035
G1 X0.6473 Y0.2615 Z0.0 E0.035
G1 X0.6518 Y0.2502 Z0.0 E0.035
G1 X0.656 Y0.2388 Z0.0 E0.035
G1 X0.6601 Y0.2273 Z0.0 E0.035
G1 X0.664 Y0.2157 Z0.0 E0.035
G1 X0.6676 Y0.2041 Z0.0 E0.035
G1 X0.6711 Y0.1924 Z0.0 E0.035
G1 X0.6743 Y0.1807 Z0.0 E0.035
G1 X0.6774 Y0.1689 Z0.0 E0.035
G1 X0.6802 Y0.157 Z0.0 E0.035
G1 X0.6829 Y0.1451 Z0.0 E0.035
G1 X0.6853 Y0.1332 Z0.0 E0.035
G1 X0.6875 Y0.1212 Z0.0 E0.035
G1 X0.6895 Y0.1092 Z0.0 E0.035
G1 X0.6913 Y0.0972 Z0.0 E0.035
G1 X0.6929 Y0.0851 Z0.0 E0.035
G1 X0.6943 Y0.073 Z0.0 E0.035
G1 X0.6955 Y0.0608 Z0.0 E0.035
G1 X0.6964 Y0.0487 Z0.0 E0.035
G1 X0.6972 Y0.0365 Z0.0 E0.035
G1 X0.6977 Y0.0244 Z0.0 E0.035
G1 X0.698 Y0.0122 Z0.0 E0.035
G1 X0.6981 Y0.0 Z0.0 E0.035
G1 X0.698 Y-0.0122 Z0.0 E0.035
G1 X0.6977 Y-0.0244 Z0.0 E0.035
G1 X0.6972 Y-0.0365 Z0.0 E0.035
G1 X0.6964 Y-0.0487 Z0.0 E0.035
G1 X0.6955 Y-0.0608 Z0.0 E0.035
G1 X0.6943 Y-0.073 Z0.0 E0.035
G1 X0.6929 Y-0.0851 Z0.0 E0.035
G1 X0.6913 Y-0.0972 Z0.0 E0.035
G1 X0.6895 Y-0.1092 Z0.0 E0.035
G1 X0.6875 Y-0.1212 Z0.0 E0.035
G1 X0.6853 Y-0.1332 Z0.0 E0.035
G1 X0.6829 Y-0.1451 Z0.0 E0.035
G1 X0.6802 Y-0.157 Z0.0 E0.035
G1 X0.6774 Y-0.1689 Z0.0 E0.035
G1 X0.6743 Y-0.1807 Z0.0 E0.035
G1 X0.6711 Y-0.1924 Z0.0 E0.035
G1 X0.6676 Y-0.2041 Z0.0 E0.035
G1 X0.664 Y-0.2157 Z0.0 E0.035
G1 X0.6601 Y-0.2273 Z0.0 E0.035
G1 X0.656 Y-0.2388 Z0.0 E0.035
G1 X0.6518 Y-0.2502 Z0.0 E0.035
G1 X0.6473 Y-0.2615 Z0.0 E0.035
G1 X0.6426 Y-0.2728 Z0.0 E0.035
G1 X0.6378 Y-0.284 Z0.0 E0.035
G1 X0.6327 Y-0.295 Z0.0 E0.035
G1 X0.6275 Y-0.306 Z0.0 E0.035
G1 X0.622 Y-0.3169 Z0.0 E0.035
G1 X0.6164 Y-0.3278 Z0.0 E0.035
G1 X0.6106 Y-0.3385 Z0.0 E0.035
G1 X0.6046 Y-0.3491 Z0.0 E0.035
G1 X0.5984 Y-0.3596 Z0.0 E0.035
G1 X0.592 Y-0.37 Z0.0 E0.035
G1 X0.5855 Y-0.3802 Z0.0 E0.035
G1 X0.5788 Y-0.3904 Z0.0 E0.035
G1 X0.5719 Y-0.4004 Z0.0 E0.035
G1 X0.5648 Y-0.4104 Z0.0 E0.035
G1 X0.5576 Y-0.4201 Z0.0 E0.035
G1 X0.5501 Y-0.4298 Z0.0 E0.035
G1 X0.5426 Y-0.4393 Z0.0 E0.035
G1 X0.5348 Y-0.4488 Z0.0 E0.035
G1 X0.5269 Y-0.458 Z0.0 E0.035
G1 X0.5188 Y-0.4671 Z0.0 E0.035
G1 X0.5106 Y-0.4761 Z0.0 E0.035
G1 X0.5022 Y-0.485 Z0.0 E0.035
G1 X0.4937 Y-0.4937 Z0.0 E0.035
G1 X0.485 Y-0.5022 Z0.0 E0.035
G1 X0.4761 Y-0.5106 Z0.0 E0.035
G1 X0.4671 Y-0.5188 Z0.0 E0.035
G1 X0.458 Y-0.5269 Z0.0 E0.035
G1 X0.4488 Y-0.5348 Z0.0 E0.035
G1 X0.4393 Y-0.5426 Z0.0 E0.035
G1 X0.4298 Y-0.5501 Z0.0 E0.035
G1 X0.4201 Y-0.5576 Z0.0 E0.035
G1 X0.4104 Y-0.5648 Z0.0 E0.035
G1 X0.4004 Y-0.5719 Z0.0 E0.035
G1 X0.3904 Y-0.5788 Z0.0 E0.035
G1 X0.3802 Y-0.5855 Z0.0 E0.035
G1 X0.37 Y-0.592 Z0.0 E0.035
G1 X0.3596 Y-0.5984 Z0.0 E0.035
G1 X0.3491 Y-0.6046 Z0.0 E0.035
G1 X0.3385 Y-0.6106 Z0.0 E0.035
G1 X0.3278 Y-0.6164 Z0.0 E0.035
G1 X0.3169 Y-0.622 Z0.0 E0.035
G1 X0.306 Y-0.6275 Z0.0 E0.035
G1 X0.295 Y-0.6327 Z0.0 E0.035
G1 X0.284 Y-0.6378 Z0.0 E0.035
G1 X0.2728 Y-0.6426 Z0.0 E0.035
G1 X0.2615 Y-0.6473 Z0.0 E0.035
G1 X0.2502 Y-0.6518 Z0.0 E0.035
G1 X0.2388 Y-0.656 Z0.0 E0.035
G1 X0.2273 Y-0.6601 Z0.0 E0.035
G1 X0.2157 Y-0.664 Z0.0 E0.035
G1 X0.2041 Y-0.6676 Z0.0 E0.035
G1 X0.1924 Y-0.6711 Z0.0 E0.035
G1 X0.1807 Y-0.6743 Z0.0 E0.035
G1 X0.1689 Y-0.6774 Z0.0 E0.035
G1 X0.157 Y-0.6802 Z0.0 E0.035
G1 X0.1451 Y-0.6829 Z0.0 E0.035
G1 X0.1332 Y-0.6853 Z0.0 E0.035
G1 X0.1212 Y-0.6875 Z0.0 E0.035
G1 X0.1092 Y-0.6895 Z0.0 E0.035
G1 X0.0972 Y-0.6913 Z0.0 E0.035
G1 X0.0851 Y-0.6929 Z0.0 E0.035
G1 X0.073 Y-0.6943 Z0.0 E0.035
G1 X0.0608 Y-0.6955 Z0.0 E0.035
G1 X0.0487 Y-0.6964 Z0.0 E0.035
G1 X0.0365 Y-0.6972 Z0.0 E0.035
G1 X0.0244 Y-0.6977 Z0.0 E0.035
G1 X0.0122 Y-0.698 Z0.0 E0.035
G1 Z0.2
G1 X0.0 Y-0.6981 Z0.0 E0.035
G1 X-0.0122 Y-0.698 Z0.0 E0.035
G1 X-0.0244 Y-0.6977 Z0.0 E0.035
G1 X-0.0365 Y-0.6972 Z0.0 E0.035
G1 X-0.0487 Y-0.6964 Z0.0 E0.035
G1 X-0.0608 Y-0.6955 Z0.0 E0.035
G1 X-0.073 Y-0.6943 Z0.0 E0.035
G1 X-0.0851 Y-0.6929 Z0.0 E0.035
G1 X-0.0972 Y-0.6913 Z0.0 E0.035
G1 X-0.1092 Y-0.6895 Z0.0 E0.035
G1 X-0.1212 Y-0.6875 Z0.0 E0.035
G1 X-0.1332 Y-0.6853 Z0.0 E0.035
G1 X-0.1451 Y-0.6829 Z0.0 E0.035
G1 X-0.157 Y-0.6802 Z0.0 E0.035
G1 X-0.1689 Y-0.6774 Z0.0 E0.035
G1 X-0.1807 Y-0.6743 Z0.0 E0.035
G1 X-0.1924 Y-0.6711 Z0.0 E0.035
G1 X-0.2041 Y-0.6676 Z0.0 E0.035
G1 X-0.2157 Y-0.664 Z0.0 E0.035
G1 X-0.2273 Y-0.6601 Z0.0 E0.035
G1 X-0.2388 Y-0.656 Z0.0 E0.035
G1 X-0.2502 Y-0.6518 Z0.0 E0.035
G1 X-0.2615 Y-0.6473 Z0.0 E0.035
G1 X-0.2728 Y-0.6426 Z0.0 E0.035
G1 X-0.284 Y-0.6378 Z0.0 E0.035
G1 X-0.295 Y-0.6327 Z0.0 E0.035
G1 X-0.306 Y-0.6275 Z0.0 E0.035
G1 X-0.3169 Y-0.622 Z0.0 E0.035
G1 X-0.3278 Y-0.6164 Z0.0 E0.035
G1 X-0.3385 Y-0.6106 Z0.0 E0.035
G1 X-0.3491 Y-0.6046 Z0.0 E0.035
G1 X-0.3596 Y-0.5984 Z0.0 E0.035
G1 X-0.37 Y-0.592 Z0.0 E0.035
G1 X-0.3802 Y-0.5855 Z0.0 E0.035
G1 X-0.3904 Y-0.5788 Z0.0 E0.035
G1 X-0.4004 Y-0.5719 Z0.0 E0.035
G1 X-0.4104 Y-0.5648 Z0.0 E0.035
G1 X-0.4201 Y-0.5576 Z0.0 E0.035
G1 X-0.4298 Y-0.5501 Z0.0 E0.035
G1 X-0.4393 Y-0.5426 Z0.0 E0.035
G1 X-0.4488 Y-0.5348 Z0.0 E0.035
G1 X-0.458 Y-0.5269 Z0.0 E0.035
G1 X-0.4671 Y-0.5188 Z0.0 E0.035
G1 X-0.4761 Y-0.5106 Z0.0 E0.035
G1 X-0.485 Y-0.5022 Z0.0 E0.035
G1 X-0.4937 Y-0.4937 Z0.0 E0.035
G1 X-0.5022 Y-0.485 Z0.0 E0.035
G1 X-0.5106 Y-0.4761 Z0.0 E0.035
G1 X-0.5188 Y-0.4671 Z0.0 E0.035
G1 X-0.5269 Y-0.458 Z0.0 E0.035
G1 X-0.5348 Y-0.4488 Z0.0 E0.035
G1 X-0.5426 Y-0.4393 Z0.0 E0.035
G1 X-0.5501 Y-0.4298 Z0.0 E0.035
G1 X-0.5576 Y-0.4201 Z0.0 E0.035
G1 X-0.5648 Y-0.4104 Z0.0 E0.035
G1 X-0.5719 Y-0.4004 Z0.0 E0.035
G1 X-0.5788 Y-0.3904 Z0.0 E0.035
G1 X-0.5855 Y-0.3802 Z0.0 E0.035
G1 X-0.592 Y-0.37 Z0.0 E0.035
G1 X-0.5984 Y-0.3596 Z0.0 E0.035
G1 X-0.6046 Y-0.3491 Z0.0 E0.035
G1 X-0.6106 Y-0.3385 Z0.0 E0.035
G1 X-0.6164 Y-0.3278 Z0.0 E0.035
G1 X-0.622 Y-0.3169 Z0.0 E0.035
G1 X-0.6275 Y-0.306 Z0.0 E0.035
G1 X-0.6327 Y-0.295 Z0.0 E0.035
G1 X-0.6378 Y-0.284 Z0.0 E0.035
G1 X-0.6426 Y-0.2728 Z0.0 E0.035
G1 X-0.6473 Y-0.2615 Z0.0 E0.035
G1 X-0.6518 Y-0.2502 Z0.0 E0.035
G1 X-0.656 Y-0.2388 Z0.0 E0.035
G1 X-0.6601 Y-0.2273 Z0.0 E0.035
G1 X-0.664 Y-0.2157 Z0.0 E0.035
G1 X-0.6676 Y-0.2041 Z0.0 E0.035
G1 X-0.6711 Y-0.1924 Z0.0 E0.035
G1 X-0.6743 Y-0.1807 Z0.0 E0.035
G1 X-0.6774 Y-0.1689 Z0.0 E0.035
G1 X-0.6802 Y-0.157 Z0.0 E0.035
G1 X-0.6829 Y-0.1451 Z0.0 E0.035
G1 X-0.6853 Y-0.1332 Z0.0 E0.035
G1 X-0.6875 Y-0.1212 Z0.0 E0.035
G1 X-0.6895 Y-0.1092 Z0.0 E0.035
G1 X-0.6913 Y-0.0972 Z0.0 E0.035
G1 X-0.6929 Y-0.0851 Z0.0 E0.035
G1 X-0.6943 Y-0.073 Z0.0 E0.035
G1 X-0.6955 Y-0.0608 Z0.0 E0.035
G1 X-0.6964 Y-0.0487 Z0.0 E0.035
G1 X-0.6972 Y-0.0365 Z0.0 E0.035
G1 X-0.6977 Y-0.0244 Z0.0 E0.035
G1 X-0.698 Y-0.0122 Z0.0 E0.035
G1 X-0.6981 Y-0.0 Z0.0 E0.035
G1 X-0.698 Y0.0122 Z0.0 E0.035
G1 X-0.6977 Y0.0244 Z0.0 E0.035
G1 X-0.6972 Y0.0365 Z0.0 E0.035
G1 X-0.6964 Y0.0487 Z0.0 E0.035
G1 X-0.6955 Y0.0608 Z0.0 E0.035
G1 X-0.6943 Y0.073 Z0.0 E0.035
G1 X-0.6929 Y0.0851 Z0.0 E0.035
G1 X-0.6913 Y0.0972 Z0.0 E0.035
G1 X-0.6895 Y0.1092 Z0.0 E0.035
G1 X-0.6875 Y0.1212 Z0.0 E0.035
G1 X-0.6853 Y0.1332 Z0.0 E0.035
G1 X-0.6829 Y0.1451 Z0.0 E0.035
G1 X-0.6802 Y0.157 Z0.0 E0.035
G1 X-0.6774 Y0.1689 Z0.0 E0.035
G1 X-0.6743 Y0.1807 Z0.0 E0.035
G1 X-0.6711 Y0.1924 Z0.0 E0.035
G1 X-0.6676 Y0.2041 Z0.0 E0.035
G1 X-0.664 Y0.2157 Z0.0 E0.035
G1 X-0.6601 Y0.2273 Z0.0 E0.035
G1 X-0.656 Y0.2388 Z0.0 E0.035
G1 X-0.6518 Y0.2502 Z0.0 E0.035
G1 X-0.6473 Y0.2615 Z0.0 E0.035
G1 X-0.6426 Y0.2728 Z0.0 E0.035
G1 X-0.6378 Y0.284 Z0.0 E0.035
G1 X-0.6327 Y0.295 Z0.0 E0.035
G1 X-0.6275 Y0.306 Z0.0 E0.035
G1 X-0.622 Y0.3169 Z0.0 E0.035
G1 X-0.6164 Y0.3278 Z0.0 E0.035
G1 X-0.6106 Y0.3385 Z0.0 E0.035
G1 X-0.6046 Y0.3491 Z0.0 E0.035
G1 X-0.5984 Y0.3596 Z0.0 E0.035
G1 X-0.592 Y0.37 Z0.0 E0.035
G1 X-0.5855 Y0.3802 Z0.0 E0.035
G1 X-0.5788 Y0.3904 Z0.0 E0.035
G1 X-0.5719 Y0.4004 Z0.0 E0.035
G1 X-0.5648 Y0.4104 Z0.0 E0.035
G1 X-0.5576 Y0.4201 Z0.0 E0.035
G1 X-0.5501 Y0.4298 Z0.0 E0.035
G1 X-0.5426 Y0.4393 Z0.0 E0.035
G1 X-0.5348 Y0.4488 Z0.0 E0.035
G1 X-0.5269 Y0.458 Z0.0 E0.035
G1 X-0.5188 Y0.4671 Z0.0 E0.035
G1 X-0.5106 Y0.4761 Z0.0 E0.035
G1 X-0.5022 Y0.485 Z0.0 E0.035
G1 X-0.4937 Y0.4937 Z0.0 E0.035
G1 X-0.485 Y0.5022 Z0.0 E0.035
G1 X-0.4761 Y0.5106 Z0.0 E0.035
G1 X-0.4671 Y0.5188 Z0.0 E0.035
G1 X-0.458 Y0.5269 Z0.0 E0.035
G1 X-0.4488 Y0.5348 Z0.0 E0.035
G1 X-0.4393 Y0.5426 Z0.0 E0.035
G1 X-0.4298 Y0.5501 Z0.0 E0.035
G1 X-0.4201 Y0.5576 Z0.0 E0.035
G1 X-0.4104 Y0.5648 Z0.0 E0.035
G1 X-0.4004 Y0.5719 Z0.0 E0.035
G1 X-0.3904 Y0.5788 Z0.0 E0.035
G1 X-0.3802 Y0.5855 Z0.0 E0.035
G1 X-0.37 Y0.592 Z0.0 E0.035
G1 X-0.3596 Y0.5984 Z0.0 E0.035
G1 X-0.3491 Y0.6046 Z0.0 E0.035
G1 X-0.3385 Y0.6106 Z0.0 E0.035
G1 X-0.3278 Y0.6164 Z0.0 E0.035
G1 X-0.3169 Y0.622 Z0.0 E0.035
G1 X-0.306 Y0.6275 Z0.0 E0.035
G1 X-0.295 Y0.6327 Z0.0 E0.035
G1 X-0.284 Y0.6378 Z0.0 E0.035
G1 X-0.2728 Y0.6426 Z0.0 E0.035
G1 X-0.2615 Y0.6473 Z0.0 E0.035
G1 X-0.2502 Y0.6518 Z0.0 E0.035
G1 X-0.2388 Y0.656 Z0.0 E0.035
G1 X-0.2273 Y0.6601 Z0.0 E0.035
G1 X-0.2157 Y0.664 Z0.0 E0.035
G1 X-0.2041 Y0.6676 Z0.0 E0.035
G1 X-0.1924 Y0.6711 Z0.0 E0.035
G1 X-0.1807 Y0.6743 Z0.0 E0.035
G1 X-0.1689 Y0.6774 Z0.0 E0.035
G1 X-0.157 Y0.6802 Z0.0 E0.035
G1 X-0.1451 Y0.6829 Z0.0 E0.035
G1 X-0.1332 Y0.6853 Z0.0 E0.035
G1 X-0.1212 Y0.6875 Z0.0 E0.035
G1 X-0.1092 Y0.6895 Z0.0 E0.035
G1 X-0.0972 Y0.6913 Z0.0 E0.035
G1 X-0.0851 Y0.6929 Z0.0 E0.035
G1 X-0.073 Y0.6943 Z0.0 E0.035
G1 X-0.0608 Y0.6955 Z0.0 E0.035
G1 X-0.0487 Y0.6964 Z0.0 E0.035
G1 X-0.0365 Y0.6972 Z0.0 E0.035
G1 X-0.0244 Y0.6977 Z0.0 E0.035
G1 X-0.0122 Y0.698 Z0.0 E0.035
G1 X-0.0 Y0.6981 Z0.0 E0.035
G1 X0.0122 Y0.698 Z0.0 E0.035
G1 X0.0244 Y0.6977 Z0.0 E0.035
G1 X0.0365 Y0.6972 Z0.0 E0.035
G1 X0.0487 Y0.6964 Z0.0 E0.035
G1 X0.0608 Y0.6955 Z0.0 E0.035
G1 X0.073 Y0.6943 Z0.0 E0.035
G1 X0.0851 Y0.6929 Z0.0 E0.035
G1 X0.0972 Y0.6913 Z0.0 E0.035
G1 X0.1092 Y0.6895 Z0.0 E0.035
G1 X0.1212 Y0.6875 Z0.0 E0.035
G1 X0.1332 Y0.6853 Z0.0 E0.035
G1 X0.1451 Y0.6829 Z0.0 E0.035
G1 X0.157 Y0.6802 Z0.0 E0.035
G1 X0.1689 Y0.6774 Z0.0 E0.035
G1 X0.1807 Y0.6743 Z0.0 E0.035
G1 X0.1924 Y0.6711 Z0.0 E0.035
G1 X0.2041 Y0.6676 Z0.0 E0.035
G1 X0.2157 Y0.664 Z0.0 E0.035
G1 X0.2273 Y0.6601 Z0.0 E0.035
G1 X0.2388 Y0.656 Z0.0 E0.035
G1 X0.2502 Y0.6518 Z0.0 E0.035
G1 X0.2615 Y0.6473 Z0.0 E0.035
G1 X0.2728 Y0.6426 Z0.0 E0.035
G1 X0.284 Y0.6378 Z0.0 E0.035
G1 X0.295 Y0.6327 Z0.0 E0.035
G1 X0.306 Y0.6275 Z0.0 E0.035
G1 X0.3169 Y0.622 Z0.0 E0.035
G1 X0.3278 Y0.6164 Z0.0 E0.035
G1 X0.3385 Y0.6106 Z0.0 E0.035
G1 X0.3491 Y0.6046 Z0.0 E0.035
G1 X0.3596 Y0.5984 Z0.0 E0.035
G1 X0.37 Y0.592 Z0.0 E0.035
G1 X0.3802 Y0.5855 Z0.0 E0.035
G1 X0.3904 Y0.5788 Z0.0 E0.035
G1 X0.4004 Y0.5719 Z0.0 E0.035
G1 X0.4104 Y0.5648 Z0.0 E0.035
G1 X0.4201 Y0.5576 Z0.0 E0.035
G1 X0.4298 Y0.5501 Z0.0 E0.035
G1 X0.4393 Y0.5426 Z0.0 E0.035
G1 X0.4488 Y0.5348 Z0.0 E0.035
G1 X0.458 Y0.5269 Z0.0 E0.035
G1 X0.4671 Y0.5188 Z0.0 E0.035
G1 X0.4761 Y0.5106 Z0.0 E0.035
G1 X0.485 Y0.5022 Z0.0 E0.035
G1 X0.4937 Y0.4937 Z0.0 E0.035
G1 X0.5022 Y0.485 Z0.0 E0.035
G1 X0.5106 Y0.4761 Z0.0 E0.035
G1 X0.5188 Y0.4671 Z0.0 E0.035
G1 X0.5269 Y0.458 Z0.0 E0.035
G1 X0.5348 Y0.4488 Z0.0 E0.035
G1 X0.5426 Y0.4393 Z0.0 E0.035
G1 X0.5501 Y0.4298 Z0.0 E0.035
G1 X0.5576 Y0.4201 Z0.0 E0.035
G1 X0.5648 Y0.4104 Z0.0 E0.035
G1 X0.5719 Y0.4004 Z0.0 E0.035
G1 X0.5788 Y0.3904 Z0.0 E0.035
G1 X0.5855 Y0.3802 Z0.0 E0.035
G1 X0.592 Y0.37 Z0.0 E0.035
G1 X0.5984 Y0.3596 Z0.0 E0.035
G1 X0.6046 Y0.3491 Z0.0 E0.035
G1 X0.6106 Y0.3385 Z0.0 E0.035
G1 X0.6164 Y0.3278 Z0.0 E0.035
G1 X0.622 Y0.3169 Z0.0 E0.035
G1 X0.6275 Y0.306 Z0.0 E0.035
G1 X0.6327 Y0.295 Z0.0 E0.035
G1 X0.6378 Y0.284 Z0.0 E0.035
G1 X0.6426 Y0.2728 Z0.0 E0.035
G1 X0.6473 Y0.2615 Z0.0 E0.035
G1 X0.6518 Y0.2502 Z0.0 E0.035
G1 X0.656 Y0.2388 Z0.0 E0.035
G1 X0.6601 Y0.2273 Z0.0 E0.035
G1 X0.664 Y0.2157 Z0.0 E0.035
G1 X0.6676 Y0.2041 Z0.0 E0.035
G1 X0.6711 Y0.1924 Z0.0 E0.035
G1 X0.6743 Y0.1807 Z0.0 E0.035
G1 X0.6774 Y0.1689 Z0.0 E0.035
G1 X0.6802 Y0.157 Z0.0 E0.035
G1 X0.6829 Y0.1451 Z0.0 E0.035
G1 X0.6853 Y0.1332 Z0.0 E0.035
G1 X0.6875 Y0.1212 Z0.0 E0.035
G1 X0.6895 Y0.1092 Z0.0 E0.035
G1 X0.6913 Y0.0972 Z0.0 E0.035
G1 X0.6929 Y0.0851 Z0.0 E0.035
G1 X0.6943 Y0.073 Z0.0 E0.035
G1 X0.6955 Y0.0608 Z0.0 E0.035
G1 X0.6964 Y0.0487 Z0.0 E0.035
G1 X0.6972 Y0.0365 Z0.0 E0.035
G1 X0.6977 Y0.0244 Z0.0 E0.035
G1 X0.698 Y0.0122 Z0.0 E0.035
G1 X0.6981 Y0.0 Z0.0 E0.035
G1 X0.698 Y-0.0122 Z0.0 E0.035
G1 X0.6977 Y-0.0244 Z0.0 E0.035
G1 X0.6972 Y-0.0365 Z0.0 E0.035
G1 X0.6964 Y-0.0487 Z0.0 E0.035
G1 X0.6955 Y-0.0608 Z0.0 E0.035
G1 X0.6943 Y-0.073 Z0.0 E0.035
G1 X0.6929 Y-0.0851 Z0.0 E0.035
G1 X0.6913 Y-0.0972 Z0.0 E0.035
G1 X0.6895 Y-0.1092 Z0.0 E0.035
G1 X0.6875 Y-0.1212 Z0.0 E0.035
G1 X0.6853 Y-0.1332 Z0.0 E0.035
G1 X0.6829 Y-0.1451 Z0.0 E0.035
G1 X0.6802 Y-0.157 Z0.0 E0.035
G1 X0.6774 Y-0.1689 Z0.0 E0.035
G1 X0.6743 Y-0.1807 Z0.0 E0.035
G1 X0.6711 Y-0.1924 Z0.0 E0.035
G1 X0.6676 Y-0.2041 Z0.0 E0.035
G1 X0.664 Y-0.2157 Z0.0 E0.035
G1 X0.6601 Y-0.2273 Z0.0 E0.035
G1 X0.656 Y-0.2388 Z0.0 E0.035
G1 X0.6518 Y-0.2502 Z0.0 E0.035
G1 X0.6473 Y-0.2615 Z0.0 E0.035
G1 X0.6426 Y-0.2728 Z0.0 E0.035
G1 X0.6378 Y-0.284 Z0.0 E0.035
G1 X0.6327 Y-0.295 Z0.0 E0.035
G1 X0.6275 Y-0.306 Z0.0 E0.035
G1 X0.622 Y-0.3169 Z0.0 E0.035
G1 X0.6164 Y-0.3278 Z0.0 E0.035
G1 X0.6106 Y-0.3385 Z0.0 E0.035
G1 X0.6046 Y-0.3491 Z0.0 E0.035
G1 X0.5984 Y-0.3596 Z0.0 E0.035
G1 X0.592 Y-0.37 Z0.0 E0.035
G1 X0.5855 Y-0.3802 Z0.0 E0.035
G1 X0.5788 Y-0.3904 Z0.0 E0.035
G1 X0.5719 Y-0.4004 Z0.0 E0.035
G1 X0.5648 Y-0.4104 Z0.0 E0.035
G1 X0.5576 Y-0.4201 Z0.0 E0.035
G1 X0.5501 Y-0.4298 Z0.0 E0.035
G1 X0.5426 Y-0.4393 Z0.0 E0.035
G1 X0.5348 Y-0.4488 Z0.0 E0.035
G1 X0.5269 Y-0.458 Z0.0 E0.035
G1 X0.5188 Y-0.4671 Z0.0 E0.035
G1 X0.5106 Y-0.4761 Z0.0 E0.035
G1 X0.5022 Y-0.485 Z0.0 E0.035
G1 X0.4937 Y-0.4937 Z0.0 E0.035
G1 X0.485 Y-0.5022 Z0.0 E0.035
G1 X0.4761 Y-0.5106 Z0.0 E0.035
G1 X0.4671 Y-0.5188 Z0.0 E0.035
G1 X0.458 Y-0.5269 Z0.0 E0.035
G1 X0.4488 Y-0.5348 Z0.0 E0.035
G1 X0.4393 Y-0.5426 Z0.0 E0.035
G1 X0.4298 Y-0.5501 Z0.0 E0.035
G1 X0.4201 Y-0.5576 Z0.0 E0.035
G1 X0.4104 Y-0.5648 Z0.0 E0.035
G1 X0.4004 Y-0.5719 Z0.0 E0.035
G1 X0.3904 Y-0.5788 Z0.0 E0.035
G1 X0.3802 Y-0.5855 Z0.0 E0.035
G1 X0.37 Y-0.592 Z0.0 E0.035
G1 X0.3596 Y-0.5984 Z0.0 E0.035
G1 X0.3491 Y-0.6046 Z0.0 E0.035
G1 X0.3385 Y-0.6106 Z0.0 E0.035
G1 X0.3278 Y-0.6164 Z0.0 E0.035
G1 X0.3169 Y-0.622 Z0.0 E0.035
G1 X0.306 Y-0.6275 Z0.0 E0.035
G1 X0.295 Y-0.6327 Z0.0 E0.035
G1 X0.284 Y-0.6378 Z0.0 E0.035
G1 X0.2728 Y-0.6426 Z0.0 E0.035
G1 X0.2615 Y-0.6473 Z0.0 E0.035
G1 X0.2502 Y-0.6518 Z0.0 E0.035
G1 X0.2388 Y-0.656 Z0.0 E0.035
G1 X0.2273 Y-0.6601 Z0.0 E0.035
G1 X0.2157 Y-0.664 Z0.0 E0.035
G1 X0.2041 Y-0.6676 Z0.0 E0.035
G1 X0.1924 Y-0.6711 Z0.0 E0.035
G1 X0.1807 Y-0.6743 Z0.0 E0.035
G1 X0.1689 Y-0.6774 Z0.0 E0.035
G1 X0.157 Y-0.6802 Z0.0 E0.035
G1 X0.1451 Y-0.6829 Z0.0 E0.035
G1 X0.1332 Y-0.6853 Z0.0 E0.035
G1 X0.1212 Y-0.6875 Z0.0 E0.035
G1 X0.1092 Y-0.6895 Z0.0 E0.035
G1 X0.0972 Y-0.6913 Z0.0 E0.035
G1 X0.0851 Y-0.6929 Z0.0 E0.035
G1 X0.073 Y-0.6943 Z0.0 E0.035
G1 X0.0608 Y-0.6955 Z0.0 E0.035
G1 X0.0487 Y-0.6964 Z0.0 E0.035
G1 X0.0365 Y-0.6972 Z0.0 E0.035
G1 X0.0244 Y-0.6977 Z0.0 E0.035
G1 X0.0122 Y-0.698 Z0.0 E0.035
G1 Z0.2
G1 X0.0 Y-0.6981 Z0.0 E0.035
G1 X-0.0122 Y-0.698 Z0.0 E0.035
G1 X-0.0244 Y-0.6977 Z0.0 E0.035
G1 X-0.0365 Y-0.6972 Z0.0 E0.035
G1 X-0.0487 Y-0.6964 Z0.0 E0.035
G1 X-0.0608 Y-0.6955 Z0.0 E0.035
G1 X-0.073 Y-0.6943 Z0.0 E0.035
G1 X-0.0851 Y-0.6929 Z0.0 E0.035
G1 X-0.0972 Y-0.6913 Z0.0 E0.035
G1 X-0.1092 Y-0.6895 Z0.0 E0.035
G1 X-0.1212 Y-0.6875 Z0.0 E0.035
G1 X-0.1332 Y-0.6853 Z0.0 E0.035
G1 X-0.1451 Y-0.6829 Z0.0 E0.035
G1 X-0.157 Y-0.6802 Z0.0 E0.035
G1 X-0.1689 Y-0.6774 Z0.0 E0.035
G1 X-0.1807 Y-0.6743 Z0.0 E0.035
G1 X-0.1924 Y-0.6711 Z0.0 E0.035
G1 X-0.2041 Y-0.6676 Z0.0 E0.035
G1 X-0.2157 Y-0.664 Z0.0 E0.035
G1 X-0.2273 Y-0.6601 Z0.0 E0.035
G1 X-0.2388 Y-0.656 Z0.0 E0.035
G1 X-0.2502 Y-0.6518 Z0.0 E0.035
G1 X-0.2615 Y-0.6473 Z0.0 E0.035
G1 X-0.2728 Y-0.6426 Z0.0 E0.035
G1 X-0.284 Y-0.6378 Z0.0 E0.035
G1 X-0.295 Y-0.6327 Z0.0 E0.035
G1 X-0.306 Y-0.6275 Z0.0 E0.035
G1 X-0.3169 Y-0.622 Z0.0 E0.035
G1 X-0.3278 Y-0.6164 Z0.0 E0.035
G1 X-0.3385 Y-0.6106 Z0.0 E0.035
G1 X-0.3491 Y-0.6046 Z0.0 E0.035
G1 X-0.3596 Y-0.5984 Z0.0 E0.035
G1 X-0.37 Y-0.592 Z0.0 E0.035
G1 X-0.3802 Y-0.5855 Z0.0 E0.035
G1 X-0.3904 Y-0.5788 Z0.0 E0.035
G1 X-0.4004 Y-0.5719 Z0.0 E0.035
G1 X-0.4104 Y-0.5648 Z0.0 E0.035
G1 X-0.4201 Y-0.5576 Z0.0 E0.035
G1 X-0.4298 Y-0.5501 Z0.0 E0.035
G1 X-0.4393 Y-0.5426 Z0.0 E0.035
G1 X-0.4488 Y-0.5348 Z0.0 E0.035
G1 X-0.458 Y-0.5269 Z0.0 E0.035
G1 X-0.4671 Y-0.5188 Z0.0 E0.035
G1 X-0.4761 Y-0.5106 Z0.0 E0.035
G1 X-0.485 Y-0.5022 Z0.0 E0.035
G1 X-0.4937 Y-0.4937 Z0.0 E0.035
G1 X-0.5022 Y-0.485 Z0.0 E0.035
G1 X-0.5106 Y-0.4761 Z0.0 E0.035
G1 X-0.5188 Y-0.4671 Z0.0 E0.035
G1 X-0.5269 Y-0.458 Z0.0 E0.035
G1 X-0.5348 Y-0.4488 Z0.0 E0.035
G1 X-0.5426 Y-0.4393 Z0.0 E0.035
G1 X-0.5501 Y-0.4298 Z0.0 E0.035
G1 X-0.5576 Y-0.4201 Z0.0 E0.035
G1 X-0.5648 Y-0.4104 Z0.0 E0.035
G1 X-0.5719 Y-0.4004 Z0.0 E0.035
G1 X-0.5788 Y-0.3904 Z0.0 E0.035
G1 X-0.5855 Y-0.3802 Z0.0 E0.035
G1 X-0.592 Y-0.37 Z0.0 E0.035
G1 X-0.5984 Y-0.3596 Z0.0 E0.035
G1 X-0.6046 Y-0.3491 Z0.0 E0.035
G1 X-0.6106 Y-0.3385 Z0.0 E0.035
G1 X-0.6164 Y-0.3278 Z0.0 E0.035
G1 X-0.622 Y-0.3169 Z0.0 E0.035
G1 X-0.6275 Y-0.306 Z0.0 E0.035
G1 X-0.6327 Y-0.295 Z0.0 E0.035
G1 X-0.6378 Y-0.284 Z0.0 E0.035
G1 X-0.6426 Y-0.2728 Z0.0 E0.035
G1 X-0.6473 Y-0.2615 Z0.0 E0.035
G1 X-0.6518 Y-0.2502 Z0.0 E0.035
G1 X-0.656 Y-0.2388 Z0.0 E0.035
G1 X-0.6601 Y-0.2273 Z0.0 E0.035
G1 X-0.664 Y-0.2157 Z0.0 E0.035
G1 X-0.6676 Y-0.2041 Z0.0 E0.035
G1 X-0.6711 Y-0.1924 Z0.0 E0.035
G1 X-0.6743 Y-0.1807 Z0.0 E0.035
G1 X-0.6774 Y-0.1689 Z0.0 E0.035
G1 X-0.6802 Y-0.157 Z0.0 E0.035
G1 X-0.6829 Y-0.1451 Z0.0 E0.035
G1 X-0.6853 Y-0.1332 Z0.0 E0.035
G1 X-0.6875 Y-0.1212 Z0.0 E0.035
G1 X-0.6895 Y-0.1092 Z0.0 E0.035
G1 X-0.6913 Y-0.0972 Z0.0 E0.035
G1 X-0.6929 Y-0.0851 Z0.0 E0.035
G1 X-0.6943 Y-0.073 Z0.0 E0.035
G1 X-0.6955 Y-0.0608 Z0.0 E0.035
G1 X-0.6964 Y-0.0487 Z0.0 E0.035
G1 X-0.6972 Y-0.0365 Z0.0 E0.035
G1 X-0.6977 Y-0.0244 Z0.0 E0.035
G1 X-0.698 Y-0.0122 Z0.0 E0.035
G1 X-0.6981 Y-0.0 Z0.0 E0.035
G1 X-0.698 Y0.0122 Z0.0 E0.035
G1 X-0.6977 Y0.0244 Z0.0 E0.035
G1 X-0.6972 Y0.0365 Z0.0 E0.035
G1 X-0.6964 Y0.0487 Z0.0 E0.035
G1 X-0.6955 Y0.0608 Z0.0 E0.035
G1 X-0.6943 Y0.073 Z0.0 E0.035
G1 X-0.6929 Y0.0851 Z0.0 E0.035
G1 X-0.6913 Y0.0972 Z0.0 E0.035
G1 X-0.6895 Y0.1092 Z0.0 E0.035
G1 X-0.6875 Y0.1212 Z0.0 E0.035
G1 X-0.6853 Y0.1332 Z0.0 E0.035
G1 X-0.6829 Y0.1451 Z0.0 E0.035
G1 X-0.6802 Y0.157 Z0.0 E0.035
G1 X-0.6774 Y0.1689 Z0.0 E0.035
G1 X-0.6743 Y0.1807 Z0.0 E0.035
G1 X-0.6711 Y0.1924 Z0.0 E0.035
G1 X-0.6676 Y0.2041 Z0.0 E0.035
G1 X-0.664 Y0.2157 Z0.0 E0.035
G1 X-0.6601 Y0.2273 Z0.0 E0.035
G1 X-0.656 Y0.2388 Z0.0 E0.035
G1 X-0.6518 Y0.2502 Z0.0 E0.035
G1 X-0.6473 Y0.2615 Z0.0 E0.035
G1 X-0.6426 Y0.2728 Z0.0 E0.035
G1 X-0.6378 Y0.284 Z0.0 E0.035
G1 X-0.6327 Y0.295 Z0.0 E0.035
G1 X-0.6275 Y0.306 Z0.0 E0.035
G1 X-0.622 Y0.3169 Z0.0 E0.035
G1 X-0.6164 Y0.3278 Z0.0 E0.035
G1 X-0.6106 Y0.3385 Z0.0 E0.035
G1 X-0.6046 Y0.3491 Z0.0 E0.035
G1 X-0.5984 Y0.3596 Z0.0 E0.035
G1 X-0.592 Y0.37 Z0.0 E0.035
G1 X-0.5855 Y0.3802 Z0.0 E0.035
G1 X-0.5788 Y0.3904 Z0.0 E0.035
G1 X-0.5719 Y0.4004 Z0.0 E0.035
G1 X-0.5648 Y0.4104 Z0.0 E0.035
G1 X-0.5576 Y0.4201 Z0.0 E0.035
G1 X-0.5501 Y0.4298 Z0.0 E0.035
G1 X-0.5426 Y0.4393 Z0.0 E0.035
G1 X-0.5348 Y0.4488 Z0.0 E0.035
G1 X-0.5269 Y0.458 Z0.0 E0.035
G1 X-0.5188 Y0.4671 Z0.0 E0.035
G1 X-0.5106 Y0.4761 Z0.0 E0.035
G1 X-0.5022 Y0.485 Z0.0 E0.035
G1 X-0.4937 Y0.4937 Z0.0 E0.035
G1 X-0.485 Y0.5022 Z0.0 E0.035
G1 X-0.4761 Y0.5106 Z0.0 E0.035
G1 X-0.4671 Y0.5188 Z0.0 E0.035
G1 X-0.458 Y0.5269 Z0.0 E0.035
G1 X-0.4488 Y0.5348 Z0.0 E0.035
G1 X-0.4393 Y0.5426 Z0.0 E0.035
G1 X-0.4298 Y0.5501 Z0.0 E0.035
G1 X-0.4201 Y0.5576 Z0.0 E0.035
G1 X-0.4104 Y0.5648 Z0.0 E0.035
G1 X-0.4004 Y0.5719 Z0.0 E0.035
G1 X-0.3904 Y0.5788 Z0.0 E0.035
G1 X-0.3802 Y0.5855 Z0.0 E0.035
G1 X-0.37 Y0.592 Z0.0 E0.035
G1 X-0.3596 Y0.5984 Z0.0 E0.035
G1 X-0.3491 Y0.6046 Z0.0 E0.035
G1 X-0.3385 Y0.6106 Z0.0 E0.035
G1 X-0.3278 Y0.6164 Z0.0 E0.035
G1 X-0.3169 Y0.622 Z0.0 E0.035
G1 X-0.306 Y0.6275 Z0.0 E0.035
G1 X-0.295 Y0.6327 Z0.0 E0.035
G1 X-0.284 Y0.6378 Z0.0 E0.035
G1 X-0.2728 Y0.6426 Z0.0 E0.035
G1 X-0.2615 Y0.6473 Z0.0 E0.035
G1 X-0.2502 Y0.6518 Z0.0 E0.035
G1 X-0.2388 Y0.656 Z0.0 E0.035
G1 X-0.2273 Y0.6601 Z0.0 E0.035
G1 X-0.2157 Y0.664 Z0.0 E0.035
G1 X-0.2041 Y0.6676 Z0.0 E0.035
G1 X-0.1924 Y0.6711 Z0.0 E0.035
G1 X-0.1807 Y0.6743 Z0.0 E0.035
G1 X-0.1689 Y0.6774 Z0.0 E0.035
G1 X-0.157 Y0.6802 Z0.0 E0.035
G1 X-0.1451 Y0.6829 Z0.0 E0.035
G1 X-0.1332 Y0.6853 Z0.0 E0.035
G1 X-0.1212 Y0.6875 Z0.0 E0.035
G1 X-0.1092 Y0.6895 Z0.0 E0.035
G1 X-0.0972 Y0.6913 Z0.0 E0.035
G1 X-0.0851 Y0.6929 Z0.0 E0.035
G1 X-0.073 Y0.6943 Z0.0 E0.035
G1 X-0.0608 Y0.6955 Z0.0 E0.035
G1 X-0.0487 Y0.6964 Z0.0 E0.035
G1 X-0.0365 Y0.6972 Z0.0 E0.035
G1 X-0.0244 Y0.6977 Z0.0 E0.035
G1 X-0.0122 Y0.698 Z0.0 E0.035
G1 X-0.0 Y0.6981 Z0.0 E0.035
G1 X0.0122 Y0.698 Z0.0 E0.035
G1 X0.0244 Y0.6977 Z0.0 E0.035
G1 X0.0365 Y0.6972 Z0.0 E0.035
G1 X0.0487 Y0.6964 Z0.0 E0.035
G1 X0.0608 Y0.6955 Z0.0 E0.035
G1 X0.073 Y0.6943 Z0.0 E0.035
G1 X0.0851 Y0.6929 Z0.0 E0.035
G1 X0.0972 Y0.6913 Z0.0 E0.035
G1 X0.1092 Y0.6895 Z0.0 E0.035
G1 X0.1212 Y0.6875 Z0.0 E0.035
G1 X0.1332 Y0.6853 Z0.0 E0.035
G1 X0.1451 Y0.6829 Z0.0 E0.035
G1 X0.157 Y0.6802 Z0.0 E0.035
G1 X0.1689 Y0.6774 Z0.0 E0.035
G1 X0.1807 Y0.6743 Z0.0 E0.035
G1 X0.1924 Y0.6711 Z0.0 E0.035
G1 X0.2041 Y0.6676 Z0.0 E0.035
G1 X0.2157 Y0.664 Z0.0 E0.035
G1 X0.2273 Y0.6601 Z0.0 E0.035
G1 X0.2388 Y0.656 Z0.0 E0.035
G1 X0.2502 Y0.6518 Z0.0 E0.035
G1 X0.2615 Y0.6473 Z0.0 E0.035
G1 X0.2728 Y0.6426 Z0.0 E0.035
G1 X0.284 Y0.6378 Z0.0 E0.035
G1 X0.295 Y0.6327 Z0.0 E0.035
G1 X0.306 Y0.6275 Z0.0 E0.035
G1 X0.3169 Y0.622 Z0.0 E0.035
G1 X0.3278 Y0.6164 Z0.0 E0.035
G1 X0.3385 Y0.6106 Z0.0 E0.035
G1 X0.3491 Y0.6046 Z0.0 E0.035
G1 X0.3596 Y0.5984 Z0.0 E0.035
G1 X0.37 Y0.592 Z0.0 E0.035
G1 X0.3802 Y0.5855 Z0.0 E0.035
G1 X0.3904 Y0.5788 Z0.0 E0.035
G1 X0.4004 Y0.5719 Z0.0 E0.035
G1 X0.4104 Y0.5648 Z0.0 E0.035
G1 X0.4201 Y0.5576 Z0.0 E0.035
G1 X0.4298 Y0.5501 Z0.0 E0.035
G1 X0.4393 Y0.5426 Z0.0 E0.035
G1 X0.4488 Y0.5348 Z0.0 E0.035
G1 X0.458 Y0.5269 Z0.0 E0.035
G1 X0.4671 Y0.5188 Z0.0 E0.035
G1 X0.4761 Y0.5106 Z0.0 E0.035
G1 X0.485 Y0.5022 Z0.0 E0.035
G1 X0.4937 Y0.4937 Z0.0 E0.035
G1 X0.5022 Y0.485 Z0.0 E0.035
G1 X0.5106 Y0.4761 Z0.0 E0.035
G1 X0.5188 Y0.4671 Z0.0 E0.035
G1 X0.5269 Y0.458 Z0.0 E0.035
G1 X0.5348 Y0.4488 Z0.0 E0.035
G1 X0.5426 Y0.4393 Z0.0 E0.035
G1 X0.5501 Y0.4298 Z0.0 E0.035
G1 X0.5576 Y0.4201 Z0.0 E0.035
G1 X0.5648 Y0.4104 Z0.0 E0.035
G1 X0.5719 Y0.4004 Z0.0 E0.035
G1 X0.5788 Y0.3904 Z0.0 E0.035
G1 X0.5855 Y0.3802 Z0.0 E0.035
G1 X0.592 Y0.37 Z0.0 E0.035
G1 X0.5984 Y0.3596 Z0.0 E0.035
G1 X0.6046 Y0.3491 Z0.0 E0.035
G1 X0.6106 Y0.3385 Z0.0 E0.035
G1 X0.6164 Y0.3278 Z0.0 E0.035
G1 X0.622 Y0.3169 Z0.0 E0.035
G1 X0.6275 Y0.306 Z0.0 E0.035
G1 X0.6327 Y0.295 Z0.0 E0.035
G1 X0.6378 Y0.284 Z0.0 E0.035
G1 X0.6426 Y0.2728 Z0.0 E0.035
G1 X0.6473 Y0.2615 Z0.0 E0.035
G1 X0.6518 Y0.2502 Z0.0 E0.035
G1 X0.656 Y0.2388 Z0.0 E0.035
G1 X0.6601 Y0.2273 Z0.0 E0.035
G1 X0.664 Y0.2157 Z0.0 E0.035
G1 X0.6676 Y0.2041 Z0.0 E0.035
G1 X0.6711 Y0.1924 Z0.0 E0.035
G1 X0.6743 Y0.1807 Z0.0 E0.035
G1 X0.6774 Y0.1689 Z0.0 E0.035
G1 X0.6802 Y0.157 Z0.0 E0.035
G1 X0.6829 Y0.1451 Z0.0 E0.035
G1 X0.6853 Y0.1332 Z0.0 E0.035
G1 X0.6875 Y0.1212 Z0.0 E0.035
G1 X0.6895 Y0.1092 Z0.0 E0.035
G1 X0.6913 Y0.0972 Z0.0 E0.035
G1 X0.6929 Y0.0851 Z0.0 E0.035
G1 X0.6943 Y0.073 Z0.0 E0.035
G1 X0.6955 Y0.0608 Z0.0 E0.035
G1 X0.6964 Y0.0487 Z0.0 E0.035
G1 X0.6972 Y0.0365 Z0.0 E0.035
G1 X0.6977 Y0.0244 Z0.0 E0.035
G1 X0.698 Y0.0122 Z0.0 E0.035
G1 X0.6981 Y0.0 Z0.0 E0.035
G1 X0.698 Y-0.0122 Z0.0 E0.035
G1 X0.6977 Y-0.0244 Z0.0 E0.035
G1 X0.6972 Y-0.0365 Z0.0 E0.035
G1 X0.6964 Y-0.0487 Z0.0 E0.035
G1 X0.6955 Y-0.0608 Z0.0 E0.035
G1 X0.6943 Y-0.073 Z0.0 E0.035
G1 X0.6929 Y-0.0851 Z0.0 E0.035
G1 X0.6913 Y-0.0972 Z0.0 E0.035
G1 X0.6895 Y-0.1092 Z0.0 E0.035
G1 X0.6875 Y-0.1212 Z0.0 E0.035
G1 X0.6853 Y-0.1332 Z0.0 E0.035
G1 X0.6829 Y-0.1451 Z0.0 E0.035
G1 X0.6802 Y-0.157 Z0.0 E0.035
G1 X0.6774 Y-0.1689 Z0.0 E0.035
G1 X0.6743 Y-0.1807 Z0.0 E0.035
G1 X0.6711 Y-0.1924 Z0.0 E0.035
G1 X0.6676 Y-0.2041 Z0.0 E0.035
G1 X0.664 Y-0.2157 Z0.0 E0.035
G1 X0.6601 Y-0.2273 Z0.0 E0.035
G1 X0.656 Y-0.2388 Z0.0 E0.035
G1 X0.6518 Y-0.2502 Z0.0 E0.035
G1 X0.6473 Y-0.2615 Z0.0 E0.035
G1 X0.6426 Y-0.2728 Z0.0 E0.035
G1 X0.6378 Y-0.284 Z0.0 E0.035
G1 X0.6327 Y-0.295 Z0.0 E0.035
G1 X0.6275 Y-0.306 Z0.0 E0.035
G1 X0.622 Y-0.3169 Z0.0 E0.035
G1 X0.6164 Y-0.3278 Z0.0 E0.035
G1 X0.6106 Y-0.3385 Z0.0 E0.035
G1 X0.6046 Y-0.3491 Z0.0 E0.035
G1 X0.5984 Y-0.3596 Z0.0 E0.035
G1 X0.592 Y-0.37 Z0.0 E0.035
G1 X0.5855 Y-0.3802 Z0.0 E0.035
G1 X0.5788 Y-0.3904 Z0.0 E0.035
G1 X0.5719 Y-0.4004 Z0.0 E0.035
G1 X0.5648 Y-0.4104 Z0.0 E0.035
G1 X0.5576 Y-0.4201 Z0.0 E0.035
G1 X0.5501 Y-0.4298 Z0.0 E0.035
G1 X0.5426 Y-0.4393 Z0.0 E0.035
G1 X0.5348 Y-0.4488 Z0.0 E0.035
G1 X0.5269 Y-0.458 Z0.0 E0.035
G1 X0.5188 Y-0.4671 Z0.0 E0.035
G1 X0.5106 Y-0.4761 Z0.0 E0.035
G1 X0.5022 Y-0.485 Z0.0 E0.035
G1 X0.4937 Y-0.4937 Z0.0 E0.035
G1 X0.485 Y-0.5022 Z0.0 E0.035
G1 X0.4761 Y-0.5106 Z0.0 E0.035
G1 X0.4671 Y-0.5188 Z0.0 E0.035
G1 X0.458 Y-0.5269 Z0.0 E0.035
G1 X0.4488 Y-0.5348 Z0.0 E0.035
G1 X0.4393 Y-0.5426 Z0.0 E0.035
G1 X0.4298 Y-0.5501 Z0.0 E0.035
G1 X0.4201 Y-0.5576 Z0.0 E0.035
G1 X0.4104 Y-0.5648 Z0.0 E0.035
G1 X0.4004 Y-0.5719 Z0.0 E0.035
G1 X0.3904 Y-0.5788 Z0.0 E0.035
G1 X0.3802 Y-0.5855 Z0.0 E0.035
G1 X0.37 Y-0.592 Z0.0 E0.035
G1 X0.3596 Y-0.5984 Z0.0 E0.035
G1 X0.3491 Y-0.6046 Z0.0 E0.035
G1 X0.3385 Y-0.6106 Z0.0 E0.035
G1 X0.3278 Y-0.6164 Z0.0 E0.035
G1 X0.3169 Y-0.622 Z0.0 E0.035
G1 X0.306 Y-0.6275 Z0.0 E0.035
G1 X0.295 Y-0.6327 Z0.0 E0.035
G1 X0.284 Y-0.6378 Z0.0 E0.035
G1 X0.2728 Y-0.6426 Z0.0 E0.035
G1 X0.2615 Y-0.6473 Z0.0 E0.035
G1 X0.2502 Y-0.6518 Z0.0 E0.035
G1 X0.2388 Y-0.656 Z0.0 E0.035
G1 X0.2273 Y-0.6601 Z0.0 E0.035
G1 X0.2157 Y-0.664 Z0.0 E0.035
G1 X0.2041 Y-0.6676 Z0.0 E0.035
G1 X0.1924 Y-0.6711 Z0.0 E0.035
G1 X0.1807 Y-0.6743 Z0.0 E0.035
G1 X0.1689 Y-0.6774 Z0.0 E0.035
G1 X0.157 Y-0.6802 Z0.0 E0.035
G1 X0.1451 Y-0.6829 Z0.0 E0.035
G1 X0.1332 Y-0.6853 Z0.0 E0.035
G1 X0.1212 Y-0.6875 Z0.0 E0.035
G1 X0.1092 Y-0.6895 Z0.0 E0.035
G1 X0.0972 Y-0.6913 Z0.0 E0.035
G1 X0.0851 Y-0.6929 Z0.0 E0.035
G1 X0.073 Y-0.6943 Z0.0 E0.035
G1 X0.0608 Y-0.6955 Z0.0 E0.035
G1 X0.0487 Y-0.6964 Z0.0 E0.035
G1 X0.0365 Y-0.6972 Z0.0 E0.035
G1 X0.0244 Y-0.6977 Z0.0 E0.035
G1 X0.0122 Y-0.698 Z0.0 E0.035
G1 Z0.2
G1 X-60.0 Y34.641 Z-0.0 E3.464
G1 X0.0 Y-69.282 Z0.0 E3.464
G1 X60.0 Y34.641 Z0.0 E3.464
G1 X0.0 Y-0.6981 Z0.0 E0.035
G1 X-0.0122 Y-0.698 Z0.0 E0.035
G1 X-0.0244 Y-0.6977 Z0.0 E0.035
G1 X-0.0365 Y-0.6972 Z0.0 E0.035
G1 X-0.0487 Y-0.6964 Z0.0 E0.035
G1 X-0.0608 Y-0.6955 Z0.0 E0.035
G1 X-0.073 Y-0.6943 Z0.0 E0.035
G1 X-0.0851 Y-0.6929 Z0.0 E0.035
G1 X-0.0972 Y-0.6913 Z0.0 E0.035
G1 X-0.1092 Y-0.6895 Z0.0 E0.035
G1 X-0.1212 Y-0.6875 Z0.0 E0.035
G1 X-0.1332 Y-0.6853 Z0.0 E0.035
G1 X-0.1451 Y-0.6829 Z0.0 E0.035
G1 X-0.157 Y-0.6802 Z0.0 E0.035
G1 X-0.1689 Y-0.6774 Z0.0 E0.035
G1 X-0.1807 Y-0.6743 Z0.0 E0.035
G1 X-0.1924 Y-0.6711 Z0.0 E0.035
G1 X-0.2041 Y-0.6676 Z0.0 E0.035
G1 X-0.2157 Y-0.664 Z0.0 E0.035
G1 X-0.2273 Y-0.6601 Z0.0 E0.035
G1 X-0.2388 Y-0.656 Z0.0 E0.035
G1 X-0.2502 Y-0.6518 Z0.0 E0.035
G1 X-0.2615 Y-0.6473 Z0.0 E0.035
G1 X-0.2728 Y-0.6426 Z0.0 E0.035
G1 X-0.284 Y-0.6378 Z0.0 E0.035
G1 X-0.295 Y-0.6327 Z0.0 E0.035
G1 X-0.306 Y-0.6275 Z0.0 E0.035
G1 X-0.3169 Y-0.622 Z0.0 E0.035
G1 X-0.3278 Y-0.6164 Z0.0 E0.035
G1 X-0.3385 Y-0.6106 Z0.0 E0.035
G1 X-0.3491 Y-0.6046 Z0.0 E0.035
G1 X-0.3596 Y-0.5984 Z0.0 E0.035
G1 X-0.37 Y-0.592 Z0.0 E0.035
G1 X-0.3802 Y-0.5855 Z0.0 E0.035
G1 X-0.3904 Y-0.5788 Z0.0 E0.035
G1 X-0.4004 Y-0.5719 Z0.0 E0.035
G1 X-0.4104 Y-0.5648 Z0.0 E0.035
G1 X-0.4201 Y-0.5576 Z0.0 E0.035
G1 X-0.4298 Y-0.5501 Z0.0 E0.035
G1 X-0.4393 Y-0.5426 Z0.0 E0.035
G1 X-0.4488 Y-0.5348 Z0.0 E0.035
G1 X-0.458 Y-0.5269 Z0.0 E0.035
G1 X-0.4671 Y-0.5188 Z0.0 E0.035
G1 X-0.4761 Y-0.5106 Z0.0 E0.035
G1 X-0.485 Y-0.5022 Z0.0 E0.035
G1 X-0.4937 Y-0.4937 Z0.0 E0.035
G1 X-0.5022 Y-0.485 Z0.0 E0.035
G1 X-0.5106 Y-0.4761 Z0.0 E0.035
G1 X-0.5188 Y-0.4671 Z0.0 E0.035
G1 X-0.5269 Y-0.458 Z0.0 E0.035
G1 X-0.5348 Y-0.4488 Z0.0 E0.035
G1 X-0.5426 Y-0.4393 Z0.0 E0.035
G1 X-0.5501 Y-0.4298 Z0.0 E0.035
G1 X-0.5576 Y-0.4201 Z0.0 E0.035
G1 X-0.5648 Y-0.4104 Z0.0 E0.035
G1 X-0.5719 Y-0.4004 Z0.0 E0.035
G1 X-0.5788 Y-0.3904 Z0.0 E0.035
G1 X-0.5855 Y-0.3802 Z0.0 E0.035
G1 X-0.592 Y-0.37 Z0.0 E0.035
G1 X-0.5984 Y-0.3596 Z0.0 E0.035
G1 X-0.6046 Y-0.3491 Z0.0 E0.035
G1 X-0.6106 Y-0.3385 Z0.0 E0.035
G1 X-0.6164 Y-0.3278 Z0.0 E0.035
G1 X-0.622 Y-0.3169 Z0.0 E0.035
G1 X-0.6275 Y-0.306 Z0.0 E0.035
G1 X-0.6327 Y-0.295 Z0.0 E0.035
G1 X-0.6378 Y-0.284 Z0.0 E0.035
G1 X-0.6426 Y-0.2728 Z0.0 E0.035
G1 X-0.6473 Y-0.2615 Z0.0 E0.035
G1 X-0.6518 Y-0.2502 Z0.0 E0.035
G1 X-0.656 Y-0.2388 Z0.0 E0.035
G1 X-0.6601 Y-0.2273 Z0.0 E0.035
G1 X-0.664 Y-0.2157 Z0.0 E0.035
G1 X-0.6676 Y-0.2041 Z0.0 E0.035
G1 X-0.6711 Y-0.1924 Z0.0 E0.035
G1 X-0.6743 Y-0.1807 Z0.0 E0.035
G1 X-0.6774 Y-0.1689 Z0.0 E0.035
G1 X-0.6802 Y-0.157 Z0.0 E0.035
G1 X-0.6829 Y-0.1451 Z0.0 E0.035
G1 X-0.6853 Y-0.1332 Z0.0 E0.035
G1 X-0.6875 Y-0.1212 Z0.0 E0.035
G1 X-0.6895 Y-0.1092 Z0.0 E0.035
G1 X-0.6913 Y-0.0972 Z0.0 E0.035
G1 X-0.6929 Y-0.0851 Z0.0 E0.035
G1 X-0.6943 Y-0.073 Z0.0 E0.035
G1 X-0.6955 Y-0.0608 Z0.0 E0.035
G1 X-0.6964 Y-0.0487 Z0.0 E0.035
G1 X-0.6972 Y-0.0365 Z0.0 E0.035
G1 X-0.6977 Y-0.0244 Z0.0 E0.035
G1 X-0.698 Y-0.0122 Z0.0 E0.035
G1 X-0.6981 Y-0.0 Z0.0 E0.035
G1 X-0.698 Y0.0122 Z0.0 E0.035
G1 X-0.6977 Y0.0244 Z0.0 E0.035
G1 X-0.6972 Y0.0365 Z0.0 E0.035
G1 X-0.6964 Y0.0487 Z0.0 E0.035
G1 X-0.6955 Y0.0608 Z0.0 E0.035
G1 X-0.6943 Y0.073 Z0.0 E0.035
G1 X-0.6929 Y0.0851 Z0.0 E0.035
G1 X-0.6913 Y0.0972 Z0.0 E0.035
G1 X-0.6895 Y0.1092 Z0.0 E0.035
G1 X-0.6875 Y0.1212 Z0.0 E0.035
G1 X-0.6853 Y0.1332 Z0.0 E0.035
G1 X-0.6829 Y0.1451 Z0.0 E0.035
G1 X-0.6802 Y0.157 Z0.0 E0.035
G1 X-0.6774 Y0.1689 Z0.0 E0.035
G1 X-0.6743 Y0.1807 Z0.0 E0.035
G1 X-0.6711 Y0.1924 Z0.0 E0.035
G1 X-0.6676 Y0.2041 Z0.0 E0.035
G1 X-0.664 Y0.2157 Z0.0 E0.035
G1 X-0.6601 Y0.2273 Z0.0 E0.035
G1 X-0.656 Y0.2388 Z0.0 E0.035
G1 X-0.6518 Y0.2502 Z0.0 E0.035
G1 X-0.6473 Y0.2615 Z0.0 E0.035
G1 X-0.6426 Y0.2728 Z0.0 E0.035
G1 X-0.6378 Y0.284 Z0.0 E0.035
G1 X-0.6327 Y0.295 Z0.0 E0.035
G1 X-0.6275 Y0.306 Z0.0 E0.035
G1 X-0.622 Y0.3169 Z0.0 E0.035
G1 X-0.6164 Y0.3278 Z0.0 E0.035
G1 X-0.6106 Y0.3385 Z0.0 E0.035
G1 X-0.6046 Y0.3491 Z0.0 E0.035
G1 X-0.5984 Y0.3596 Z0.0 E0.035
G1 X-0.592 Y0.37 Z0.0 E0.035
G1 X-0.5855 Y0.3802 Z0.0 E0.035
G1 X-0.5788 Y0.3904 Z0.0 E0.035
G1 X-0.5719 Y0.4004 Z0.0 E0.035
G1 X-0.5648 Y0.4104 Z0.0 E0.035
G1 X-0.5576 Y0.4201 Z0.0 E0.035
G1 X-0.5501 Y0.4298 Z0.0 E0.035
G1 X-0.5426 Y0.4393 Z0.0 E0.035
G1 X-0.5348 Y0.4488 Z0.0 E0.035
G1 X-0.5269 Y0.458 Z0.0 E0.035
G1 X-0.5188 Y0.4671 Z0.0 E0.035
G1 X-0.5106 Y0.4761 Z0.0 E0.035
G1 X-0.5022 Y0.485 Z0.0 E0.035
G1 X-0.4937 Y0.4937 Z0.0 E0.035
G1 X-0.485 Y0.5022 Z0.0 E0.035
G1 X-0.4761 Y0.5106 Z0.0 E0.035
G1 X-0.4671 Y0.5188 Z0.0 E0.035
G1 X-0.458 Y0.5269 Z0.0 E0.035
G1 X-0.4488 Y0.5348 Z0.0 E0.035
G1 X-0.4393 Y0.5426 Z0.0 E0.035
G1 X-0.4298 Y0.5501 Z0.0 E0.035
G1 X-0.4201 Y0.5576 Z0.0 E0.035
G1 X-0.4104 Y0.5648 Z0.0 E0.035
G1 X-0.4004 Y0.5719 Z0.0 E0.035
G1 X-0.3904 Y0.5788 Z0.0 E0.035
G1 X-0.3802 Y0.5855 Z0.0 E0.035
G1 X-0.37 Y0.592 Z0.0 E0.035
G1 X-0.3596 Y0.5984 Z0.0 E0.035
G1 X-0.3491 Y0.6046 Z0.0 E0.035
G1 X-0.3385 Y0.6106 Z0.0 E0.035
G1 X-0.3278 Y0.6164 Z0.0 E0.035
G1 X-0.3169 Y0.622 Z0.0 E0.035
G1 X-0.306 Y0.6275 Z0.0 E0.035
G1 X-0.295 Y0.6327 Z0.0 E0.035
G1 X-0.284 Y0.6378 Z0.0 E0.035
G1 X-0.2728 Y0.6426 Z0.0 E0.035
G1 X-0.2615 Y0.6473 Z0.0 E0.035
G1 X-0.2502 Y0.6518 Z0.0 E0.035
G1 X-0.2388 Y0.656 Z0.0 E0.035
G1 X-0.2273 Y0.6601 Z0.0 E0.035
G1 X-0.2157 Y0.664 Z0.0 E0.035
G1 X-0.2041 Y0.6676 Z0.0 E0.035
G1 X-0.1924 Y0.6711 Z0.0 E0.035
G1 X-0.1807 Y0.6743 Z0.0 E0.035
G1 X-0.1689 Y0.6774 Z0.0 E0.035
G1 X-0.157 Y0.6802 Z0.0 E0.035
G1 X-0.1451 Y0.6829 Z0.0 E0.035
G1 X-0.1332 Y0.6853 Z0.0 E0.035
G1 X-0.1212 Y0.6875 Z0.0 E0.035
G1 X-0.1092 Y0.6895 Z0.0 E0.035
G1 X-0.0972 Y0.6913 Z0.0 E0.035
G1 X-0.0851 Y0.6929 Z0.0 E0.035
G1 X-0.073 Y0.6943 Z0.0 E0.035
G1 X-0.0608 Y0.6955 Z0.0 E0.035
G1 X-0.0487 Y0.6964 Z0.0 E0.035
G1 X-0.0365 Y0.6972 Z0.0 E0.035
G1 X-0.0244 Y0.6977 Z0.0 E0.035
G1 X-0.0122 Y0.698 Z0.0 E0.035
G1 X-0.0 Y0.6981 Z0.0 E0.035
G1 X0.0122 Y0.698 Z0.0 E0.035
G1 X0.0244 Y0.6977 Z0.0 E0.035
G1 X0.0365 Y0.6972 Z0.0 E0.035
G1 X0.0487 Y0.6964 Z0.0 E0.035
G1 X0.0608 Y0.6955 Z0.0 E0.035
G1 X0.073 Y0.6943 Z0.0 E0.035
G1 X0.0851 Y0.6929 Z0.0 E0.035
G1 X0.0972 Y0.6913 Z0.0 E0.035
G1 X0.1092 Y0.6895 Z0.0 E0.035
G1 X0.1212 Y0.6875 Z0.0 E0.035
G1 X0.1332 Y0.6853 Z0.0 E0.035
G1 X0.1451 Y0.6829 Z0.0 E0.035
G1 X0.157 Y0.6802 Z0.0 E0.035
G1 X0.1689 Y0.6774 Z0.0 E0.035
G1 X0.1807 Y0.6743 Z0.0 E0.035
G1 X0.1924 Y0.6711 Z0.0 E0.035
G1 X0.2041 Y0.6676 Z0.0 E0.035
G1 X0.2157 Y0.664 Z0.0 E0.035
G1 X0.2273 Y0.6601 Z0.0 E0.035
G1 X0.2388 Y0.656 Z0.0 E0.035
G1 X0.2502 Y0.6518 Z0.0 E0.035
G1 X0.2615 Y0.6473 Z0.0 E0.035
G1 X0.2728 Y0.6426 Z0.0 E0.035
G1 X0.284 Y0.6378 Z0.0 E0.035
G1 X0.295 Y0.6327 Z0.0 E0.035
G1 X0.306 Y0.6275 Z0.0 E0.035
G1 X0.3169 Y0.622 Z0.0 E0.035
G1 X0.3278 Y0.6164 Z0.0 E0.035
G1 X0.3385 Y0.6106 Z0.0 E0.035
G1 X0.3491 Y0.6046 Z0.0 E0.035
G1 X0.3596 Y0.5984 Z0.0 E0.035
G1 X0.37 Y0.592 Z0.0 E0.035
G1 X0.3802 Y0.5855 Z0.0 E0.035
G1 X0.3904 Y0.5788 Z0.0 E0.035
G1 X0.4004 Y0.5719 Z0.0 E0.035
G1 X0.4104 Y0.5648 Z0.0 E0.035
G1 X0.4201 Y0.5576 Z0.0 E0.035
G1 X0.4298 Y0.5501 Z0.0 E0.035
G1 X0.4393 Y0.5426 Z0.0 E0.035
G1 X0.4488 Y0.5348 Z0.0 E0.035
G1 X0.458 Y0.5269 Z0.0 E0.035
G1 X0.4671 Y0.5188 Z0.0 E0.035
G1 X0.4761 Y0.5106 Z0.0 E0.035
G1 X0.485 Y0.5022 Z0.0 E0.035
G1 X0.4937 Y0.4937 Z0.0 E0.035
G1 X0.5022 Y0.485 Z0.0 E0.035
G1 X0.5106 Y0.4761 Z0.0 E0.035
G1 X0.5188 Y0.4671 Z0.0 E0.035
G1 X0.5269 Y0.458 Z0.0 E0.035
G1 X0.5348 Y0.4488 Z0.0 E0.035
G1 X0.5426 Y0.4393 Z0.0 E0.035
G1 X0.5501 Y0.4298 Z0.0 E0.035
G1 X0.5576 Y0.4201 Z0.0 E0.035
G1 X0.5648 Y0.4104 Z0.0 E0.035
G1 X0.5719 Y0.4004 Z0.0 E0.035
G1 X0.5788 Y0.3904 Z0.0 E0.035
G1 X0.5855 Y0.3802 Z0.0 E0.035
G1 X0.592 Y0.37 Z0.0 E0.035
G1 X0.5984 Y0.3596 Z0.0 E0.035
G1 X0.6046 Y0.3491 Z0.0 E0.035
G1 X0.6106 Y0.3385 Z0.0 E0.035
G1 X0.6164 Y0.3278 Z0.0 E0.035
G1 X0.622 Y0.3169 Z0.0 E0.035
G1 X0.6275 Y0.306 Z0.0 E0.035
G1 X0.6327 Y0.295 Z0.0 E0.035
G1 X0.6378 Y0.284 Z0.0 E0.035
G1 X0.6426 Y0.2728 Z0.0 E0.035
G1 X0.6473 Y0.2615 Z0.0 E0.035
G1 X0.6518 Y0.2502 Z0.0 E0.035
G1 X0.656 Y0.2388 Z0.0 E0.035
G1 X0.6601 Y0.2273 Z0.0 E0.035
G1 X0.664 Y0.2157 Z0.0 E0.035
G1 X0.6676 Y0.2041 Z0.0 E0.035
G1 X0.6711 Y0.1924 Z0.0 E0.035
G1 X0.6743 Y0.1807 Z0.0 E0.035
G1 X0.6774 Y0.1689 Z0.0 E0.035
G1 X0.6802 Y0.157 Z0.0 E0.035
G1 X0.6829 Y0.1451 Z0.0 E0.035
G1 X0.6853 Y0.1332 Z0.0 E0.035
G1 X0.6875 Y0.1212 Z0.0 E0.035
G1 X0.6895 Y0.1092 Z0.0 E0.035
G1 X0.6913 Y0.0972 Z0.0 E0.035
G1 X0.6929 Y0.0851 Z0.0 E0.035
G1 X0.6943 Y0.073 Z0.0 E0.035
G1 X0.6955 Y0.0608 Z0.0 E0.035
G1 X0.6964 Y0.0487 Z0.0 E0.035
G1 X0.6972 Y0.0365 Z0.0 E0.035
G1 X0.6977 Y0.0244 Z0.0 E0.035
G1 X0.698 Y0.0122 Z0.0 E0.035
G1 X0.6981 Y0.0 Z0.0 E0.035
G1 X0.698 Y-0.0122 Z0.0 E0.035
G1 X0.6977 Y-0.0244 Z0.0 E0.035
G1 X0.6972 Y-0.0365 Z0.0 E0.035
G1 X0.6964 Y-0.0487 Z0.0 E0.035
G1 X0.6955 Y-0.0608 Z0.0 E0.035
G1 X0.6943 Y-0.073 Z0.0 E0.035
G1 X0.6929 Y-0.0851 Z0.0 E0.035
G1 X0.6913 Y-0.0972 Z0.0 E0.035
G1 X0.6895 Y-0.1092 Z0.0 E0.035
G1 X0.6875 Y-0.1212 Z0.0 E0.035
G1 X0.6853 Y-0.1332 Z0.0 E0.035
G1 X0.6829 Y-0.1451 Z0.0 E0.035
G1 X0.6802 Y-0.157 Z0.0 E0.035
G1 X0.6774 Y-0.1689 Z0.0 E0.035
G1 X0.6743 Y-0.1807 Z0.0 E0.035
G1 X0.6711 Y-0.1924 Z0.0 E0.035
G1 X0.6676 Y-0.2041 Z0.0 E0.035
G1 X0.664 Y-0.2157 Z0.0 E0.035
G1 X0.6601 Y-0.2273 Z0.0 E0.035
G1 X0.656 Y-0.2388 Z0.0 E0.035
G1 X0.6518 Y-0.2502 Z0.0 E0.035
G1 X0.6473 Y-0.2615 Z0.0 E0.035
G1 X0.6426 Y-0.2728 Z0.0 E0.035
G1 X0.6378 Y-0.284 Z0.0 E0.035
G1 X0.6327 Y-0.295 Z0.0 E0.035
G1 X0.6275 Y-0.306 Z0.0 E0.035
G1 X0.622 Y-0.3169 Z0.0 E0.035
G1 X0.6164 Y-0.3278 Z0.0 E0.035
G1 X0.6106 Y-0.3385 Z0.0 E0.035
G1 X0.6046 Y-0.3491 Z0.0 E0.035
G1 X0.5984 Y-0.3596 Z0.0 E0.035
G1 X0.592 Y-0.37 Z0.0 E0.035
G1 X0.5855 Y-0.3802 Z0.0 E0.035
G1 X0.5788 Y-0.3904 Z0.0 E0.035
G1 X0.5719 Y-0.4004 Z0.0 E0.035
G1 X0.5648 Y-0.4104 Z0.0 E0.035
G1 X0.5576 Y-0.4201 Z0.0 E0.035
G1 X0.5501 Y-0.4298 Z0.0 E0.035
G1 X0.5426 Y-0.4393 Z0.0 E0.035
G1 X0.5348 Y-0.4488 Z0.0 E0.035
G1 X0.5269 Y-0.458 Z0.0 E0.035
G1 X0.5188 Y-0.4671 Z0.0 E0.035
G1 X0.5106 Y-0.4761 Z0.0 E0.035
G1 X0.5022 Y-0.485 Z0.0 E0.035
G1 X0.4937 Y-0.4937 Z0.0 E0.035
G1 X0.485 Y-0.5022 Z0.0 E0.035
G1 X0.4761 Y-0.5106 Z0.0 E0.035
G1 X0.4671 Y-0.5188 Z0.0 E0.035
G1 X0.458 Y-0.5269 Z0.0 E0.035
G1 X0.4488 Y-0.5348 Z0.0 E0.035
G1 X0.4393 Y-0.5426 Z0.0 E0.035
G1 X0.4298 Y-0.5501 Z0.0 E0.035
G1 X0.4201 Y-0.5576 Z0.0 E0.035
G1 X0.4104 Y-0.5648 Z0.0 E0.035
G1 X0.4004 Y-0.5719 Z0.0 E0.035
G1 X0.3904 Y-0.5788 Z0.0 E0.035
G1 X0.3802 Y-0.5855 Z0.0 E0.035
G1 X0.37 Y-0.592 Z0.0 E0.035
G1 X0.3596 Y-0.5984 Z0.0 E0.035
G1 X0.3491 Y-0.6046 Z0.0 E0.035
G1 X0.3385 Y-0.6106 Z0.0 E0.035
G1 X0.3278 Y-0.6164 Z0.0 E0.035
G1 X0.3169 Y-0.622 Z0.0 E0.035
G1 X0.306 Y-0.6275 Z0.0 E0.035
G1 X0.295 Y-0.6327 Z0.0 E0.035
G1 X0.284 Y-0.6378 Z0.0 E0.035
G1 X0.2728 Y-0.6426 Z0.0 E0.035
G1 X0.2615 Y-0.6473 Z0.0 E0.035
G1 X0.2502 Y-0.6518 Z0.0 E0.035
G1 X0.2388 Y-0.656 Z0.0 E0.035
G1 X0.2273 Y-0.6601 Z0.0 E0.035
G1 X0.2157 Y-0.664 Z0.0 E0.035
G1 X0.2041 Y-0.6676 Z0.0 E0.035
G1 X0.1924 Y-0.6711 Z0.0 E0.035
G1 X0.1807 Y-0.6743 Z0.0 E0.035
G1 X0.1689 Y-0.6774 Z0.0 E0.035
G1 X0.157 Y-0.6802 Z0.0 E0.035
G1 X0.1451 Y-0.6829 Z0.0 E0.035
G1 X0.1332 Y-0.6853 Z0.0 E0.035
G1 X0.1212 Y-0.6875 Z0.0 E0.035
G1 X0.1092 Y-0.6895 Z0.0 E0.035
G1 X0.0972 Y-0.6913 Z0.0 E0.035
G1 X0.0851 Y-0.6929 Z0.0 E0.035
G1 X0.073 Y-0.6943 Z0.0 E0.035
G1 X0.0608 Y-0.6955 Z0.0 E0.035
G1 X0.0487 Y-0.6964 Z0.0 E0.035
G1 X0.0365 Y-0.6972 Z0.0 E0.035
G1 X0.0244 Y-0.6977 Z0.0 E0.035
G1 X0.0122 Y-0.698 Z0.0 E0.035
G1 Z0.2
G1 X0.0 Y-0.6981 Z0.0 E0.035
G1 X-0.0122 Y-0.698 Z0.0 E0.035
G1 X-0.0244 Y-0.6977 Z0.0 E0.035
G1 X-0.0365 Y-0.6972 Z0.0 E0.035
G1 X-0.0487 Y-0.6964 Z0.0 E0.035
G1 X-0.0608 Y-0.6955 Z0.0 E0.035
G1 X-0.073 Y-0.6943 Z0.0 E0.035
G1 X-0.0851 Y-0.6929 Z0.0 E0.035
G1 X-0.0972 Y-0.6913 Z0.0 E0.035
G1 X-0.1092 Y-0.6895 Z0.0 E0.035
G1 X-0.1212 Y-0.6875 Z0.0 E0.035
G1 X-0.1332 Y-0.6853 Z0.0 E0.035
G1 X-0.1451 Y-0.6829 Z0.0 E0.035
G1 X-0.157 Y-0.6802 Z0.0 E0.035
G1 X-0.1689 Y-0.6774 Z0.0 E0.035
G1 X-0.1807 Y-0.6743 Z0.0 E0.035
G1 X-0.1924 Y-0.6711 Z0.0 E0.035
G1 X-0.2041 Y-0.6676 Z0.0 E0.035
G1 X-0.2157 Y-0.664 Z0.0 E0.035
G1 X-0.2273 Y-0.6601 Z0.0 E0.035
G1 X-0.2388 Y-0.656 Z0.0 E0.035
G1 X-0.2502 Y-0.6518 Z0.0 E0.035
G1 X-0.2615 Y-0.6473 Z0.0 E0.035
G1 X-0.2728 Y-0.6426 Z0.0 E0.035
G1 X-0.284 Y-0.6378 Z0.0 E0.035
G1 X-0.295 Y-0.6327 Z0.0 E0.035
G1 X-0.306 Y-0.6275 Z0.0 E0.035
G1 X-0.3169 Y-0.622 Z0.0 E0.035
G1 X-0.3278 Y-0.6164 Z0.0 E0.035
G1 X-0.3385 Y-0.6106 Z0.0 E0.035
G1 X-0.3491 Y-0.6046 Z0.0 E0.035
G1 X-0.3596 Y-0.5984 Z0.0 E0.035
G1 X-0.37 Y-0.592 Z0.0 E0.035
G1 X-0.3802 Y-0.5855 Z0.0 E0.035
G1 X-0.3904 Y-0.5788 Z0.0 E0.035
G1 X-0.4004 Y-0.5719 Z0.0 E0.035
G1 X-0.4104 Y-0.5648 Z0.0 E0.035
G1 X-0.4201 Y-0.5576 Z0.0 E0.035
G1 X-0.4298 Y-0.5501 Z0.0 E0.035
G1 X-0.4393 Y-0.5426 Z0.0 E0.035
G1 X-0.4488 Y-0.5348 Z0.0 E0.035
G1 X-0.458 Y-0.5269 Z0.0 E0.035
G1 X-0.4671 Y-0.5188 Z0.0 E0.035
G1 X-0.4761 Y-0.5106 Z0.0 E0.035
G1 X-0.485 Y-0.5022 Z0.0 E0.035
G1 X-0.4937 Y-0.4937 Z0.0 E0.035
G1 X-0.5022 Y-0.485 Z0.0 E0.035
G1 X-0.5106 Y-0.4761 Z0.0 E0.035
G1 X-0.5188 Y-0.4671 Z0.0 E0.035
G1 X-0.5269 Y-0.458 Z0.0 E0.035
G1 X-0.5348 Y-0.4488 Z0.0 E0.035
G1 X-0.5426 Y-0.4393 Z0.0 E0.035
G1 X-0.5501 Y-0.4298 Z0.0 E0.035
G1 X-0.5576 Y-0.4201 Z0.0 E0.035
G1 X-0.5648 Y-0.4104 Z0.0 E0.035
G1 X-0.5719 Y-0.4004 Z0.0 E0.035
G1 X-0.5788 Y-0.3904 Z0.0 E0.035
G1 X-0.5855 Y-0.3802 Z0.0 E0.035
G1 X-0.592 Y-0.37 Z0.0 E0.035
G1 X-0.5984 Y-0.3596 Z0.0 E0.035
G1 X-0.6046 Y-0.3491 Z0.0 E0.035
G1 X-0.6106 Y-0.3385 Z0.0 E0.035
G1 X-0.6164 Y-0.3278 Z0.0 E0.035
G1 X-0.622 Y-0.3169 Z0.0 E0.035
G1 X-0.6275 Y-0.306 Z0.0 E0.035
G1 X-0.6327 Y-0.295 Z0.0 E0.035
G1 X-0.6378 Y-0.284 Z0.0 E0.035
G1 X-0.6426 Y-0.2728 Z0.0 E0.035
G1 X-0.6473 Y-0.2615 Z0.0 E0.035
G1 X-0.6518 Y-0.2502 Z0.0 E0.035
G1 X-0.656 Y-0.2388 Z0.0 E0.035
G1 X-0.6601 Y-0.2273 Z0.0 E0.035
G1 X-0.664 Y-0.2157 Z0.0 E0.035
G1 X-0.6676 Y-0.2041 Z0.0 E0.035
G1 X-0.6711 Y-0.1924 Z0.0 E0.035
G1 X-0.6743 Y-0.1807 Z0.0 E0.035
G1 X-0.6774 Y-0.1689 Z0.0 E0.035
G1 X-0.6802 Y-0.157 Z0.0 E0.035
G1 X-0.6829 Y-0.1451 Z0.0 E0.035
G1 X-0.6853 Y-0.1332 Z0.0 E0.035
G1 X-0.6875 Y-0.1212 Z0.0 E0.035
G1 X-0.6895 Y-0.1092 Z0.0 E0.035
G1 X-0.6913 Y-0.0972 Z0.0 E0.035
G1 X-0.6929 Y-0.0851 Z0.0 E0.035
G1 X-0.6943 Y-0.073 Z0.0 E0.035
G1 X-0.6955 Y-0.0608 Z0.0 E0.035
G1 X-0.6964 Y-0.0487 Z0.0 E0.035
G1 X-0.6972 Y-0.0365 Z0.0 E0.035
G1 X-0.6977 Y-0.0244 Z0.0 E0.035
G1 X-0.698 Y-0.0122 Z0.0 E0.035
G1 X-0.6981 Y-0.0 Z0.0 E0.035
G1 X-0.698 Y0.0122 Z0.0 E0.035
G1 X-0.6977 Y0.0244 Z0.0 E0.035
G1 X-0.6972 Y0.0365 Z0.0 E0.035
G1 X-0.6964 Y0.0487 Z0.0 E0.035
G1 X-0.6955 Y0.0608 Z0.0 E0.035
G1 X-0.6943 Y0.073 Z0.0 E0.035
G1 X-0.6929 Y0.0851 Z0.0 E0.035
G1 X-0.6913 Y0.0972 Z0.0 E0.035
G1 X-0.6895 Y0.1092 Z0.0 E0.035
G1 X-0.6875 Y0.1212 Z0.0 E0.035
G1 X-0.6853 Y0.1332 Z0.0 E0.035
G1 X-0.6829 Y0.1451 Z0.0 E0.035
G1 X-0.6802 Y0.157 Z0.0 E0.035
G1 X-0.6774 Y0.1689 Z0.0 E0.035
G1 X-0.6743 Y0.1807 Z0.0 E0.035
G1 X-0.6711 Y0.1924 Z0.0 E0.035
G1 X-0.6676 Y0.2041 Z0.0 E0.035
G1 X-0.664 Y0.2157 Z0.0 E0.035
G1 X-0.6601 Y0.2273 Z0.0 E0.035
G1 X-0.656 Y0.2388 Z0.0 E0.035
G1 X-0.6518 Y0.2502 Z0.0 E0.035
G1 X-0.6473 Y0.2615 Z0.0 E0.035
G1 X-0.6426 Y0.2728 Z0.0 E0.035
G1 X-0.6378 Y0.284 Z0.0 E0.035
G1 X-0.6327 Y0.295 Z0.0 E0.035
G1 X-0.6275 Y0.306 Z0.0 E0.035
G1 X-0.622 Y0.3169 Z0.0 E0.035
G1 X-0.6164 Y0.3278 Z0.0 E0.035
G1 X-0.6106 Y0.3385 Z0.0 E0.035
G1 X-0.6046 Y0.3491 Z0.0 E0.035
G1 X-0.5984 Y0.3596 Z0.0 E0.035
G1 X-0.592 Y0.37 Z0.0 E0.035
G1 X-0.5855 Y0.3802 Z0.0 E0.035
G1 X-0.5788 Y0.3904 Z0.0 E0.035
G1 X-0.5719 Y0.4004 Z0.0 E0.035
G1 X-0.5648 Y0.4104 Z0.0 E0.035
G1 X-0.5576 Y0.4201 Z0.0 E0.035
G1 X-0.5501 Y0.4298 Z0.0 E0.035
G1 X-0.5426 Y0.4393 Z0.0 E0.035
G1 X-0.5348 Y0.4488 Z0.0 E0.035
G1 X-0.5269 Y0.458 Z0.0 E0.035
G1 X-0.5188 Y0.4671 Z0.0 E0.035
G1 X-0.5106 Y0.4761 Z0.0 E0.035
G1 X-0.5022 Y0.485 Z0.0 E0.035
G1 X-0.4937 Y0.4937 Z0.0 E0.035
G1 X-0.485 Y0.5022 Z0.0 E0.035
G1 X-0.4761 Y0.5106 Z0.0 E0.035
G1 X-0.4671 Y0.5188 Z0.0 E0.035
G1 X-0.458 Y0.5269 Z0.0 E0.035
G1 X-0.4488 Y0.5348 Z0.0 E0.035
G1 X-0.4393 Y0.5426 Z0.0 E0.035
G1 X-0.4298 Y0.5501 Z0.0 E0.035
G1 X-0.4201 Y0.5576 Z0.0 E0.035
G1 X-0.4104 Y0.5648 Z0.0 E0.035
G1 X-0.4004 Y0.5719 Z0.0 E0.035
G1 X-0.3904 Y0.5788 Z0.0 E0.035
G1 X-0.3802 Y0.5855 Z0.0 E0.035
G1 X-0.37 Y0.592 Z0.0 E0.035
G1 X-0.3596 Y0.5984 Z0.0 E0.035
G1 X-0.3491 Y0.6046 Z0.0 E0.035
G1 X-0.3385 Y0.6106 Z0.0 E0.035
G1 X-0.3278 Y0.6164 Z0.0 E0.035
G1 X-0.3169 Y0.622 Z0.0 E0.035
G1 X-0.306 Y0.6275 Z0.0 E0.035
G1 X-0.295 Y0.6327 Z0.0 E0.035
G1 X-0.284 Y0.6378 Z0.0 E0.035
G1 X-0.2728 Y0.6426 Z0.0 E0.035
G1 X-0.2615 Y0.6473 Z0.0 E0.035
G1 X-0.2502 Y0.6518 Z0.0 E0.035
G1 X-0.2388 Y0.656 Z0.0 E0.035
G1 X-0.2273 Y0.6601 Z0.0 E0.035
G1 X-0.2157 Y0.664 Z0.0 E0.035
G1 X-0.2041 Y0.6676 Z0.0 E0.035
G1 X-0.1924 Y0.6711 Z0.0 E0.035
G1 X-0.1807 Y0.6743 Z0.0 E0.035
G1 X-0.1689 Y0.6774 Z0.0 E0.035
G1 X-0.157 Y0.6802 Z0.0 E0.035
G1 X-0.1451 Y0.6829 Z0.0 E0.035
G1 X-0.1332 Y0.6853 Z0.0 E0.035
G1 X-0.1212 Y0.6875 Z0.0 E0.035
G1 X-0.1092 Y0.6895 Z0.0 E0.035
G1 X-0.0972 Y0.6913 Z0.0 E0.035
G1 X-0.0851 Y0.6929 Z0.0 E0.035
G1 X-0.073 Y0.6943 Z0.0 E0.035
G1 X-0.0608 Y0.6955 Z0.0 E0.035
G1 X-0.0487 Y0.6964 Z0.0 E0.035
G1 X-0.0365 Y0.6972 Z0.0 E0.035
G1 X-0.0244 Y0.6977 Z0.0 E0.035
G1 X-0.0122 Y0.698 Z0.0 E0.035
G1 X-0.0 Y0.6981 Z0.0 E0.035
G1 X0.0122 Y0.698 Z0.0 E0.035
G1 X0.0244 Y0.6977 Z0.0 E0.035
G1 X0.0365 Y0.6972 Z0.0 E0.035
G1 X0.0487 Y0.6964 Z0.0 E0.035
G1 X0.0608 Y0.6955 Z0.0 E0.035
G1 X0.073 Y0.6943 Z0.0 E0.035
G1 X0.0851 Y0.6929 Z0.0 E0.035
G1 X0.0972 Y0.6913 Z0.0 E0.035
G1 X0.1092 Y0.6895 Z0.0 E0.035
G1 X0.1212 Y0.6875 Z0.0 E0.035
G1 X0.1332 Y0.6853 Z0.0 E0.035
G1 X0.1451 Y0.6829 Z0.0 E0.035
G1 X0.157 Y0.6802 Z0.0 E0.035
G1 X0.1689 Y0.6774 Z0.0 E0.035
G1 X0.1807 Y0.6743 Z0.0 E0.035
G1 X0.1924 Y0.6711 Z0.0 E0.035
G1 X0.2041 Y0.6676 Z0.0 E0.035
G1 X0.2157 Y0.664 Z0.0 E0.035
G1 X0.2273 Y0.6601 Z0.0 E0.035
G1 X0.2388 Y0.656 Z0.0 E0.035
G1 X0.2502 Y0.6518 Z0.0 E0.035
G1 X0.2615 Y0.6473 Z0.0 E0.035
G1 X0.2728 Y0.6426 Z0.0 E0.035
G1 X0.284 Y0.6378 Z0.0 E0.035
G1 X0.295 Y0.6327 Z0.0 E0.035
G1 X0.306 Y0.6275 Z0.0 E0.035
G1 X0.3169 Y0.622 Z0.0 E0.035
G1 X0.3278 Y0.6164 Z0.0 E0.035
G1 X0.3385 Y0.6106 Z0.0 E0.035
G1 X0.3491 Y0.6046 Z0.0 E0.035
G1 X0.3596 Y0.5984 Z0.0 E0.035
G1 X0.37 Y0.592 Z0.0 E0.035
G1 X0.3802 Y0.5855 Z0.0 E0.035
G1 X0.3904 Y0.5788 Z0.0 E0.035
G1 X0.4004 Y0.5719 Z0.0 E0.035
G1 X0.4104 Y0.5648 Z0.0 E0.035
G1 X0.4201 Y0.5576 Z0.0 E0.035
G1 X0.4298 Y0.5501 Z0.0 E0.035
G1 X0.4393 Y0.5426 Z0.0 E0.035
G1 X0.4488 Y0.5348 Z0.0 E0.035
G1 X0.458 Y0.5269 Z0.0 E0.035
G1 X0.4671 Y0.5188 Z0.0 E0.035
G1 X0.4761 Y0.5106 Z0.0 E0.035
G1 X0.485 Y0.5022 Z0.0 E0.035
G1 X0.4937 Y0.4937 Z0.0 E0.035
G1 X0.5022 Y0.485 Z0.0 E0.035
G1 X0.5106 Y0.4761 Z0.0 E0.035
G1 X0.5188 Y0.4671 Z0.0 E0.035
G1 X0.5269 Y0.458 Z0.0 E0.035
G1 X0.5348 Y0.4488 Z0.0 E0.035
G1 X0.5426 Y0.4393 Z0.0 E0.035
G1 X0.5501 Y0.4298 Z0.0 E0.035
G1 X0.5576 Y0.4201 Z0.0 E0.035
G1 X0.5648 Y0.4104 Z0.0 E0.035
G1 X0.5719 Y0.4004 Z0.0 E0.035
G1 X0.5788 Y0.3904 Z0.0 E0.035
G1 X0.5855 Y0.3802 Z0.0 E0.035
G1 X0.592 Y0.37 Z0.0 E0.035
G1 X0.5984 Y0.3596 Z0.0 E0.035
G1 X0.6046 Y0.3491 Z0.0 E0.035
G1 X0.6106 Y0.3385 Z0.0 E0.035
G1 X0.6164 Y0.3278 Z0.0 E0.035
G1 X0.622 Y0.3169 Z0.0 E0.035
G1 X0.6275 Y0.306 Z0.0 E0.035
G1 X0.6327 Y0.295 Z0.0 E0.035
G1 X0.6378 Y0.284 Z0.0 E0.035
G1 X0.6426 Y0.2728 Z0.0 E0.035
G1 X0.6473 Y0.2615 Z0.0 E0.035
G1 X0.6518 Y0.2502 Z0.0 E0.035
G1 X0.656 Y0.2388 Z0.0 E0.035
G1 X0.6601 Y0.2273 Z0.0 E0.035
G1 X0.664 Y0.2157 Z0.0 E0.035
G1 X0.6676 Y0.2041 Z0.0 E0.035
G1 X0.6711 Y0.1924 Z0.0 E0.035
G1 X0.6743 Y0.1807 Z0.0 E0.035
G1 X0.6774 Y0.1689 Z0.0 E0.035
G1 X0.6802 Y0.157 Z0.0 E0.035
G1 X0.6829 Y0.1451 Z0.0 E0.035
G1 X0.6853 Y0.1332 Z0.0 E0.035
G1 X0.6875 Y0.1212 Z0.0 E0.035
G1 X0.6895 Y0.1092 Z0.0 E0.035
G1 X0.6913 Y0.0972 Z0.0 E0.035
G1 X0.6929 Y0.0851 Z0.0 E0.035
G1 X0.6943 Y0.073 Z0.0 E0.035
G1 X0.6955 Y0.0608 Z0.0 E0.035
G1 X0.6964 Y0.0487 Z0.0 E0.035
G1 X0.6972 Y0.0365 Z0.0 E0.035
G1 X0.6977 Y0.0244 Z0.0 E0.035
G1 X0.698 Y0.0122 Z0.0 E0.035
G1 X0.6981 Y0.0 Z0.0 E0.035
G1 X0.698 Y-0.0122 Z0.0 E0.035
G1 X0.6977 Y-0.0244 Z0.0 E0.035
G1 X0.6972 Y-0.0365 Z0.0 E0.035
G1 X0.6964 Y-0.0487 Z0.0 E0.035
G1 X0.6955 Y-0.0608 Z0.0 E0.035
G1 X0.6943 Y-0.073 Z0.0 E0.035
G1 X0.6929 Y-0.0851 Z0.0 E0.035
G1 X0.6913 Y-0.0972 Z0.0 E0.035
G1 X0.6895 Y-0.1092 Z0.0 E0.035
G1 X0.6875 Y-0.1212 Z0.0 E0.035
G1 X0.6853 Y-0.1332 Z0.0 E0.035
G1 X0.6829 Y-0.1451 Z0.0 E0.035
G1 X0.6802 Y-0.157 Z0.0 E0.035
G1 X0.6774 Y-0.1689 Z0.0 E0.035
G1 X0.6743 Y-0.1807 Z0.0 E0.035
G1 X0.6711 Y-0.1924 Z0.0 E0.035
G1 X0.6676 Y-0.2041 Z0.0 E0.035
G1 X0.664 Y-0.2157 Z0.0 E0.035
G1 X0.6601 Y-0.2273 Z0.0 E0.035
G1 X0.656 Y-0.2388 Z0.0 E0.035
G1 X0.6518 Y-0.2502 Z0.0 E0.035
G1 X0.6473 Y-0.2615 Z0.0 E0.035
G1 X0.6426 Y-0.2728 Z0.0 E0.035
G1 X0.6378 Y-0.284 Z0.0 E0.035
G1 X0.6327 Y-0.295 Z0.0 E0.035
G1 X0.6275 Y-0.306 Z0.0 E0.035
G1 X0.622 Y-0.3169 Z0.0 E0.035
G1 X0.6164 Y-0.3278 Z0.0 E0.035
G1 X0.6106 Y-0.3385 Z0.0 E0.035
G1 X0.6046 Y-0.3491 Z0.0 E0.035
G1 X0.5984 Y-0.3596 Z0.0 E0.035
G1 X0.592 Y-0.37 Z0.0 E0.035
G1 X0.5855 Y-0.3802 Z0.0 E0.035
G1 X0.5788 Y-0.3904 Z0.0 E0.035
G1 X0.5719 Y-0.4004 Z0.0 E0.035
G1 X0.5648 Y-0.4104 Z0.0 E0.035
G1 X0.5576 Y-0.4201 Z0.0 E0.035
G1 X0.5501 Y-0.4298 Z0.0 E0.035
G1 X0.5426 Y-0.4393 Z0.0 E0.035
G1 X0.5348 Y-0.4488 Z0.0 E0.035
G1 X0.5269 Y-0.458 Z0.0 E0.035
G1 X0.5188 Y-0.4671 Z0.0 E0.035
G1 X0.5106 Y-0.4761 Z0.0 E0.035
G1 X0.5022 Y-0.485 Z0.0 E0.035
G1 X0.4937 Y-0.4937 Z0.0 E0.035
G1 X0.485 Y-0.5022 Z0.0 E0.035
G1 X0.4761 Y-0.5106 Z0.0 E0.035
G1 X0.4671 Y-0.5188 Z0.0 E0.035
G1 X0.458 Y-0.5269 Z0.0 E0.035
G1 X0.4488 Y-0.5348 Z0.0 E0.035
G1 X0.4393 Y-0.5426 Z0.0 E0.035
G1 X0.4298 Y-0.5501 Z0.0 E0.035
G1 X0.4201 Y-0.5576 Z0.0 E0.035
G1 X0.4104 Y-0.5648 Z0.0 E0.035
G1 X0.4004 Y-0.5719 Z0.0 E0.035
G1 X0.3904 Y-0.5788 Z0.0 E0.035
G1 X0.3802 Y-0.5855 Z0.0 E0.035
G1 X0.37 Y-0.592 Z0.0 E0.035
G1 X0.3596 Y-0.5984 Z0.0 E0.035
G1 X0.3491 Y-0.6046 Z0.0 E0.035
G1 X0.3385 Y-0.6106 Z0.0 E0.035
G1 X0.3278 Y-0.6164 Z0.0 E0.035
G1 X0.3169 Y-0.622 Z0.0 E0.035
G1 X0.306 Y-0.6275 Z0.0 E0.035
G1 X0.295 Y-0.6327 Z0.0 E0.035
G1 X0.284 Y-0.6378 Z0.0 E0.035
G1 X0.2728 Y-0.6426 Z0.0 E0.035
G1 X0.2615 Y-0.6473 Z0.0 E0.035
G1 X0.2502 Y-0.6518 Z0.0 E0.035
G1 X0.2388 Y-0.656 Z0.0 E0.035
G1 X0.2273 Y-0.6601 Z0.0 E0.035
G1 X0.2157 Y-0.664 Z0.0 E0.035
G1 X0.2041 Y-0.6676 Z0.0 E0.035
G1 X0.1924 Y-0.6711 Z0.0 E0.035
G1 X0.1807 Y-0.6743 Z0.0 E0.035
G1 X0.1689 Y-0.6774 Z0.0 E0.035
G1 X0.157 Y-0.6802 Z0.0 E0.035
G1 X0.1451 Y-0.6829 Z0.0 E0.035
G1 X0.1332 Y-0.6853 Z0.0 E0.035
G1 X0.1212 Y-0.6875 Z0.0 E0.035
G1 X0.1092 Y-0.6895 Z0.0 E0.035
G1 X0.0972 Y-0.6913 Z0.0 E0.035
G1 X0.0851 Y-0.6929 Z0.0 E0.035
G1 X0.073 Y-0.6943 Z0.0 E0.035
G1 X0.0608 Y-0.6955 Z0.0 E0.035
G1 X0.0487 Y-0.6964 Z0.0 E0.035
G1 X0.0365 Y-0.6972 Z0.0 E0.035
G1 X0.0244 Y-0.6977 Z0.0 E0.035
G1 X0.0122 Y-0.698 Z0.0 E0.035
G1 Z0.2
G1 X0.0 Y-0.6981 Z0.0 E0.035
G1 X-0.0122 Y-0.698 Z0.0 E0.035
G1 X-0.0244 Y-0.6977 Z0.0 E0.035
G1 X-0.0365 Y-0.6972 Z0.0 E0.035
G1 X-0.0487 Y-0.6964 Z0.0 E0.035
G1 X-0.0608 Y-0.6955 Z0.0 E0.035
G1 X-0.073 Y-0.6943 Z0.0 E0.035
G1 X-0.0851 Y-0.6929 Z0.0 E0.035
G1 X-0.0972 Y-0.6913 Z0.0 E0.035
G1 X-0.1092 Y-0.6895 Z0.0 E0.035
G1 X-0.1212 Y-0.6875 Z0.0 E0.035
G1 X-0.1332 Y-0.6853 Z0.0 E0.035
G1 X-0.1451 Y-0.6829 Z0.0 E0.035
G1 X-0.157 Y-0.6802 Z0.0 E0.035
G1 X-0.1689 Y-0.6774 Z0.0 E0.035
G1 X-0.1807 Y-0.6743 Z0.0 E0.035
G1 X-0.1924 Y-0.6711 Z0.0 E0.035
G1 X-0.2041 Y-0.6676 Z0.0 E0.035
G1 X-0.2157 Y-0.664 Z0.0 E0.035
G1 X-0.2273 Y-0.6601 Z0.0 E0.035
G1 X-0.2388 Y-0.656 Z0.0 E0.035
G1 X-0.2502 Y-0.6518 Z0.0 E0.035
G1 X-0.2615 Y-0.6473 Z0.0 E0.035
G1 X-0.2728 Y-0.6426 Z0.0 E0.035
G1 X-0.284 Y-0.6378 Z0.0 E0.035
G1 X-0.295 Y-0.6327 Z0.0 E0.035
G1 X-0.306 Y-0.6275 Z0.0 E0.035
G1 X-0.3169 Y-0.622 Z0.0 E0.035
G1 X-0.3278 Y-0.6164 Z0.0 E0.035
G1 X-0.3385 Y-0.6106 Z0.0 E0.035
G1 X-34.641 Y60.0 Z-0.0 E3.464
G1 X-34.641 Y-60.0 Z0.0 E3.464
G1 X69.282 Y0.0 Z0.0 E3.464
G1 X-0.3491 Y-0.6046 Z0.0 E0.035
G1 X-0.3596 Y-0.5984 Z0.0 E0.035
G1 X-0.37 Y-0.592 Z0.0 E0.035
G1 X-0.3802 Y-0.5855 Z0.0 E0.035
G1 X-0.3904 Y-0.5788 Z0.0 E0.035
G1 X-0.4004 Y-0.5719 Z0.0 E0.035
G1 X-0.4104 Y-0.5648 Z0.0 E0.035
G1 X-0.4201 Y-0.5576 Z0.0 E0.035
G1 X-0.4298 Y-0.5501 Z0.0 E0.035
G1 X-0.4393 Y-0.5426 Z0.0 E0.035
G1 X-0.4488 Y-0.5348 Z0.0 E0.035
G1 X-0.458 Y-0.5269 Z0.0 E0.035
G1 X-0.4671 Y-0.5188 Z0.0 E0.035
G1 X-0.4761 Y-0.5106 Z0.0 E0.035
G1 X-0.485 Y-0.5022 Z0.0 E0.035
G1 X-0.4937 Y-0.4937 Z0.0 E0.035
G1 X-0.5022 Y-0.485 Z0.0 E0.035
G1 X-0.5106 Y-0.4761 Z0.0 E0.035
G1 X-0.5188 Y-0.4671 Z0.0 E0.035
G1 X-0.5269 Y-0.458 Z0.0 E0.035
G1 X-0.5348 Y-0.4488 Z0.0 E0.035
G1 X-0.5426 Y-0.4393 Z0.0 E0.035
G1 X-0.5501 Y-0.4298 Z0.0 E0.035
G1 X-0.5576 Y-0.4201 Z0.0 E0.035
G1 X-0.5648 Y-0.4104 Z0.0 E0.035
G1 X-0.5719 Y-0.4004 Z0.0 E0.035
G1 X-0.5788 Y-0.3904 Z0.0 E0.035
G1 X-0.5855 Y-0.3802 Z0.0 E0.035
G1 X-0.592 Y-0.37 Z0.0 E0.035
G1 X-0.5984 Y-0.3596 Z0.0 E0.035
G1 X-0.6046 Y-0.3491 Z0.0 E0.035
G1 X-0.6106 Y-0.3385 Z0.0 E0.035
G1 X-0.6164 Y-0.3278 Z0.0 E0.035
G1 X-0.622 Y-0.3169 Z0.0 E0.035
G1 X-0.6275 Y-0.306 Z0.0 E0.035
G1 X-0.6327 Y-0.295 Z0.0 E0.035
G1 X-0.6378 Y-0.284 Z0.0 E0.035
G1 X-0.6426 Y-0.2728 Z0.0 E0.035
G1 X-0.6473 Y-0.2615 Z0.0 E0.035
G1 X-0.6518 Y-0.2502 Z0.0 E0.035
G1 X-0.656 Y-0.2388 Z0.0 E0.035
G1 X-0.6601 Y-0.2273 Z0.0 E0.035
G1 X-0.664 Y-0.2157 Z0.0 E0.035
G1 X-0.6676 Y-0.2041 Z0.0 E0.035
G1 X-0.6711 Y-0.1924 Z0.0 E0.035
G1 X-0.6743 Y-0.1807 Z0.0 E0.035
G1 X-0.6774 Y-0.1689 Z0.0 E0.035
G1 X-0.6802 Y-0.157 Z0.0 E0.035
G1 X-0.6829 Y-0.1451 Z0.0 E0.035
G1 X-0.6853 Y-0.1332 Z0.0 E0.035
G1 X-0.6875 Y-0.1212 Z0.0 E0.035
G1 X-0.6895 Y-0.1092 Z0.0 E0.035
G1 X-0.6913 Y-0.0972 Z0.0 E0.035
G1 X-0.6929 Y-0.0851 Z0.0 E0.035
G1 X-0.6943 Y-0.073 Z0.0 E0.035
G1 X-0.6955 Y-0.0608 Z0.0 E0.035
G1 X-0.6964 Y-0.0487 Z0.0 E0.035
G1 X-0.6972 Y-0.0365 Z0.0 E0.035
G1 X-0.6977 Y-0.0244 Z0.0 E0.035
G1 X-0.698 Y-0.0122 Z0.0 E0.035
G1 X-0.6981 Y-0.0 Z0.0 E0.035
G1 X-0.698 Y0.0122 Z0.0 E0.035
G1 X-0.6977 Y0.0244 Z0.0 E0.035
G1 X-0.6972 Y0.0365 Z0.0 E0.035
G1 X-0.6964 Y0.0487 Z0.0 E0.035
G1 X-0.6955 Y0.0608 Z0.0 E0.035
G1 X-0.6943 Y0.073 Z0.0 E0.035
G1 X-0.6929 Y0.0851 Z0.0 E0.035
G1 X-0.6913 Y0.0972 Z0.0 E0.035
G1 X-0.6895 Y0.1092 Z0.0 E0.035
G1 X-0.6875 Y0.1212 Z0.0 E0.035
G1 X-0.6853 Y0.1332 Z0.0 E0.035
G1 X-0.6829 Y0.1451 Z0.0 E0.035
G1 X-0.6802 Y0.157 Z0.0 E0.035
G1 X-0.6774 Y0.1689 Z0.0 E0.035
G1 X-0.6743 Y0.1807 Z0.0 E0.035
G1 X-0.6711 Y0.1924 Z0.0 E0.035
G1 X-0.6676 Y0.2041 Z0.0 E0.035
G1 X-0.664 Y0.2157 Z0.0 E0.035
G1 X-0.6601 Y0.2273 Z0.0 E0.035
G1 X-0.656 Y0.2388 Z0.0 E0.035
G1 X-0.6518 Y0.2502 Z0.0 E0.035
G1 X-0.6473 Y0.2615 Z0.0 E0.035
G1 X-0.6426 Y0.2728 Z0.0 E0.035
G1 X-0.6378 Y0.284 Z0.0 E0.035
G1 X-0.6327 Y0.295 Z0.0 E0.035
G1 X-0.6275 Y0.306 Z0.0 E0.035
G1 X-0.622 Y0.3169 Z0.0 E0.035
G1 X-0.6164 Y0.3278 Z0.0 E0.035
G1 X-0.6106 Y0.3385 Z0.0 E0.035
G1 X-0.6046 Y0.3491 Z0.0 E0.035
G1 X-0.5984 Y0.3596 Z0.0 E0.035
G1 X-0.592 Y0.37 Z0.0 E0.035
G1 X-0.5855 Y0.3802 Z0.0 E0.035
G1 X-0.5788 Y0.3904 Z0.0 E0.035
G1 X-0.5719 Y0.4004 Z0.0 E0.035
G1 X-0.5648 Y0.4104 Z0.0 E0.035
G1 X-0.5576 Y0.4201 Z0.0 E0.035
G1 X-0.5501 Y0.4298 Z0.0 E0.035
G1 X-0.5426 Y0.4393 Z0.0 E0.035
G1 X-0.5348 Y0.4488 Z0.0 E0.035
G1 X-0.5269 Y0.458 Z0.0 E0.035
G1 X-0.5188 Y0.4671 Z0.0 E0.035
G1 X-0.5106 Y0.4761 Z0.0 E0.035
G1 X-0.5022 Y0.485 Z0.0 E0.035
G1 X-0.4937 Y0.4937 Z0.0 E0.035
G1 X-0.485 Y0.5022 Z0.0 E0.035
G1 X-0.4761 Y0.5106 Z0.0 E0.035
G1 X-0.4671 Y0.5188 Z0.0 E0.035
G1 X-0.458 Y0.5269 Z0.0 E0.035
G1 X-0.4488 Y0.5348 Z0.0 E0.035
G1 X-0.4393 Y0.5426 Z0.0 E0.035
G1 X-0.4298 Y0.5501 Z0.0 E0.035
G1 X-0.4201 Y0.5576 Z0.0 E0.035
G1 X-0.4104 Y0.5648 Z0.0 E0.035
G1 X-0.4004 Y0.5719 Z0.0 E0.035
G1 X-0.3904 Y0.5788 Z0.0 E0.035
G1 X-0.3802 Y0.5855 Z0.0 E0.035
G1 X-0.37 Y0.592 Z0.0 E0.035
G1 X-0.3596 Y0.5984 Z0.0 E0.035
G1 X-0.3491 Y0.6046 Z0.0 E0.035
G1 X-0.3385 Y0.6106 Z0.0 E0.035
G1 X-0.3278 Y0.6164 Z0.0 E0.035
G1 X-0.3169 Y0.622 Z0.0 E0.035
G1 X-0.306 Y0.6275 Z0.0 E0.035
G1 X-0.295 Y0.6327 Z0.0 E0.035
G1 X-0.284 Y0.6378 Z0.0 E0.035
G1 X-0.2728 Y0.6426 Z0.0 E0.035
G1 X-0.2615 Y0.6473 Z0.0 E0.035
G1 X-0.2502 Y0.6518 Z0.0 E0.035
G1 X-0.2388 Y0.656 Z0.0 E0.035
G1 X-0.2273 Y0.6601 Z0.0 E0.035
G1 X-0.2157 Y0.664 Z0.0 E0.035
G1 X-0.2041 Y0.6676 Z0.0 E0.035
G1 X-0.1924 Y0.6711 Z0.0 E0.035
G1 X-0.1807 Y0.6743 Z0.0 E0.035
G1 X-0.1689 Y0.6774 Z0.0 E0.035
G1 X-0.157 Y0.6802 Z0.0 E0.035
G1 X-0.1451 Y0.6829 Z0.0 E0.035
G1 X-0.1332 Y0.6853 Z0.0 E0.035
G1 X-0.1212 Y0.6875 Z0.0 E0.035
G1 X-0.1092 Y0.6895 Z0.0 E0.035
G1 X-0.0972 Y0.6913 Z0.0 E0.035
G1 X-0.0851 Y0.6929 Z0.0 E0.035
G1 X-0.073 Y0.6943 Z0.0 E0.035
G1 X-0.0608 Y0.6955 Z0.0 E0.035
G1 X-0.0487 Y0.6964 Z0.0 E0.035
G1 X-0.0365 Y0.6972 Z0.0 E0.035
G1 X-0.0244 Y0.6977 Z0.0 E0.035
G1 X-0.0122 Y0.698 Z0.0 E0.035
G1 X-0.0 Y0.6981 Z0.0 E0.035
G1 X0.0122 Y0.698 Z0.0 E0.035
G1 X0.0244 Y0.6977 Z0.0 E0.035
G1 X0.0365 Y0.6972 Z0.0 E0.035
G1 X0.0487 Y0.6964 Z0.0 E0.035
G1 X0.0608 Y0.6955 Z0.0 E0.035
G1 X0.073 Y0.6943 Z0.0 E0.035
G1 X0.0851 Y0.6929 Z0.0 E0.035
G1 X0.0972 Y0.6913 Z0.0 E0.035
G1 X0.1092 Y0.6895 Z0.0 E0.035
G1 X0.1212 Y0.6875 Z0.0 E0.035
G1 X0.1332 Y0.6853 Z0.0 E0.035
G1 X0.1451 Y0.6829 Z0.0 E0.035
G1 X0.157 Y0.6802 Z0.0 E0.035
G1 X0.1689 Y0.6774 Z0.0 E0.035
G1 X0.1807 Y0.6743 Z0.0 E0.035
G1 X0.1924 Y0.6711 Z0.0 E0.035
G1 X0.2041 Y0.6676 Z0.0 E0.035
G1 X0.2157 Y0.664 Z0.0 E0.035
G1 X0.2273 Y0.6601 Z0.0 E0.035
G1 X0.2388 Y0.656 Z0.0 E0.035
G1 X0.2502 Y0.6518 Z0.0 E0.035
G1 X0.2615 Y0.6473 Z0.0 E0.035
G1 X0.2728 Y0.6426 Z0.0 E0.035
G1 X0.284 Y0.6378 Z0.0 E0.035
G1 X0.295 Y0.6327 Z0.0 E0.035
G1 X0.306 Y0.6275 Z0.0 E0.035
G1 X0.3169 Y0.622 Z0.0 E0.035
G1 X0.3278 Y0.6164 Z0.0 E0.035
G1 X0.3385 Y0.6106 Z0.0 E0.035
G1 X0.3491 Y0.6046 Z0.0 E0.035
G1 X0.3596 Y0.5984 Z0.0 E0.035
G1 X0.37 Y0.592 Z0.0 E0.035
G1 X0.3802 Y0.5855 Z0.0 E0.035
