; *************************************************
; *************************************************
; ******* File generated by Extruder Turtle *******
; ******* written by Leah Buechley and  ***********
; ******* and Franklin Pezutti-Dyer ***************
; **** Hand and Machine Lab, UNM, 2021-present ****
; *************************************************
; *************************************************
; ********** Default printer parameters ***********
; Printer: ender
; Nozzle size: 0.2
; Extrude width: 0.4
; Layer height: 0.2
; Extrude rate: 0.05
; Speed: 1000
; Mix Factor: 0.9
; *************** Ender initialization **************
G92 E0 ; Reset Extruder 
G28 ; Home all axes
G90 ; Absolute coordinates for X,Y,Z   
M190 S60 ; Set bed temperature and wait 
M109 S205 ; Set extruder temperature and wait 
G1 Z2.0 F3000 ; Move Z to 2mm above bed 
G1 X0.1 Y20 Z0.3 F5000.0 ; Move to start position
G1 X0.1 Y200.0 Z0.3 F1500.0 E15 ; Draw the first line
G1 X0.4 Y200.0 Z0.3 F5000.0 ; Move to side a little
G1 X0.4 Y20 Z0.3 F1500.0 E30 ; Draw the second line
G92 E0 ; Reset Extruder
G1 Z2.0 F3000 ; Move Z Axis up little to prevent scratching of Heat Bed 
G1 X5 Y20 Z0.3 F5000.0 ; Move over to prevent blob squish 
G92 E0 ; Reset extruder position to zero 
G1 F300 E-3 
G1 F2000
G1 0 0 .3               ; Lift nozzle above bed a little
G1 X100 Y100 Z.1        ; Go to the starting position 
F300 E3                 ; Extrude to get ready
M83 					; Relative extrustion
G91                     ; Relative coordinates for X,Y,Z axes
G1 F1000
; ********** End printer initialization ***********
; *************************************************

; *************** Begin print *********************
G1 X0.5236 Y0.0 Z0.0 E0.026
G1 X0.5235 Y-0.0091 Z0.0 E0.026
G1 X0.5233 Y-0.0183 Z0.0 E0.026
G1 X0.5229 Y-0.0274 Z0.0 E0.026
G1 X0.5223 Y-0.0365 Z0.0 E0.026
G1 X0.5216 Y-0.0456 Z0.0 E0.026
G1 X0.5207 Y-0.0547 Z0.0 E0.026
G1 X0.5197 Y-0.0638 Z0.0 E0.026
G1 X0.5185 Y-0.0729 Z0.0 E0.026
G1 X0.5172 Y-0.0819 Z0.0 E0.026
G1 X0.5156 Y-0.0909 Z0.0 E0.026
G1 X0.514 Y-0.0999 Z0.0 E0.026
G1 X0.5122 Y-0.1089 Z0.0 E0.026
G1 X0.5102 Y-0.1178 Z0.0 E0.026
G1 X0.508 Y-0.1267 Z0.0 E0.026
G1 X0.5058 Y-0.1355 Z0.0 E0.026
G1 X0.5033 Y-0.1443 Z0.0 E0.026
G1 X0.5007 Y-0.1531 Z0.0 E0.026
G1 X0.498 Y-0.1618 Z0.0 E0.026
G1 X0.4951 Y-0.1705 Z0.0 E0.026
G1 X0.492 Y-0.1791 Z0.0 E0.026
G1 X0.4888 Y-0.1876 Z0.0 E0.026
G1 X0.4855 Y-0.1961 Z0.0 E0.026
G1 X0.482 Y-0.2046 Z0.0 E0.026
G1 X0.4783 Y-0.213 Z0.0 E0.026
G1 X0.4745 Y-0.2213 Z0.0 E0.026
G1 X0.4706 Y-0.2295 Z0.0 E0.026
G1 X0.4665 Y-0.2377 Z0.0 E0.026
G1 X0.4623 Y-0.2458 Z0.0 E0.026
G1 X0.4579 Y-0.2538 Z0.0 E0.026
G1 X0.4534 Y-0.2618 Z0.0 E0.026
G1 X0.4488 Y-0.2697 Z0.0 E0.026
G1 X0.444 Y-0.2775 Z0.0 E0.026
G1 X0.4391 Y-0.2852 Z0.0 E0.026
G1 X0.4341 Y-0.2928 Z0.0 E0.026
G1 X0.4289 Y-0.3003 Z0.0 E0.026
G1 X0.4236 Y-0.3078 Z0.0 E0.026
G1 X0.4182 Y-0.3151 Z0.0 E0.026
G1 X0.4126 Y-0.3224 Z0.0 E0.026
G1 X0.4069 Y-0.3295 Z0.0 E0.026
G1 X0.4011 Y-0.3366 Z0.0 E0.026
G1 X0.3952 Y-0.3435 Z0.0 E0.026
G1 X0.3891 Y-0.3504 Z0.0 E0.026
G1 X0.3829 Y-0.3571 Z0.0 E0.026
G1 X0.3766 Y-0.3637 Z0.0 E0.026
G1 X0.3702 Y-0.3702 Z0.0 E0.026
G1 X0.3637 Y-0.3766 Z0.0 E0.026
G1 X0.3571 Y-0.3829 Z0.0 E0.026
G1 X0.3504 Y-0.3891 Z0.0 E0.026
G1 X0.3435 Y-0.3952 Z0.0 E0.026
G1 X0.3366 Y-0.4011 Z0.0 E0.026
G1 X0.3295 Y-0.4069 Z0.0 E0.026
G1 X0.3224 Y-0.4126 Z0.0 E0.026
G1 X0.3151 Y-0.4182 Z0.0 E0.026
G1 X0.3078 Y-0.4236 Z0.0 E0.026
G1 X0.3003 Y-0.4289 Z0.0 E0.026
G1 X0.2928 Y-0.4341 Z0.0 E0.026
G1 X0.2852 Y-0.4391 Z0.0 E0.026
G1 X0.2775 Y-0.444 Z0.0 E0.026
G1 X0.2697 Y-0.4488 Z0.0 E0.026
G1 X0.2618 Y-0.4534 Z0.0 E0.026
G1 X0.2538 Y-0.4579 Z0.0 E0.026
G1 X0.2458 Y-0.4623 Z0.0 E0.026
G1 X0.2377 Y-0.4665 Z0.0 E0.026
G1 X0.2295 Y-0.4706 Z0.0 E0.026
G1 X0.2213 Y-0.4745 Z0.0 E0.026
G1 X0.213 Y-0.4783 Z0.0 E0.026
G1 X0.2046 Y-0.482 Z0.0 E0.026
G1 X0.1961 Y-0.4855 Z0.0 E0.026
G1 X0.1876 Y-0.4888 Z0.0 E0.026
G1 X0.1791 Y-0.492 Z0.0 E0.026
G1 X0.1705 Y-0.4951 Z0.0 E0.026
G1 X0.1618 Y-0.498 Z0.0 E0.026
G1 X0.1531 Y-0.5007 Z0.0 E0.026
G1 X0.1443 Y-0.5033 Z0.0 E0.026
G1 X0.1355 Y-0.5058 Z0.0 E0.026
G1 X0.1267 Y-0.508 Z0.0 E0.026
G1 X0.1178 Y-0.5102 Z0.0 E0.026
G1 X0.1089 Y-0.5122 Z0.0 E0.026
G1 X0.0999 Y-0.514 Z0.0 E0.026
G1 X0.0909 Y-0.5156 Z0.0 E0.026
G1 X0.0819 Y-0.5172 Z0.0 E0.026
G1 X0.0729 Y-0.5185 Z0.0 E0.026
G1 X0.0638 Y-0.5197 Z0.0 E0.026
G1 X0.0547 Y-0.5207 Z0.0 E0.026
G1 X0.0456 Y-0.5216 Z0.0 E0.026
G1 X0.0365 Y-0.5223 Z0.0 E0.026
G1 X0.0274 Y-0.5229 Z0.0 E0.026
G1 X0.0183 Y-0.5233 Z0.0 E0.026
G1 X0.0091 Y-0.5235 Z0.0 E0.026
G1 X0.0 Y-0.5236 Z0.0 E0.026
G1 X-0.0091 Y-0.5235 Z0.0 E0.026
G1 X-0.0183 Y-0.5233 Z0.0 E0.026
G1 X-0.0274 Y-0.5229 Z0.0 E0.026
G1 X-0.0365 Y-0.5223 Z0.0 E0.026
G1 X-0.0456 Y-0.5216 Z0.0 E0.026
G1 X-0.0547 Y-0.5207 Z0.0 E0.026
G1 X-0.0638 Y-0.5197 Z0.0 E0.026
G1 X-0.0729 Y-0.5185 Z0.0 E0.026
G1 X-0.0819 Y-0.5172 Z0.0 E0.026
G1 X-0.0909 Y-0.5156 Z0.0 E0.026
G1 X-0.0999 Y-0.514 Z0.0 E0.026
G1 X-0.1089 Y-0.5122 Z0.0 E0.026
G1 X-0.1178 Y-0.5102 Z0.0 E0.026
G1 X-0.1267 Y-0.508 Z0.0 E0.026
G1 X-0.1355 Y-0.5058 Z0.0 E0.026
G1 X-0.1443 Y-0.5033 Z0.0 E0.026
G1 X-0.1531 Y-0.5007 Z0.0 E0.026
G1 X-0.1618 Y-0.498 Z0.0 E0.026
G1 X-0.1705 Y-0.4951 Z0.0 E0.026
G1 X-0.1791 Y-0.492 Z0.0 E0.026
G1 X-0.1876 Y-0.4888 Z0.0 E0.026
G1 X-0.1961 Y-0.4855 Z0.0 E0.026
G1 X-0.2046 Y-0.482 Z0.0 E0.026
G1 X-0.213 Y-0.4783 Z0.0 E0.026
G1 X-0.2213 Y-0.4745 Z0.0 E0.026
G1 X-0.2295 Y-0.4706 Z0.0 E0.026
G1 X-0.2377 Y-0.4665 Z0.0 E0.026
G1 X-0.2458 Y-0.4623 Z0.0 E0.026
G1 X-0.2538 Y-0.4579 Z0.0 E0.026
G1 X-0.2618 Y-0.4534 Z0.0 E0.026
G1 X-0.2697 Y-0.4488 Z0.0 E0.026
G1 X-0.2775 Y-0.444 Z0.0 E0.026
G1 X-0.2852 Y-0.4391 Z0.0 E0.026
G1 X-0.2928 Y-0.4341 Z0.0 E0.026
G1 X-0.3003 Y-0.4289 Z0.0 E0.026
G1 X-0.3078 Y-0.4236 Z0.0 E0.026
G1 X-0.3151 Y-0.4182 Z0.0 E0.026
G1 X-0.3224 Y-0.4126 Z0.0 E0.026
G1 X-0.3295 Y-0.4069 Z0.0 E0.026
G1 X-0.3366 Y-0.4011 Z0.0 E0.026
G1 X-0.3435 Y-0.3952 Z0.0 E0.026
G1 X-0.3504 Y-0.3891 Z0.0 E0.026
G1 X-0.3571 Y-0.3829 Z0.0 E0.026
G1 X-0.3637 Y-0.3766 Z0.0 E0.026
G1 X-0.3702 Y-0.3702 Z0.0 E0.026
G1 X-0.3766 Y-0.3637 Z0.0 E0.026
G1 X-0.3829 Y-0.3571 Z0.0 E0.026
G1 X-0.3891 Y-0.3504 Z0.0 E0.026
G1 X-0.3952 Y-0.3435 Z0.0 E0.026
G1 X-0.4011 Y-0.3366 Z0.0 E0.026
G1 X-0.4069 Y-0.3295 Z0.0 E0.026
G1 X-0.4126 Y-0.3224 Z0.0 E0.026
G1 X-0.4182 Y-0.3151 Z0.0 E0.026
G1 X-0.4236 Y-0.3078 Z0.0 E0.026
G1 X-0.4289 Y-0.3003 Z0.0 E0.026
G1 X-0.4341 Y-0.2928 Z0.0 E0.026
G1 X-0.4391 Y-0.2852 Z0.0 E0.026
G1 X-0.444 Y-0.2775 Z0.0 E0.026
G1 X-0.4488 Y-0.2697 Z0.0 E0.026
G1 X-0.4534 Y-0.2618 Z0.0 E0.026
G1 X-0.4579 Y-0.2538 Z0.0 E0.026
G1 X-0.4623 Y-0.2458 Z0.0 E0.026
G1 X-0.4665 Y-0.2377 Z0.0 E0.026
G1 X-0.4706 Y-0.2295 Z0.0 E0.026
G1 X-0.4745 Y-0.2213 Z0.0 E0.026
G1 X-0.4783 Y-0.213 Z0.0 E0.026
G1 X-0.482 Y-0.2046 Z0.0 E0.026
G1 X-0.4855 Y-0.1961 Z0.0 E0.026
G1 X-0.4888 Y-0.1876 Z0.0 E0.026
G1 X-0.492 Y-0.1791 Z0.0 E0.026
G1 X-0.4951 Y-0.1705 Z0.0 E0.026
G1 X-0.498 Y-0.1618 Z0.0 E0.026
G1 X-0.5007 Y-0.1531 Z0.0 E0.026
G1 X-0.5033 Y-0.1443 Z0.0 E0.026
G1 X-0.5058 Y-0.1355 Z0.0 E0.026
G1 X-0.508 Y-0.1267 Z0.0 E0.026
G1 X-0.5102 Y-0.1178 Z0.0 E0.026
G1 X-0.5122 Y-0.1089 Z0.0 E0.026
G1 X-0.514 Y-0.0999 Z0.0 E0.026
G1 X-0.5156 Y-0.0909 Z0.0 E0.026
G1 X-0.5172 Y-0.0819 Z0.0 E0.026
G1 X-0.5185 Y-0.0729 Z0.0 E0.026
G1 X-0.5197 Y-0.0638 Z0.0 E0.026
G1 X-0.5207 Y-0.0547 Z0.0 E0.026
G1 X-0.5216 Y-0.0456 Z0.0 E0.026
G1 X-0.5223 Y-0.0365 Z0.0 E0.026
G1 X-0.5229 Y-0.0274 Z0.0 E0.026
G1 X-0.5233 Y-0.0183 Z0.0 E0.026
G1 X-0.5235 Y-0.0091 Z0.0 E0.026
G1 X-0.5236 Y-0.0 Z0.0 E0.026
G1 X-0.5235 Y0.0091 Z0.0 E0.026
G1 X-0.5233 Y0.0183 Z0.0 E0.026
G1 X-0.5229 Y0.0274 Z0.0 E0.026
G1 X-0.5223 Y0.0365 Z0.0 E0.026
G1 X-0.5216 Y0.0456 Z0.0 E0.026
G1 X-0.5207 Y0.0547 Z0.0 E0.026
G1 X-0.5197 Y0.0638 Z0.0 E0.026
G1 X-0.5185 Y0.0729 Z0.0 E0.026
G1 X-0.5172 Y0.0819 Z0.0 E0.026
G1 X-0.5156 Y0.0909 Z0.0 E0.026
G1 X-0.514 Y0.0999 Z0.0 E0.026
G1 X-0.5122 Y0.1089 Z0.0 E0.026
G1 X-0.5102 Y0.1178 Z0.0 E0.026
G1 X-0.508 Y0.1267 Z0.0 E0.026
G1 X-0.5058 Y0.1355 Z0.0 E0.026
G1 X-0.5033 Y0.1443 Z0.0 E0.026
G1 X-0.5007 Y0.1531 Z0.0 E0.026
G1 X-0.498 Y0.1618 Z0.0 E0.026
G1 X-0.4951 Y0.1705 Z0.0 E0.026
G1 X-0.492 Y0.1791 Z0.0 E0.026
G1 X-0.4888 Y0.1876 Z0.0 E0.026
G1 X-0.4855 Y0.1961 Z0.0 E0.026
G1 X-0.482 Y0.2046 Z0.0 E0.026
G1 X-0.4783 Y0.213 Z0.0 E0.026
G1 X-0.4745 Y0.2213 Z0.0 E0.026
G1 X-0.4706 Y0.2295 Z0.0 E0.026
G1 X-0.4665 Y0.2377 Z0.0 E0.026
G1 X-0.4623 Y0.2458 Z0.0 E0.026
G1 X-0.4579 Y0.2538 Z0.0 E0.026
G1 X-0.4534 Y0.2618 Z0.0 E0.026
G1 X-0.4488 Y0.2697 Z0.0 E0.026
G1 X-0.444 Y0.2775 Z0.0 E0.026
G1 X-0.4391 Y0.2852 Z0.0 E0.026
G1 X-0.4341 Y0.2928 Z0.0 E0.026
G1 X-0.4289 Y0.3003 Z0.0 E0.026
G1 X-0.4236 Y0.3078 Z0.0 E0.026
G1 X-0.4182 Y0.3151 Z0.0 E0.026
G1 X-0.4126 Y0.3224 Z0.0 E0.026
G1 X-0.4069 Y0.3295 Z0.0 E0.026
G1 X-0.4011 Y0.3366 Z0.0 E0.026
G1 X-0.3952 Y0.3435 Z0.0 E0.026
G1 X-0.3891 Y0.3504 Z0.0 E0.026
G1 X-0.3829 Y0.3571 Z0.0 E0.026
G1 X-0.3766 Y0.3637 Z0.0 E0.026
G1 X-0.3702 Y0.3702 Z0.0 E0.026
G1 X-0.3637 Y0.3766 Z0.0 E0.026
G1 X-0.3571 Y0.3829 Z0.0 E0.026
G1 X-0.3504 Y0.3891 Z0.0 E0.026
G1 X-0.3435 Y0.3952 Z0.0 E0.026
G1 X-0.3366 Y0.4011 Z0.0 E0.026
G1 X-0.3295 Y0.4069 Z0.0 E0.026
G1 X-0.3224 Y0.4126 Z0.0 E0.026
G1 X-0.3151 Y0.4182 Z0.0 E0.026
G1 X-0.3078 Y0.4236 Z0.0 E0.026
G1 X-0.3003 Y0.4289 Z0.0 E0.026
G1 X-0.2928 Y0.4341 Z0.0 E0.026
G1 X-0.2852 Y0.4391 Z0.0 E0.026
G1 X-0.2775 Y0.444 Z0.0 E0.026
G1 X-0.2697 Y0.4488 Z0.0 E0.026
G1 X-0.2618 Y0.4534 Z0.0 E0.026
G1 X-0.2538 Y0.4579 Z0.0 E0.026
G1 X-0.2458 Y0.4623 Z0.0 E0.026
G1 X-0.2377 Y0.4665 Z0.0 E0.026
G1 X-0.2295 Y0.4706 Z0.0 E0.026
G1 X-0.2213 Y0.4745 Z0.0 E0.026
G1 X-0.213 Y0.4783 Z0.0 E0.026
G1 X-0.2046 Y0.482 Z0.0 E0.026
G1 X-0.1961 Y0.4855 Z0.0 E0.026
G1 X-0.1876 Y0.4888 Z0.0 E0.026
G1 X-0.1791 Y0.492 Z0.0 E0.026
G1 X-0.1705 Y0.4951 Z0.0 E0.026
G1 X-0.1618 Y0.498 Z0.0 E0.026
G1 X-0.1531 Y0.5007 Z0.0 E0.026
G1 X-0.1443 Y0.5033 Z0.0 E0.026
G1 X-0.1355 Y0.5058 Z0.0 E0.026
G1 X-0.1267 Y0.508 Z0.0 E0.026
G1 X-0.1178 Y0.5102 Z0.0 E0.026
G1 X-0.1089 Y0.5122 Z0.0 E0.026
G1 X-0.0999 Y0.514 Z0.0 E0.026
G1 X-0.0909 Y0.5156 Z0.0 E0.026
G1 X-0.0819 Y0.5172 Z0.0 E0.026
G1 X-0.0729 Y0.5185 Z0.0 E0.026
G1 X-0.0638 Y0.5197 Z0.0 E0.026
G1 X-0.0547 Y0.5207 Z0.0 E0.026
G1 X-0.0456 Y0.5216 Z0.0 E0.026
G1 X-0.0365 Y0.5223 Z0.0 E0.026
G1 X-0.0274 Y0.5229 Z0.0 E0.026
G1 X-0.0183 Y0.5233 Z0.0 E0.026
G1 X-0.0091 Y0.5235 Z0.0 E0.026
G1 X-0.0 Y0.5236 Z0.0 E0.026
G1 X0.0091 Y0.5235 Z0.0 E0.026
G1 X0.0183 Y0.5233 Z0.0 E0.026
G1 X0.0274 Y0.5229 Z0.0 E0.026
G1 X0.0365 Y0.5223 Z0.0 E0.026
G1 X0.0456 Y0.5216 Z0.0 E0.026
G1 X0.0547 Y0.5207 Z0.0 E0.026
G1 X0.0638 Y0.5197 Z0.0 E0.026
G1 X0.0729 Y0.5185 Z0.0 E0.026
G1 X0.0819 Y0.5172 Z0.0 E0.026
G1 X0.0909 Y0.5156 Z0.0 E0.026
G1 X0.0999 Y0.514 Z0.0 E0.026
G1 X0.1089 Y0.5122 Z0.0 E0.026
G1 X0.1178 Y0.5102 Z0.0 E0.026
G1 X0.1267 Y0.508 Z0.0 E0.026
G1 X0.1355 Y0.5058 Z0.0 E0.026
G1 X0.1443 Y0.5033 Z0.0 E0.026
G1 X0.1531 Y0.5007 Z0.0 E0.026
G1 X0.1618 Y0.498 Z0.0 E0.026
G1 X0.1705 Y0.4951 Z0.0 E0.026
G1 X0.1791 Y0.492 Z0.0 E0.026
G1 X0.1876 Y0.4888 Z0.0 E0.026
G1 X0.1961 Y0.4855 Z0.0 E0.026
G1 X0.2046 Y0.482 Z0.0 E0.026
G1 X0.213 Y0.4783 Z0.0 E0.026
G1 X0.2213 Y0.4745 Z0.0 E0.026
G1 X0.2295 Y0.4706 Z0.0 E0.026
G1 X0.2377 Y0.4665 Z0.0 E0.026
G1 X0.2458 Y0.4623 Z0.0 E0.026
G1 X0.2538 Y0.4579 Z0.0 E0.026
G1 X0.2618 Y0.4534 Z0.0 E0.026
G1 X0.2697 Y0.4488 Z0.0 E0.026
G1 X0.2775 Y0.444 Z0.0 E0.026
G1 X0.2852 Y0.4391 Z0.0 E0.026
G1 X0.2928 Y0.4341 Z0.0 E0.026
G1 X0.3003 Y0.4289 Z0.0 E0.026
G1 X0.3078 Y0.4236 Z0.0 E0.026
G1 X0.3151 Y0.4182 Z0.0 E0.026
G1 X0.3224 Y0.4126 Z0.0 E0.026
G1 X0.3295 Y0.4069 Z0.0 E0.026
G1 X0.3366 Y0.4011 Z0.0 E0.026
G1 X0.3435 Y0.3952 Z0.0 E0.026
G1 X0.3504 Y0.3891 Z0.0 E0.026
G1 X0.3571 Y0.3829 Z0.0 E0.026
G1 X0.3637 Y0.3766 Z0.0 E0.026
G1 X0.3702 Y0.3702 Z0.0 E0.026
G1 X0.3766 Y0.3637 Z0.0 E0.026
G1 X0.3829 Y0.3571 Z0.0 E0.026
G1 X0.3891 Y0.3504 Z0.0 E0.026
G1 X0.3952 Y0.3435 Z0.0 E0.026
G1 X0.4011 Y0.3366 Z0.0 E0.026
G1 X0.4069 Y0.3295 Z0.0 E0.026
G1 X0.4126 Y0.3224 Z0.0 E0.026
G1 X0.4182 Y0.3151 Z0.0 E0.026
G1 X0.4236 Y0.3078 Z0.0 E0.026
G1 X0.4289 Y0.3003 Z0.0 E0.026
G1 X0.4341 Y0.2928 Z0.0 E0.026
G1 X0.4391 Y0.2852 Z0.0 E0.026
G1 X0.444 Y0.2775 Z0.0 E0.026
G1 X0.4488 Y0.2697 Z0.0 E0.026
G1 X0.4534 Y0.2618 Z0.0 E0.026
G1 X0.4579 Y0.2538 Z0.0 E0.026
G1 X0.4623 Y0.2458 Z0.0 E0.026
G1 X0.4665 Y0.2377 Z0.0 E0.026
G1 X0.4706 Y0.2295 Z0.0 E0.026
G1 X0.4745 Y0.2213 Z0.0 E0.026
G1 X0.4783 Y0.213 Z0.0 E0.026
G1 X0.482 Y0.2046 Z0.0 E0.026
G1 X0.4855 Y0.1961 Z0.0 E0.026
G1 X0.4888 Y0.1876 Z0.0 E0.026
G1 X0.492 Y0.1791 Z0.0 E0.026
G1 X0.4951 Y0.1705 Z0.0 E0.026
G1 X0.498 Y0.1618 Z0.0 E0.026
G1 X0.5007 Y0.1531 Z0.0 E0.026
G1 X0.5033 Y0.1443 Z0.0 E0.026
G1 X0.5058 Y0.1355 Z0.0 E0.026
G1 X0.508 Y0.1267 Z0.0 E0.026
G1 X0.5102 Y0.1178 Z0.0 E0.026
G1 X0.5122 Y0.1089 Z0.0 E0.026
G1 X0.514 Y0.0999 Z0.0 E0.026
G1 X0.5156 Y0.0909 Z0.0 E0.026
G1 X0.5172 Y0.0819 Z0.0 E0.026
G1 X0.5185 Y0.0729 Z0.0 E0.026
G1 X0.5197 Y0.0638 Z0.0 E0.026
G1 X0.5207 Y0.0547 Z0.0 E0.026
G1 X0.5216 Y0.0456 Z0.0 E0.026
G1 X0.5223 Y0.0365 Z0.0 E0.026
G1 X0.5229 Y0.0274 Z0.0 E0.026
G1 X0.5233 Y0.0183 Z0.0 E0.026
G1 X0.5235 Y0.0091 Z0.0 E0.026
G1 Z0.2
G1 X-25.9808 Y-45.0 Z-0.0 E2.598
G1 X51.9615 Y0.0 Z0.0 E2.598
G1 X-25.9808 Y45.0 Z0.0 E2.598
G1 X0.5236 Y0.0 Z0.0 E0.026
G1 X0.5235 Y-0.0091 Z0.0 E0.026
G1 X0.5233 Y-0.0183 Z0.0 E0.026
G1 X0.5229 Y-0.0274 Z0.0 E0.026
G1 X0.5223 Y-0.0365 Z0.0 E0.026
G1 X0.5216 Y-0.0456 Z0.0 E0.026
G1 X0.5207 Y-0.0547 Z0.0 E0.026
G1 X0.5197 Y-0.0638 Z0.0 E0.026
G1 X0.5185 Y-0.0729 Z0.0 E0.026
G1 X0.5172 Y-0.0819 Z0.0 E0.026
G1 X0.5156 Y-0.0909 Z0.0 E0.026
G1 X0.514 Y-0.0999 Z0.0 E0.026
G1 X0.5122 Y-0.1089 Z0.0 E0.026
G1 X0.5102 Y-0.1178 Z0.0 E0.026
G1 X0.508 Y-0.1267 Z0.0 E0.026
G1 X0.5058 Y-0.1355 Z0.0 E0.026
G1 X0.5033 Y-0.1443 Z0.0 E0.026
G1 X0.5007 Y-0.1531 Z0.0 E0.026
G1 X0.498 Y-0.1618 Z0.0 E0.026
G1 X0.4951 Y-0.1705 Z0.0 E0.026
G1 X0.492 Y-0.1791 Z0.0 E0.026
G1 X0.4888 Y-0.1876 Z0.0 E0.026
G1 X0.4855 Y-0.1961 Z0.0 E0.026
G1 X0.482 Y-0.2046 Z0.0 E0.026
G1 X0.4783 Y-0.213 Z0.0 E0.026
G1 X0.4745 Y-0.2213 Z0.0 E0.026
G1 X0.4706 Y-0.2295 Z0.0 E0.026
G1 X0.4665 Y-0.2377 Z0.0 E0.026
G1 X0.4623 Y-0.2458 Z0.0 E0.026
G1 X0.4579 Y-0.2538 Z0.0 E0.026
G1 X0.4534 Y-0.2618 Z0.0 E0.026
G1 X0.4488 Y-0.2697 Z0.0 E0.026
G1 X0.444 Y-0.2775 Z0.0 E0.026
G1 X0.4391 Y-0.2852 Z0.0 E0.026
G1 X0.4341 Y-0.2928 Z0.0 E0.026
G1 X0.4289 Y-0.3003 Z0.0 E0.026
G1 X0.4236 Y-0.3078 Z0.0 E0.026
G1 X0.4182 Y-0.3151 Z0.0 E0.026
G1 X0.4126 Y-0.3224 Z0.0 E0.026
G1 X0.4069 Y-0.3295 Z0.0 E0.026
G1 X0.4011 Y-0.3366 Z0.0 E0.026
G1 X0.3952 Y-0.3435 Z0.0 E0.026
G1 X0.3891 Y-0.3504 Z0.0 E0.026
G1 X0.3829 Y-0.3571 Z0.0 E0.026
G1 X0.3766 Y-0.3637 Z0.0 E0.026
G1 X0.3702 Y-0.3702 Z0.0 E0.026
G1 X0.3637 Y-0.3766 Z0.0 E0.026
G1 X0.3571 Y-0.3829 Z0.0 E0.026
G1 X0.3504 Y-0.3891 Z0.0 E0.026
G1 X0.3435 Y-0.3952 Z0.0 E0.026
G1 X0.3366 Y-0.4011 Z0.0 E0.026
G1 X0.3295 Y-0.4069 Z0.0 E0.026
G1 X0.3224 Y-0.4126 Z0.0 E0.026
G1 X0.3151 Y-0.4182 Z0.0 E0.026
G1 X0.3078 Y-0.4236 Z0.0 E0.026
G1 X0.3003 Y-0.4289 Z0.0 E0.026
G1 X0.2928 Y-0.4341 Z0.0 E0.026
G1 X0.2852 Y-0.4391 Z0.0 E0.026
G1 X0.2775 Y-0.444 Z0.0 E0.026
G1 X0.2697 Y-0.4488 Z0.0 E0.026
G1 X0.2618 Y-0.4534 Z0.0 E0.026
G1 X0.2538 Y-0.4579 Z0.0 E0.026
G1 X0.2458 Y-0.4623 Z0.0 E0.026
G1 X0.2377 Y-0.4665 Z0.0 E0.026
G1 X0.2295 Y-0.4706 Z0.0 E0.026
G1 X0.2213 Y-0.4745 Z0.0 E0.026
G1 X0.213 Y-0.4783 Z0.0 E0.026
G1 X0.2046 Y-0.482 Z0.0 E0.026
G1 X0.1961 Y-0.4855 Z0.0 E0.026
G1 X0.1876 Y-0.4888 Z0.0 E0.026
G1 X0.1791 Y-0.492 Z0.0 E0.026
G1 X0.1705 Y-0.4951 Z0.0 E0.026
G1 X0.1618 Y-0.498 Z0.0 E0.026
G1 X0.1531 Y-0.5007 Z0.0 E0.026
G1 X0.1443 Y-0.5033 Z0.0 E0.026
G1 X0.1355 Y-0.5058 Z0.0 E0.026
G1 X0.1267 Y-0.508 Z0.0 E0.026
G1 X0.1178 Y-0.5102 Z0.0 E0.026
G1 X0.1089 Y-0.5122 Z0.0 E0.026
G1 X0.0999 Y-0.514 Z0.0 E0.026
G1 X0.0909 Y-0.5156 Z0.0 E0.026
G1 X0.0819 Y-0.5172 Z0.0 E0.026
G1 X0.0729 Y-0.5185 Z0.0 E0.026
G1 X0.0638 Y-0.5197 Z0.0 E0.026
G1 X0.0547 Y-0.5207 Z0.0 E0.026
G1 X0.0456 Y-0.5216 Z0.0 E0.026
G1 X0.0365 Y-0.5223 Z0.0 E0.026
G1 X0.0274 Y-0.5229 Z0.0 E0.026
G1 X0.0183 Y-0.5233 Z0.0 E0.026
G1 X0.0091 Y-0.5235 Z0.0 E0.026
G1 X0.0 Y-0.5236 Z0.0 E0.026
G1 X-0.0091 Y-0.5235 Z0.0 E0.026
G1 X-0.0183 Y-0.5233 Z0.0 E0.026
G1 X-0.0274 Y-0.5229 Z0.0 E0.026
G1 X-0.0365 Y-0.5223 Z0.0 E0.026
G1 X-0.0456 Y-0.5216 Z0.0 E0.026
G1 X-0.0547 Y-0.5207 Z0.0 E0.026
G1 X-0.0638 Y-0.5197 Z0.0 E0.026
G1 X-0.0729 Y-0.5185 Z0.0 E0.026
G1 X-0.0819 Y-0.5172 Z0.0 E0.026
G1 X-0.0909 Y-0.5156 Z0.0 E0.026
G1 X-0.0999 Y-0.514 Z0.0 E0.026
G1 X-0.1089 Y-0.5122 Z0.0 E0.026
G1 X-0.1178 Y-0.5102 Z0.0 E0.026
G1 X-0.1267 Y-0.508 Z0.0 E0.026
G1 X-0.1355 Y-0.5058 Z0.0 E0.026
G1 X-0.1443 Y-0.5033 Z0.0 E0.026
G1 X-0.1531 Y-0.5007 Z0.0 E0.026
G1 X-0.1618 Y-0.498 Z0.0 E0.026
G1 X-0.1705 Y-0.4951 Z0.0 E0.026
G1 X-0.1791 Y-0.492 Z0.0 E0.026
G1 X-0.1876 Y-0.4888 Z0.0 E0.026
G1 X-0.1961 Y-0.4855 Z0.0 E0.026
G1 X-0.2046 Y-0.482 Z0.0 E0.026
G1 X-0.213 Y-0.4783 Z0.0 E0.026
G1 X-0.2213 Y-0.4745 Z0.0 E0.026
G1 X-0.2295 Y-0.4706 Z0.0 E0.026
G1 X-0.2377 Y-0.4665 Z0.0 E0.026
G1 X-0.2458 Y-0.4623 Z0.0 E0.026
G1 X-0.2538 Y-0.4579 Z0.0 E0.026
G1 X-0.2618 Y-0.4534 Z0.0 E0.026
G1 X-0.2697 Y-0.4488 Z0.0 E0.026
G1 X-0.2775 Y-0.444 Z0.0 E0.026
G1 X-0.2852 Y-0.4391 Z0.0 E0.026
G1 X-0.2928 Y-0.4341 Z0.0 E0.026
G1 X-0.3003 Y-0.4289 Z0.0 E0.026
G1 X-0.3078 Y-0.4236 Z0.0 E0.026
G1 X-0.3151 Y-0.4182 Z0.0 E0.026
G1 X-0.3224 Y-0.4126 Z0.0 E0.026
G1 X-0.3295 Y-0.4069 Z0.0 E0.026
G1 X-0.3366 Y-0.4011 Z0.0 E0.026
G1 X-0.3435 Y-0.3952 Z0.0 E0.026
G1 X-0.3504 Y-0.3891 Z0.0 E0.026
G1 X-0.3571 Y-0.3829 Z0.0 E0.026
G1 X-0.3637 Y-0.3766 Z0.0 E0.026
G1 X-0.3702 Y-0.3702 Z0.0 E0.026
G1 X-0.3766 Y-0.3637 Z0.0 E0.026
G1 X-0.3829 Y-0.3571 Z0.0 E0.026
G1 X-0.3891 Y-0.3504 Z0.0 E0.026
G1 X-0.3952 Y-0.3435 Z0.0 E0.026
G1 X-0.4011 Y-0.3366 Z0.0 E0.026
G1 X-0.4069 Y-0.3295 Z0.0 E0.026
G1 X-0.4126 Y-0.3224 Z0.0 E0.026
G1 X-0.4182 Y-0.3151 Z0.0 E0.026
G1 X-0.4236 Y-0.3078 Z0.0 E0.026
G1 X-0.4289 Y-0.3003 Z0.0 E0.026
G1 X-0.4341 Y-0.2928 Z0.0 E0.026
G1 X-0.4391 Y-0.2852 Z0.0 E0.026
G1 X-0.444 Y-0.2775 Z0.0 E0.026
G1 X-0.4488 Y-0.2697 Z0.0 E0.026
G1 X-0.4534 Y-0.2618 Z0.0 E0.026
G1 X-0.4579 Y-0.2538 Z0.0 E0.026
G1 X-0.4623 Y-0.2458 Z0.0 E0.026
G1 X-0.4665 Y-0.2377 Z0.0 E0.026
G1 X-0.4706 Y-0.2295 Z0.0 E0.026
G1 X-0.4745 Y-0.2213 Z0.0 E0.026
G1 X-0.4783 Y-0.213 Z0.0 E0.026
G1 X-0.482 Y-0.2046 Z0.0 E0.026
G1 X-0.4855 Y-0.1961 Z0.0 E0.026
G1 X-0.4888 Y-0.1876 Z0.0 E0.026
G1 X-0.492 Y-0.1791 Z0.0 E0.026
G1 X-0.4951 Y-0.1705 Z0.0 E0.026
G1 X-0.498 Y-0.1618 Z0.0 E0.026
G1 X-0.5007 Y-0.1531 Z0.0 E0.026
G1 X-0.5033 Y-0.1443 Z0.0 E0.026
G1 X-0.5058 Y-0.1355 Z0.0 E0.026
G1 X-0.508 Y-0.1267 Z0.0 E0.026
G1 X-0.5102 Y-0.1178 Z0.0 E0.026
G1 X-0.5122 Y-0.1089 Z0.0 E0.026
G1 X-0.514 Y-0.0999 Z0.0 E0.026
G1 X-0.5156 Y-0.0909 Z0.0 E0.026
G1 X-0.5172 Y-0.0819 Z0.0 E0.026
G1 X-0.5185 Y-0.0729 Z0.0 E0.026
G1 X-0.5197 Y-0.0638 Z0.0 E0.026
G1 X-0.5207 Y-0.0547 Z0.0 E0.026
G1 X-0.5216 Y-0.0456 Z0.0 E0.026
G1 X-0.5223 Y-0.0365 Z0.0 E0.026
G1 X-0.5229 Y-0.0274 Z0.0 E0.026
G1 X-0.5233 Y-0.0183 Z0.0 E0.026
G1 X-0.5235 Y-0.0091 Z0.0 E0.026
G1 X-0.5236 Y-0.0 Z0.0 E0.026
G1 X-0.5235 Y0.0091 Z0.0 E0.026
G1 X-0.5233 Y0.0183 Z0.0 E0.026
G1 X-0.5229 Y0.0274 Z0.0 E0.026
G1 X-0.5223 Y0.0365 Z0.0 E0.026
G1 X-0.5216 Y0.0456 Z0.0 E0.026
G1 X-0.5207 Y0.0547 Z0.0 E0.026
G1 X-0.5197 Y0.0638 Z0.0 E0.026
G1 X-0.5185 Y0.0729 Z0.0 E0.026
G1 X-0.5172 Y0.0819 Z0.0 E0.026
G1 X-0.5156 Y0.0909 Z0.0 E0.026
G1 X-0.514 Y0.0999 Z0.0 E0.026
G1 X-0.5122 Y0.1089 Z0.0 E0.026
G1 X-0.5102 Y0.1178 Z0.0 E0.026
G1 X-0.508 Y0.1267 Z0.0 E0.026
G1 X-0.5058 Y0.1355 Z0.0 E0.026
G1 X-0.5033 Y0.1443 Z0.0 E0.026
G1 X-0.5007 Y0.1531 Z0.0 E0.026
G1 X-0.498 Y0.1618 Z0.0 E0.026
G1 X-0.4951 Y0.1705 Z0.0 E0.026
G1 X-0.492 Y0.1791 Z0.0 E0.026
G1 X-0.4888 Y0.1876 Z0.0 E0.026
G1 X-0.4855 Y0.1961 Z0.0 E0.026
G1 X-0.482 Y0.2046 Z0.0 E0.026
G1 X-0.4783 Y0.213 Z0.0 E0.026
G1 X-0.4745 Y0.2213 Z0.0 E0.026
G1 X-0.4706 Y0.2295 Z0.0 E0.026
G1 X-0.4665 Y0.2377 Z0.0 E0.026
G1 X-0.4623 Y0.2458 Z0.0 E0.026
G1 X-0.4579 Y0.2538 Z0.0 E0.026
G1 X-0.4534 Y0.2618 Z0.0 E0.026
G1 X-0.4488 Y0.2697 Z0.0 E0.026
G1 X-0.444 Y0.2775 Z0.0 E0.026
G1 X-0.4391 Y0.2852 Z0.0 E0.026
G1 X-0.4341 Y0.2928 Z0.0 E0.026
G1 X-0.4289 Y0.3003 Z0.0 E0.026
G1 X-0.4236 Y0.3078 Z0.0 E0.026
G1 X-0.4182 Y0.3151 Z0.0 E0.026
G1 X-0.4126 Y0.3224 Z0.0 E0.026
G1 X-0.4069 Y0.3295 Z0.0 E0.026
G1 X-0.4011 Y0.3366 Z0.0 E0.026
G1 X-0.3952 Y0.3435 Z0.0 E0.026
G1 X-0.3891 Y0.3504 Z0.0 E0.026
G1 X-0.3829 Y0.3571 Z0.0 E0.026
G1 X-0.3766 Y0.3637 Z0.0 E0.026
G1 X-0.3702 Y0.3702 Z0.0 E0.026
G1 X-0.3637 Y0.3766 Z0.0 E0.026
G1 X-0.3571 Y0.3829 Z0.0 E0.026
G1 X-0.3504 Y0.3891 Z0.0 E0.026
G1 X-0.3435 Y0.3952 Z0.0 E0.026
G1 X-0.3366 Y0.4011 Z0.0 E0.026
G1 X-0.3295 Y0.4069 Z0.0 E0.026
G1 X-0.3224 Y0.4126 Z0.0 E0.026
G1 X-0.3151 Y0.4182 Z0.0 E0.026
G1 X-0.3078 Y0.4236 Z0.0 E0.026
G1 X-0.3003 Y0.4289 Z0.0 E0.026
G1 X-0.2928 Y0.4341 Z0.0 E0.026
G1 X-0.2852 Y0.4391 Z0.0 E0.026
G1 X-0.2775 Y0.444 Z0.0 E0.026
G1 X-0.2697 Y0.4488 Z0.0 E0.026
G1 X-0.2618 Y0.4534 Z0.0 E0.026
G1 X-0.2538 Y0.4579 Z0.0 E0.026
G1 X-0.2458 Y0.4623 Z0.0 E0.026
G1 X-0.2377 Y0.4665 Z0.0 E0.026
G1 X-0.2295 Y0.4706 Z0.0 E0.026
G1 X-0.2213 Y0.4745 Z0.0 E0.026
G1 X-0.213 Y0.4783 Z0.0 E0.026
G1 X-0.2046 Y0.482 Z0.0 E0.026
G1 X-0.1961 Y0.4855 Z0.0 E0.026
G1 X-0.1876 Y0.4888 Z0.0 E0.026
G1 X-0.1791 Y0.492 Z0.0 E0.026
G1 X-0.1705 Y0.4951 Z0.0 E0.026
G1 X-0.1618 Y0.498 Z0.0 E0.026
G1 X-0.1531 Y0.5007 Z0.0 E0.026
G1 X-0.1443 Y0.5033 Z0.0 E0.026
G1 X-0.1355 Y0.5058 Z0.0 E0.026
G1 X-0.1267 Y0.508 Z0.0 E0.026
G1 X-0.1178 Y0.5102 Z0.0 E0.026
G1 X-0.1089 Y0.5122 Z0.0 E0.026
G1 X-0.0999 Y0.514 Z0.0 E0.026
G1 X-0.0909 Y0.5156 Z0.0 E0.026
G1 X-0.0819 Y0.5172 Z0.0 E0.026
G1 X-0.0729 Y0.5185 Z0.0 E0.026
G1 X-0.0638 Y0.5197 Z0.0 E0.026
G1 X-0.0547 Y0.5207 Z0.0 E0.026
G1 X-0.0456 Y0.5216 Z0.0 E0.026
G1 X-0.0365 Y0.5223 Z0.0 E0.026
G1 X-0.0274 Y0.5229 Z0.0 E0.026
G1 X-0.0183 Y0.5233 Z0.0 E0.026
G1 X-0.0091 Y0.5235 Z0.0 E0.026
G1 X-0.0 Y0.5236 Z0.0 E0.026
G1 X0.0091 Y0.5235 Z0.0 E0.026
G1 X0.0183 Y0.5233 Z0.0 E0.026
G1 X0.0274 Y0.5229 Z0.0 E0.026
G1 X0.0365 Y0.5223 Z0.0 E0.026
G1 X0.0456 Y0.5216 Z0.0 E0.026
G1 X0.0547 Y0.5207 Z0.0 E0.026
G1 X0.0638 Y0.5197 Z0.0 E0.026
G1 X0.0729 Y0.5185 Z0.0 E0.026
G1 X0.0819 Y0.5172 Z0.0 E0.026
G1 X0.0909 Y0.5156 Z0.0 E0.026
G1 X0.0999 Y0.514 Z0.0 E0.026
G1 X0.1089 Y0.5122 Z0.0 E0.026
G1 X0.1178 Y0.5102 Z0.0 E0.026
G1 X0.1267 Y0.508 Z0.0 E0.026
G1 X0.1355 Y0.5058 Z0.0 E0.026
G1 X0.1443 Y0.5033 Z0.0 E0.026
G1 X0.1531 Y0.5007 Z0.0 E0.026
G1 X0.1618 Y0.498 Z0.0 E0.026
G1 X0.1705 Y0.4951 Z0.0 E0.026
G1 X0.1791 Y0.492 Z0.0 E0.026
G1 X0.1876 Y0.4888 Z0.0 E0.026
G1 X0.1961 Y0.4855 Z0.0 E0.026
G1 X0.2046 Y0.482 Z0.0 E0.026
G1 X0.213 Y0.4783 Z0.0 E0.026
G1 X0.2213 Y0.4745 Z0.0 E0.026
G1 X0.2295 Y0.4706 Z0.0 E0.026
G1 X0.2377 Y0.4665 Z0.0 E0.026
G1 X0.2458 Y0.4623 Z0.0 E0.026
G1 X0.2538 Y0.4579 Z0.0 E0.026
G1 X0.2618 Y0.4534 Z0.0 E0.026
G1 X0.2697 Y0.4488 Z0.0 E0.026
G1 X0.2775 Y0.444 Z0.0 E0.026
G1 X0.2852 Y0.4391 Z0.0 E0.026
G1 X0.2928 Y0.4341 Z0.0 E0.026
G1 X0.3003 Y0.4289 Z0.0 E0.026
G1 X0.3078 Y0.4236 Z0.0 E0.026
G1 X0.3151 Y0.4182 Z0.0 E0.026
G1 X0.3224 Y0.4126 Z0.0 E0.026
G1 X0.3295 Y0.4069 Z0.0 E0.026
G1 X0.3366 Y0.4011 Z0.0 E0.026
G1 X0.3435 Y0.3952 Z0.0 E0.026
G1 X0.3504 Y0.3891 Z0.0 E0.026
G1 X0.3571 Y0.3829 Z0.0 E0.026
G1 X0.3637 Y0.3766 Z0.0 E0.026
G1 X0.3702 Y0.3702 Z0.0 E0.026
G1 X0.3766 Y0.3637 Z0.0 E0.026
G1 X0.3829 Y0.3571 Z0.0 E0.026
G1 X0.3891 Y0.3504 Z0.0 E0.026
G1 X0.3952 Y0.3435 Z0.0 E0.026
G1 X0.4011 Y0.3366 Z0.0 E0.026
G1 X0.4069 Y0.3295 Z0.0 E0.026
G1 X0.4126 Y0.3224 Z0.0 E0.026
G1 X0.4182 Y0.3151 Z0.0 E0.026
G1 X0.4236 Y0.3078 Z0.0 E0.026
G1 X0.4289 Y0.3003 Z0.0 E0.026
G1 X0.4341 Y0.2928 Z0.0 E0.026
G1 X0.4391 Y0.2852 Z0.0 E0.026
G1 X0.444 Y0.2775 Z0.0 E0.026
G1 X0.4488 Y0.2697 Z0.0 E0.026
G1 X0.4534 Y0.2618 Z0.0 E0.026
G1 X0.4579 Y0.2538 Z0.0 E0.026
G1 X0.4623 Y0.2458 Z0.0 E0.026
G1 X0.4665 Y0.2377 Z0.0 E0.026
G1 X0.4706 Y0.2295 Z0.0 E0.026
G1 X0.4745 Y0.2213 Z0.0 E0.026
G1 X0.4783 Y0.213 Z0.0 E0.026
G1 X0.482 Y0.2046 Z0.0 E0.026
G1 X0.4855 Y0.1961 Z0.0 E0.026
G1 X0.4888 Y0.1876 Z0.0 E0.026
G1 X0.492 Y0.1791 Z0.0 E0.026
G1 X0.4951 Y0.1705 Z0.0 E0.026
G1 X0.498 Y0.1618 Z0.0 E0.026
G1 X0.5007 Y0.1531 Z0.0 E0.026
G1 X0.5033 Y0.1443 Z0.0 E0.026
G1 X0.5058 Y0.1355 Z0.0 E0.026
G1 X0.508 Y0.1267 Z0.0 E0.026
G1 X0.5102 Y0.1178 Z0.0 E0.026
G1 X0.5122 Y0.1089 Z0.0 E0.026
G1 X0.514 Y0.0999 Z0.0 E0.026
G1 X0.5156 Y0.0909 Z0.0 E0.026
G1 X0.5172 Y0.0819 Z0.0 E0.026
G1 X0.5185 Y0.0729 Z0.0 E0.026
G1 X0.5197 Y0.0638 Z0.0 E0.026
G1 X0.5207 Y0.0547 Z0.0 E0.026
G1 X0.5216 Y0.0456 Z0.0 E0.026
G1 X0.5223 Y0.0365 Z0.0 E0.026
G1 X0.5229 Y0.0274 Z0.0 E0.026
G1 X0.5233 Y0.0183 Z0.0 E0.026
G1 X0.5235 Y0.0091 Z0.0 E0.026
G1 Z0.2
G1 X0.5236 Y0.0 Z0.0 E0.026
G1 X0.5235 Y-0.0091 Z0.0 E0.026
G1 X0.5233 Y-0.0183 Z0.0 E0.026
G1 X0.5229 Y-0.0274 Z0.0 E0.026
G1 X0.5223 Y-0.0365 Z0.0 E0.026
G1 X0.5216 Y-0.0456 Z0.0 E0.026
G1 X0.5207 Y-0.0547 Z0.0 E0.026
G1 X0.5197 Y-0.0638 Z0.0 E0.026
G1 X0.5185 Y-0.0729 Z0.0 E0.026
G1 X0.5172 Y-0.0819 Z0.0 E0.026
G1 X0.5156 Y-0.0909 Z0.0 E0.026
G1 X0.514 Y-0.0999 Z0.0 E0.026
G1 X0.5122 Y-0.1089 Z0.0 E0.026
G1 X0.5102 Y-0.1178 Z0.0 E0.026
G1 X0.508 Y-0.1267 Z0.0 E0.026
G1 X0.5058 Y-0.1355 Z0.0 E0.026
G1 X0.5033 Y-0.1443 Z0.0 E0.026
G1 X0.5007 Y-0.1531 Z0.0 E0.026
G1 X0.498 Y-0.1618 Z0.0 E0.026
G1 X0.4951 Y-0.1705 Z0.0 E0.026
G1 X0.492 Y-0.1791 Z0.0 E0.026
G1 X0.4888 Y-0.1876 Z0.0 E0.026
G1 X0.4855 Y-0.1961 Z0.0 E0.026
G1 X0.482 Y-0.2046 Z0.0 E0.026
G1 X0.4783 Y-0.213 Z0.0 E0.026
G1 X0.4745 Y-0.2213 Z0.0 E0.026
G1 X0.4706 Y-0.2295 Z0.0 E0.026
G1 X0.4665 Y-0.2377 Z0.0 E0.026
G1 X0.4623 Y-0.2458 Z0.0 E0.026
G1 X0.4579 Y-0.2538 Z0.0 E0.026
G1 X0.4534 Y-0.2618 Z0.0 E0.026
G1 X0.4488 Y-0.2697 Z0.0 E0.026
G1 X0.444 Y-0.2775 Z0.0 E0.026
G1 X0.4391 Y-0.2852 Z0.0 E0.026
G1 X0.4341 Y-0.2928 Z0.0 E0.026
G1 X0.4289 Y-0.3003 Z0.0 E0.026
G1 X0.4236 Y-0.3078 Z0.0 E0.026
G1 X0.4182 Y-0.3151 Z0.0 E0.026
G1 X0.4126 Y-0.3224 Z0.0 E0.026
G1 X0.4069 Y-0.3295 Z0.0 E0.026
G1 X0.4011 Y-0.3366 Z0.0 E0.026
G1 X0.3952 Y-0.3435 Z0.0 E0.026
G1 X0.3891 Y-0.3504 Z0.0 E0.026
G1 X0.3829 Y-0.3571 Z0.0 E0.026
G1 X0.3766 Y-0.3637 Z0.0 E0.026
G1 X0.3702 Y-0.3702 Z0.0 E0.026
G1 X0.3637 Y-0.3766 Z0.0 E0.026
G1 X0.3571 Y-0.3829 Z0.0 E0.026
G1 X0.3504 Y-0.3891 Z0.0 E0.026
G1 X0.3435 Y-0.3952 Z0.0 E0.026
G1 X0.3366 Y-0.4011 Z0.0 E0.026
G1 X0.3295 Y-0.4069 Z0.0 E0.026
G1 X0.3224 Y-0.4126 Z0.0 E0.026
G1 X0.3151 Y-0.4182 Z0.0 E0.026
G1 X0.3078 Y-0.4236 Z0.0 E0.026
G1 X0.3003 Y-0.4289 Z0.0 E0.026
G1 X0.2928 Y-0.4341 Z0.0 E0.026
G1 X0.2852 Y-0.4391 Z0.0 E0.026
G1 X0.2775 Y-0.444 Z0.0 E0.026
G1 X0.2697 Y-0.4488 Z0.0 E0.026
G1 X0.2618 Y-0.4534 Z0.0 E0.026
G1 X0.2538 Y-0.4579 Z0.0 E0.026
G1 X0.2458 Y-0.4623 Z0.0 E0.026
G1 X0.2377 Y-0.4665 Z0.0 E0.026
G1 X0.2295 Y-0.4706 Z0.0 E0.026
G1 X0.2213 Y-0.4745 Z0.0 E0.026
G1 X0.213 Y-0.4783 Z0.0 E0.026
G1 X0.2046 Y-0.482 Z0.0 E0.026
G1 X0.1961 Y-0.4855 Z0.0 E0.026
G1 X0.1876 Y-0.4888 Z0.0 E0.026
G1 X0.1791 Y-0.492 Z0.0 E0.026
G1 X0.1705 Y-0.4951 Z0.0 E0.026
G1 X0.1618 Y-0.498 Z0.0 E0.026
G1 X0.1531 Y-0.5007 Z0.0 E0.026
G1 X0.1443 Y-0.5033 Z0.0 E0.026
G1 X0.1355 Y-0.5058 Z0.0 E0.026
G1 X0.1267 Y-0.508 Z0.0 E0.026
G1 X0.1178 Y-0.5102 Z0.0 E0.026
G1 X0.1089 Y-0.5122 Z0.0 E0.026
G1 X0.0999 Y-0.514 Z0.0 E0.026
G1 X0.0909 Y-0.5156 Z0.0 E0.026
G1 X0.0819 Y-0.5172 Z0.0 E0.026
G1 X0.0729 Y-0.5185 Z0.0 E0.026
G1 X0.0638 Y-0.5197 Z0.0 E0.026
G1 X0.0547 Y-0.5207 Z0.0 E0.026
G1 X0.0456 Y-0.5216 Z0.0 E0.026
G1 X0.0365 Y-0.5223 Z0.0 E0.026
G1 X0.0274 Y-0.5229 Z0.0 E0.026
G1 X0.0183 Y-0.5233 Z0.0 E0.026
G1 X0.0091 Y-0.5235 Z0.0 E0.026
G1 X0.0 Y-0.5236 Z0.0 E0.026
G1 X-0.0091 Y-0.5235 Z0.0 E0.026
G1 X-0.0183 Y-0.5233 Z0.0 E0.026
G1 X-0.0274 Y-0.5229 Z0.0 E0.026
G1 X-0.0365 Y-0.5223 Z0.0 E0.026
G1 X-0.0456 Y-0.5216 Z0.0 E0.026
G1 X-0.0547 Y-0.5207 Z0.0 E0.026
G1 X-0.0638 Y-0.5197 Z0.0 E0.026
G1 X-0.0729 Y-0.5185 Z0.0 E0.026
G1 X-0.0819 Y-0.5172 Z0.0 E0.026
G1 X-0.0909 Y-0.5156 Z0.0 E0.026
G1 X-0.0999 Y-0.514 Z0.0 E0.026
G1 X-0.1089 Y-0.5122 Z0.0 E0.026
G1 X-0.1178 Y-0.5102 Z0.0 E0.026
G1 X-0.1267 Y-0.508 Z0.0 E0.026
G1 X-0.1355 Y-0.5058 Z0.0 E0.026
G1 X-0.1443 Y-0.5033 Z0.0 E0.026
G1 X-0.1531 Y-0.5007 Z0.0 E0.026
G1 X-0.1618 Y-0.498 Z0.0 E0.026
G1 X-0.1705 Y-0.4951 Z0.0 E0.026
G1 X-0.1791 Y-0.492 Z0.0 E0.026
G1 X-0.1876 Y-0.4888 Z0.0 E0.026
G1 X-0.1961 Y-0.4855 Z0.0 E0.026
G1 X-0.2046 Y-0.482 Z0.0 E0.026
G1 X-0.213 Y-0.4783 Z0.0 E0.026
G1 X-0.2213 Y-0.4745 Z0.0 E0.026
G1 X-0.2295 Y-0.4706 Z0.0 E0.026
G1 X-0.2377 Y-0.4665 Z0.0 E0.026
G1 X-0.2458 Y-0.4623 Z0.0 E0.026
G1 X-0.2538 Y-0.4579 Z0.0 E0.026
G1 X-0.2618 Y-0.4534 Z0.0 E0.026
G1 X-0.2697 Y-0.4488 Z0.0 E0.026
G1 X-0.2775 Y-0.444 Z0.0 E0.026
G1 X-0.2852 Y-0.4391 Z0.0 E0.026
G1 X-0.2928 Y-0.4341 Z0.0 E0.026
G1 X-0.3003 Y-0.4289 Z0.0 E0.026
G1 X-0.3078 Y-0.4236 Z0.0 E0.026
G1 X-0.3151 Y-0.4182 Z0.0 E0.026
G1 X-0.3224 Y-0.4126 Z0.0 E0.026
G1 X-0.3295 Y-0.4069 Z0.0 E0.026
G1 X-0.3366 Y-0.4011 Z0.0 E0.026
G1 X-0.3435 Y-0.3952 Z0.0 E0.026
G1 X-0.3504 Y-0.3891 Z0.0 E0.026
G1 X-0.3571 Y-0.3829 Z0.0 E0.026
G1 X-0.3637 Y-0.3766 Z0.0 E0.026
G1 X-0.3702 Y-0.3702 Z0.0 E0.026
G1 X-0.3766 Y-0.3637 Z0.0 E0.026
G1 X-0.3829 Y-0.3571 Z0.0 E0.026
G1 X-0.3891 Y-0.3504 Z0.0 E0.026
G1 X-0.3952 Y-0.3435 Z0.0 E0.026
G1 X-0.4011 Y-0.3366 Z0.0 E0.026
G1 X-0.4069 Y-0.3295 Z0.0 E0.026
G1 X-0.4126 Y-0.3224 Z0.0 E0.026
G1 X-0.4182 Y-0.3151 Z0.0 E0.026
G1 X-0.4236 Y-0.3078 Z0.0 E0.026
G1 X-0.4289 Y-0.3003 Z0.0 E0.026
G1 X-0.4341 Y-0.2928 Z0.0 E0.026
G1 X-0.4391 Y-0.2852 Z0.0 E0.026
G1 X-0.444 Y-0.2775 Z0.0 E0.026
G1 X-0.4488 Y-0.2697 Z0.0 E0.026
G1 X-0.4534 Y-0.2618 Z0.0 E0.026
G1 X-0.4579 Y-0.2538 Z0.0 E0.026
G1 X-0.4623 Y-0.2458 Z0.0 E0.026
G1 X-0.4665 Y-0.2377 Z0.0 E0.026
G1 X-0.4706 Y-0.2295 Z0.0 E0.026
G1 X-0.4745 Y-0.2213 Z0.0 E0.026
G1 X-0.4783 Y-0.213 Z0.0 E0.026
G1 X-0.482 Y-0.2046 Z0.0 E0.026
G1 X-0.4855 Y-0.1961 Z0.0 E0.026
G1 X-0.4888 Y-0.1876 Z0.0 E0.026
G1 X-0.492 Y-0.1791 Z0.0 E0.026
G1 X-0.4951 Y-0.1705 Z0.0 E0.026
G1 X-0.498 Y-0.1618 Z0.0 E0.026
G1 X-0.5007 Y-0.1531 Z0.0 E0.026
G1 X-0.5033 Y-0.1443 Z0.0 E0.026
G1 X-0.5058 Y-0.1355 Z0.0 E0.026
G1 X-0.508 Y-0.1267 Z0.0 E0.026
G1 X-0.5102 Y-0.1178 Z0.0 E0.026
G1 X-0.5122 Y-0.1089 Z0.0 E0.026
G1 X-0.514 Y-0.0999 Z0.0 E0.026
G1 X-0.5156 Y-0.0909 Z0.0 E0.026
G1 X-0.5172 Y-0.0819 Z0.0 E0.026
G1 X-0.5185 Y-0.0729 Z0.0 E0.026
G1 X-0.5197 Y-0.0638 Z0.0 E0.026
G1 X-0.5207 Y-0.0547 Z0.0 E0.026
G1 X-0.5216 Y-0.0456 Z0.0 E0.026
G1 X-0.5223 Y-0.0365 Z0.0 E0.026
G1 X-0.5229 Y-0.0274 Z0.0 E0.026
G1 X-0.5233 Y-0.0183 Z0.0 E0.026
G1 X-0.5235 Y-0.0091 Z0.0 E0.026
G1 X-0.5236 Y-0.0 Z0.0 E0.026
G1 X-0.5235 Y0.0091 Z0.0 E0.026
G1 X-0.5233 Y0.0183 Z0.0 E0.026
G1 X-0.5229 Y0.0274 Z0.0 E0.026
G1 X-0.5223 Y0.0365 Z0.0 E0.026
G1 X-0.5216 Y0.0456 Z0.0 E0.026
G1 X-0.5207 Y0.0547 Z0.0 E0.026
G1 X-0.5197 Y0.0638 Z0.0 E0.026
G1 X-0.5185 Y0.0729 Z0.0 E0.026
G1 X-0.5172 Y0.0819 Z0.0 E0.026
G1 X-0.5156 Y0.0909 Z0.0 E0.026
G1 X-0.514 Y0.0999 Z0.0 E0.026
G1 X-0.5122 Y0.1089 Z0.0 E0.026
G1 X-0.5102 Y0.1178 Z0.0 E0.026
G1 X-0.508 Y0.1267 Z0.0 E0.026
G1 X-0.5058 Y0.1355 Z0.0 E0.026
G1 X-0.5033 Y0.1443 Z0.0 E0.026
G1 X-0.5007 Y0.1531 Z0.0 E0.026
G1 X-0.498 Y0.1618 Z0.0 E0.026
G1 X-0.4951 Y0.1705 Z0.0 E0.026
G1 X-0.492 Y0.1791 Z0.0 E0.026
G1 X-0.4888 Y0.1876 Z0.0 E0.026
G1 X-0.4855 Y0.1961 Z0.0 E0.026
G1 X-0.482 Y0.2046 Z0.0 E0.026
G1 X-0.4783 Y0.213 Z0.0 E0.026
G1 X-0.4745 Y0.2213 Z0.0 E0.026
G1 X-0.4706 Y0.2295 Z0.0 E0.026
G1 X-0.4665 Y0.2377 Z0.0 E0.026
G1 X-0.4623 Y0.2458 Z0.0 E0.026
G1 X-0.4579 Y0.2538 Z0.0 E0.026
G1 X-0.4534 Y0.2618 Z0.0 E0.026
G1 X-0.4488 Y0.2697 Z0.0 E0.026
G1 X-0.444 Y0.2775 Z0.0 E0.026
G1 X-0.4391 Y0.2852 Z0.0 E0.026
G1 X-0.4341 Y0.2928 Z0.0 E0.026
G1 X-0.4289 Y0.3003 Z0.0 E0.026
G1 X-0.4236 Y0.3078 Z0.0 E0.026
G1 X-0.4182 Y0.3151 Z0.0 E0.026
G1 X-0.4126 Y0.3224 Z0.0 E0.026
G1 X-0.4069 Y0.3295 Z0.0 E0.026
G1 X-0.4011 Y0.3366 Z0.0 E0.026
G1 X-0.3952 Y0.3435 Z0.0 E0.026
G1 X-0.3891 Y0.3504 Z0.0 E0.026
G1 X-0.3829 Y0.3571 Z0.0 E0.026
G1 X-0.3766 Y0.3637 Z0.0 E0.026
G1 X-0.3702 Y0.3702 Z0.0 E0.026
G1 X-0.3637 Y0.3766 Z0.0 E0.026
G1 X-0.3571 Y0.3829 Z0.0 E0.026
G1 X-0.3504 Y0.3891 Z0.0 E0.026
G1 X-0.3435 Y0.3952 Z0.0 E0.026
G1 X-0.3366 Y0.4011 Z0.0 E0.026
G1 X-0.3295 Y0.4069 Z0.0 E0.026
G1 X-0.3224 Y0.4126 Z0.0 E0.026
G1 X-0.3151 Y0.4182 Z0.0 E0.026
G1 X-0.3078 Y0.4236 Z0.0 E0.026
G1 X-0.3003 Y0.4289 Z0.0 E0.026
G1 X-0.2928 Y0.4341 Z0.0 E0.026
G1 X-0.2852 Y0.4391 Z0.0 E0.026
G1 X-0.2775 Y0.444 Z0.0 E0.026
G1 X-0.2697 Y0.4488 Z0.0 E0.026
G1 X-0.2618 Y0.4534 Z0.0 E0.026
G1 X-0.2538 Y0.4579 Z0.0 E0.026
G1 X-0.2458 Y0.4623 Z0.0 E0.026
G1 X-0.2377 Y0.4665 Z0.0 E0.026
G1 X-0.2295 Y0.4706 Z0.0 E0.026
G1 X-0.2213 Y0.4745 Z0.0 E0.026
G1 X-0.213 Y0.4783 Z0.0 E0.026
G1 X-0.2046 Y0.482 Z0.0 E0.026
G1 X-0.1961 Y0.4855 Z0.0 E0.026
G1 X-0.1876 Y0.4888 Z0.0 E0.026
G1 X-0.1791 Y0.492 Z0.0 E0.026
G1 X-0.1705 Y0.4951 Z0.0 E0.026
G1 X-0.1618 Y0.498 Z0.0 E0.026
G1 X-0.1531 Y0.5007 Z0.0 E0.026
G1 X-0.1443 Y0.5033 Z0.0 E0.026
G1 X-0.1355 Y0.5058 Z0.0 E0.026
G1 X-0.1267 Y0.508 Z0.0 E0.026
G1 X-0.1178 Y0.5102 Z0.0 E0.026
G1 X-0.1089 Y0.5122 Z0.0 E0.026
G1 X-0.0999 Y0.514 Z0.0 E0.026
G1 X-0.0909 Y0.5156 Z0.0 E0.026
G1 X-0.0819 Y0.5172 Z0.0 E0.026
G1 X-0.0729 Y0.5185 Z0.0 E0.026
G1 X-0.0638 Y0.5197 Z0.0 E0.026
G1 X-0.0547 Y0.5207 Z0.0 E0.026
G1 X-0.0456 Y0.5216 Z0.0 E0.026
G1 X-0.0365 Y0.5223 Z0.0 E0.026
G1 X-0.0274 Y0.5229 Z0.0 E0.026
G1 X-0.0183 Y0.5233 Z0.0 E0.026
G1 X-0.0091 Y0.5235 Z0.0 E0.026
G1 X-0.0 Y0.5236 Z0.0 E0.026
G1 X0.0091 Y0.5235 Z0.0 E0.026
G1 X0.0183 Y0.5233 Z0.0 E0.026
G1 X0.0274 Y0.5229 Z0.0 E0.026
G1 X0.0365 Y0.5223 Z0.0 E0.026
G1 X0.0456 Y0.5216 Z0.0 E0.026
G1 X0.0547 Y0.5207 Z0.0 E0.026
G1 X0.0638 Y0.5197 Z0.0 E0.026
G1 X0.0729 Y0.5185 Z0.0 E0.026
G1 X0.0819 Y0.5172 Z0.0 E0.026
G1 X0.0909 Y0.5156 Z0.0 E0.026
G1 X0.0999 Y0.514 Z0.0 E0.026
G1 X0.1089 Y0.5122 Z0.0 E0.026
G1 X0.1178 Y0.5102 Z0.0 E0.026
G1 X0.1267 Y0.508 Z0.0 E0.026
G1 X0.1355 Y0.5058 Z0.0 E0.026
G1 X0.1443 Y0.5033 Z0.0 E0.026
G1 X0.1531 Y0.5007 Z0.0 E0.026
G1 X0.1618 Y0.498 Z0.0 E0.026
G1 X0.1705 Y0.4951 Z0.0 E0.026
G1 X0.1791 Y0.492 Z0.0 E0.026
G1 X0.1876 Y0.4888 Z0.0 E0.026
G1 X0.1961 Y0.4855 Z0.0 E0.026
G1 X0.2046 Y0.482 Z0.0 E0.026
G1 X0.213 Y0.4783 Z0.0 E0.026
G1 X0.2213 Y0.4745 Z0.0 E0.026
G1 X0.2295 Y0.4706 Z0.0 E0.026
G1 X0.2377 Y0.4665 Z0.0 E0.026
G1 X0.2458 Y0.4623 Z0.0 E0.026
G1 X0.2538 Y0.4579 Z0.0 E0.026
G1 X0.2618 Y0.4534 Z0.0 E0.026
G1 X0.2697 Y0.4488 Z0.0 E0.026
G1 X0.2775 Y0.444 Z0.0 E0.026
G1 X0.2852 Y0.4391 Z0.0 E0.026
G1 X0.2928 Y0.4341 Z0.0 E0.026
G1 X0.3003 Y0.4289 Z0.0 E0.026
G1 X0.3078 Y0.4236 Z0.0 E0.026
G1 X0.3151 Y0.4182 Z0.0 E0.026
G1 X0.3224 Y0.4126 Z0.0 E0.026
G1 X0.3295 Y0.4069 Z0.0 E0.026
G1 X0.3366 Y0.4011 Z0.0 E0.026
G1 X0.3435 Y0.3952 Z0.0 E0.026
G1 X0.3504 Y0.3891 Z0.0 E0.026
G1 X0.3571 Y0.3829 Z0.0 E0.026
G1 X0.3637 Y0.3766 Z0.0 E0.026
G1 X0.3702 Y0.3702 Z0.0 E0.026
G1 X0.3766 Y0.3637 Z0.0 E0.026
G1 X0.3829 Y0.3571 Z0.0 E0.026
G1 X0.3891 Y0.3504 Z0.0 E0.026
G1 X0.3952 Y0.3435 Z0.0 E0.026
G1 X0.4011 Y0.3366 Z0.0 E0.026
G1 X0.4069 Y0.3295 Z0.0 E0.026
G1 X0.4126 Y0.3224 Z0.0 E0.026
G1 X0.4182 Y0.3151 Z0.0 E0.026
G1 X0.4236 Y0.3078 Z0.0 E0.026
G1 X0.4289 Y0.3003 Z0.0 E0.026
G1 X0.4341 Y0.2928 Z0.0 E0.026
G1 X0.4391 Y0.2852 Z0.0 E0.026
G1 X0.444 Y0.2775 Z0.0 E0.026
G1 X0.4488 Y0.2697 Z0.0 E0.026
G1 X0.4534 Y0.2618 Z0.0 E0.026
G1 X0.4579 Y0.2538 Z0.0 E0.026
G1 X0.4623 Y0.2458 Z0.0 E0.026
G1 X0.4665 Y0.2377 Z0.0 E0.026
G1 X0.4706 Y0.2295 Z0.0 E0.026
G1 X0.4745 Y0.2213 Z0.0 E0.026
G1 X0.4783 Y0.213 Z0.0 E0.026
G1 X0.482 Y0.2046 Z0.0 E0.026
G1 X0.4855 Y0.1961 Z0.0 E0.026
G1 X0.4888 Y0.1876 Z0.0 E0.026
G1 X0.492 Y0.1791 Z0.0 E0.026
G1 X0.4951 Y0.1705 Z0.0 E0.026
G1 X0.498 Y0.1618 Z0.0 E0.026
G1 X0.5007 Y0.1531 Z0.0 E0.026
G1 X0.5033 Y0.1443 Z0.0 E0.026
G1 X0.5058 Y0.1355 Z0.0 E0.026
G1 X0.508 Y0.1267 Z0.0 E0.026
G1 X0.5102 Y0.1178 Z0.0 E0.026
G1 X0.5122 Y0.1089 Z0.0 E0.026
G1 X0.514 Y0.0999 Z0.0 E0.026
G1 X0.5156 Y0.0909 Z0.0 E0.026
G1 X0.5172 Y0.0819 Z0.0 E0.026
G1 X0.5185 Y0.0729 Z0.0 E0.026
G1 X0.5197 Y0.0638 Z0.0 E0.026
G1 X0.5207 Y0.0547 Z0.0 E0.026
G1 X0.5216 Y0.0456 Z0.0 E0.026
G1 X0.5223 Y0.0365 Z0.0 E0.026
G1 X0.5229 Y0.0274 Z0.0 E0.026
G1 X0.5233 Y0.0183 Z0.0 E0.026
G1 X0.5235 Y0.0091 Z0.0 E0.026
G1 Z0.2
G1 X0.5236 Y0.0 Z0.0 E0.026
G1 X0.5235 Y-0.0091 Z0.0 E0.026
G1 X0.5233 Y-0.0183 Z0.0 E0.026
G1 X0.5229 Y-0.0274 Z0.0 E0.026
G1 X0.5223 Y-0.0365 Z0.0 E0.026
G1 X0.5216 Y-0.0456 Z0.0 E0.026
G1 X0.5207 Y-0.0547 Z0.0 E0.026
G1 X0.5197 Y-0.0638 Z0.0 E0.026
G1 X0.5185 Y-0.0729 Z0.0 E0.026
G1 X0.5172 Y-0.0819 Z0.0 E0.026
G1 X0.5156 Y-0.0909 Z0.0 E0.026
G1 X0.514 Y-0.0999 Z0.0 E0.026
G1 X0.5122 Y-0.1089 Z0.0 E0.026
G1 X0.5102 Y-0.1178 Z0.0 E0.026
G1 X0.508 Y-0.1267 Z0.0 E0.026
G1 X0.5058 Y-0.1355 Z0.0 E0.026
G1 X0.5033 Y-0.1443 Z0.0 E0.026
G1 X0.5007 Y-0.1531 Z0.0 E0.026
G1 X0.498 Y-0.1618 Z0.0 E0.026
G1 X0.4951 Y-0.1705 Z0.0 E0.026
G1 X0.492 Y-0.1791 Z0.0 E0.026
G1 X0.4888 Y-0.1876 Z0.0 E0.026
G1 X0.4855 Y-0.1961 Z0.0 E0.026
G1 X0.482 Y-0.2046 Z0.0 E0.026
G1 X0.4783 Y-0.213 Z0.0 E0.026
G1 X0.4745 Y-0.2213 Z0.0 E0.026
G1 X0.4706 Y-0.2295 Z0.0 E0.026
G1 X0.4665 Y-0.2377 Z0.0 E0.026
G1 X0.4623 Y-0.2458 Z0.0 E0.026
G1 X0.4579 Y-0.2538 Z0.0 E0.026
G1 X-45.0 Y-25.9808 Z-0.0 E2.598
G1 X45.0 Y-25.9808 Z0.0 E2.598
G1 X-0.0 Y51.9615 Z0.0 E2.598
G1 X0.4534 Y-0.2618 Z0.0 E0.026
G1 X0.4488 Y-0.2697 Z0.0 E0.026
G1 X0.444 Y-0.2775 Z0.0 E0.026
G1 X0.4391 Y-0.2852 Z0.0 E0.026
G1 X0.4341 Y-0.2928 Z0.0 E0.026
G1 X0.4289 Y-0.3003 Z0.0 E0.026
G1 X0.4236 Y-0.3078 Z0.0 E0.026
G1 X0.4182 Y-0.3151 Z0.0 E0.026
G1 X0.4126 Y-0.3224 Z0.0 E0.026
G1 X0.4069 Y-0.3295 Z0.0 E0.026
G1 X0.4011 Y-0.3366 Z0.0 E0.026
G1 X0.3952 Y-0.3435 Z0.0 E0.026
G1 X0.3891 Y-0.3504 Z0.0 E0.026
G1 X0.3829 Y-0.3571 Z0.0 E0.026
G1 X0.3766 Y-0.3637 Z0.0 E0.026
G1 X0.3702 Y-0.3702 Z0.0 E0.026
G1 X0.3637 Y-0.3766 Z0.0 E0.026
G1 X0.3571 Y-0.3829 Z0.0 E0.026
G1 X0.3504 Y-0.3891 Z0.0 E0.026
G1 X0.3435 Y-0.3952 Z0.0 E0.026
G1 X0.3366 Y-0.4011 Z0.0 E0.026
G1 X0.3295 Y-0.4069 Z0.0 E0.026
G1 X0.3224 Y-0.4126 Z0.0 E0.026
G1 X0.3151 Y-0.4182 Z0.0 E0.026
G1 X0.3078 Y-0.4236 Z0.0 E0.026
G1 X0.3003 Y-0.4289 Z0.0 E0.026
G1 X0.2928 Y-0.4341 Z0.0 E0.026
G1 X0.2852 Y-0.4391 Z0.0 E0.026
G1 X0.2775 Y-0.444 Z0.0 E0.026
G1 X0.2697 Y-0.4488 Z0.0 E0.026
G1 X0.2618 Y-0.4534 Z0.0 E0.026
G1 X0.2538 Y-0.4579 Z0.0 E0.026
G1 X0.2458 Y-0.4623 Z0.0 E0.026
G1 X0.2377 Y-0.4665 Z0.0 E0.026
G1 X0.2295 Y-0.4706 Z0.0 E0.026
G1 X0.2213 Y-0.4745 Z0.0 E0.026
G1 X0.213 Y-0.4783 Z0.0 E0.026
G1 X0.2046 Y-0.482 Z0.0 E0.026
G1 X0.1961 Y-0.4855 Z0.0 E0.026
G1 X0.1876 Y-0.4888 Z0.0 E0.026
G1 X0.1791 Y-0.492 Z0.0 E0.026
G1 X0.1705 Y-0.4951 Z0.0 E0.026
G1 X0.1618 Y-0.498 Z0.0 E0.026
G1 X0.1531 Y-0.5007 Z0.0 E0.026
G1 X0.1443 Y-0.5033 Z0.0 E0.026
G1 X0.1355 Y-0.5058 Z0.0 E0.026
G1 X0.1267 Y-0.508 Z0.0 E0.026
G1 X0.1178 Y-0.5102 Z0.0 E0.026
G1 X0.1089 Y-0.5122 Z0.0 E0.026
G1 X0.0999 Y-0.514 Z0.0 E0.026
G1 X0.0909 Y-0.5156 Z0.0 E0.026
G1 X0.0819 Y-0.5172 Z0.0 E0.026
G1 X0.0729 Y-0.5185 Z0.0 E0.026
G1 X0.0638 Y-0.5197 Z0.0 E0.026
G1 X0.0547 Y-0.5207 Z0.0 E0.026
G1 X0.0456 Y-0.5216 Z0.0 E0.026
G1 X0.0365 Y-0.5223 Z0.0 E0.026
G1 X0.0274 Y-0.5229 Z0.0 E0.026
G1 X0.0183 Y-0.5233 Z0.0 E0.026
G1 X0.0091 Y-0.5235 Z0.0 E0.026
G1 X0.0 Y-0.5236 Z0.0 E0.026
G1 X-0.0091 Y-0.5235 Z0.0 E0.026
G1 X-0.0183 Y-0.5233 Z0.0 E0.026
G1 X-0.0274 Y-0.5229 Z0.0 E0.026
G1 X-0.0365 Y-0.5223 Z0.0 E0.026
G1 X-0.0456 Y-0.5216 Z0.0 E0.026
G1 X-0.0547 Y-0.5207 Z0.0 E0.026
G1 X-0.0638 Y-0.5197 Z0.0 E0.026
G1 X-0.0729 Y-0.5185 Z0.0 E0.026
G1 X-0.0819 Y-0.5172 Z0.0 E0.026
G1 X-0.0909 Y-0.5156 Z0.0 E0.026
G1 X-0.0999 Y-0.514 Z0.0 E0.026
G1 X-0.1089 Y-0.5122 Z0.0 E0.026
G1 X-0.1178 Y-0.5102 Z0.0 E0.026
G1 X-0.1267 Y-0.508 Z0.0 E0.026
G1 X-0.1355 Y-0.5058 Z0.0 E0.026
G1 X-0.1443 Y-0.5033 Z0.0 E0.026
G1 X-0.1531 Y-0.5007 Z0.0 E0.026
G1 X-0.1618 Y-0.498 Z0.0 E0.026
G1 X-0.1705 Y-0.4951 Z0.0 E0.026
G1 X-0.1791 Y-0.492 Z0.0 E0.026
G1 X-0.1876 Y-0.4888 Z0.0 E0.026
G1 X-0.1961 Y-0.4855 Z0.0 E0.026
G1 X-0.2046 Y-0.482 Z0.0 E0.026
G1 X-0.213 Y-0.4783 Z0.0 E0.026
G1 X-0.2213 Y-0.4745 Z0.0 E0.026
G1 X-0.2295 Y-0.4706 Z0.0 E0.026
G1 X-0.2377 Y-0.4665 Z0.0 E0.026
G1 X-0.2458 Y-0.4623 Z0.0 E0.026
G1 X-0.2538 Y-0.4579 Z0.0 E0.026
G1 X-0.2618 Y-0.4534 Z0.0 E0.026
G1 X-0.2697 Y-0.4488 Z0.0 E0.026
G1 X-0.2775 Y-0.444 Z0.0 E0.026
G1 X-0.2852 Y-0.4391 Z0.0 E0.026
G1 X-0.2928 Y-0.4341 Z0.0 E0.026
G1 X-0.3003 Y-0.4289 Z0.0 E0.026
G1 X-0.3078 Y-0.4236 Z0.0 E0.026
G1 X-0.3151 Y-0.4182 Z0.0 E0.026
G1 X-0.3224 Y-0.4126 Z0.0 E0.026
G1 X-0.3295 Y-0.4069 Z0.0 E0.026
G1 X-0.3366 Y-0.4011 Z0.0 E0.026
G1 X-0.3435 Y-0.3952 Z0.0 E0.026
G1 X-0.3504 Y-0.3891 Z0.0 E0.026
G1 X-0.3571 Y-0.3829 Z0.0 E0.026
G1 X-0.3637 Y-0.3766 Z0.0 E0.026
G1 X-0.3702 Y-0.3702 Z0.0 E0.026
G1 X-0.3766 Y-0.3637 Z0.0 E0.026
G1 X-0.3829 Y-0.3571 Z0.0 E0.026
G1 X-0.3891 Y-0.3504 Z0.0 E0.026
G1 X-0.3952 Y-0.3435 Z0.0 E0.026
G1 X-0.4011 Y-0.3366 Z0.0 E0.026
G1 X-0.4069 Y-0.3295 Z0.0 E0.026
G1 X-0.4126 Y-0.3224 Z0.0 E0.026
G1 X-0.4182 Y-0.3151 Z0.0 E0.026
G1 X-0.4236 Y-0.3078 Z0.0 E0.026
G1 X-0.4289 Y-0.3003 Z0.0 E0.026
G1 X-0.4341 Y-0.2928 Z0.0 E0.026
G1 X-0.4391 Y-0.2852 Z0.0 E0.026
G1 X-0.444 Y-0.2775 Z0.0 E0.026
G1 X-0.4488 Y-0.2697 Z0.0 E0.026
G1 X-0.4534 Y-0.2618 Z0.0 E0.026
G1 X-0.4579 Y-0.2538 Z0.0 E0.026
G1 X-0.4623 Y-0.2458 Z0.0 E0.026
G1 X-0.4665 Y-0.2377 Z0.0 E0.026
G1 X-0.4706 Y-0.2295 Z0.0 E0.026
G1 X-0.4745 Y-0.2213 Z0.0 E0.026
G1 X-0.4783 Y-0.213 Z0.0 E0.026
G1 X-0.482 Y-0.2046 Z0.0 E0.026
G1 X-0.4855 Y-0.1961 Z0.0 E0.026
G1 X-0.4888 Y-0.1876 Z0.0 E0.026
G1 X-0.492 Y-0.1791 Z0.0 E0.026
G1 X-0.4951 Y-0.1705 Z0.0 E0.026
G1 X-0.498 Y-0.1618 Z0.0 E0.026
G1 X-0.5007 Y-0.1531 Z0.0 E0.026
G1 X-0.5033 Y-0.1443 Z0.0 E0.026
G1 X-0.5058 Y-0.1355 Z0.0 E0.026
G1 X-0.508 Y-0.1267 Z0.0 E0.026
G1 X-0.5102 Y-0.1178 Z0.0 E0.026
G1 X-0.5122 Y-0.1089 Z0.0 E0.026
G1 X-0.514 Y-0.0999 Z0.0 E0.026
G1 X-0.5156 Y-0.0909 Z0.0 E0.026
G1 X-0.5172 Y-0.0819 Z0.0 E0.026
G1 X-0.5185 Y-0.0729 Z0.0 E0.026
G1 X-0.5197 Y-0.0638 Z0.0 E0.026
G1 X-0.5207 Y-0.0547 Z0.0 E0.026
G1 X-0.5216 Y-0.0456 Z0.0 E0.026
G1 X-0.5223 Y-0.0365 Z0.0 E0.026
G1 X-0.5229 Y-0.0274 Z0.0 E0.026
G1 X-0.5233 Y-0.0183 Z0.0 E0.026
G1 X-0.5235 Y-0.0091 Z0.0 E0.026
G1 X-0.5236 Y-0.0 Z0.0 E0.026
G1 X-0.5235 Y0.0091 Z0.0 E0.026
G1 X-0.5233 Y0.0183 Z0.0 E0.026
G1 X-0.5229 Y0.0274 Z0.0 E0.026
G1 X-0.5223 Y0.0365 Z0.0 E0.026
G1 X-0.5216 Y0.0456 Z0.0 E0.026
G1 X-0.5207 Y0.0547 Z0.0 E0.026
G1 X-0.5197 Y0.0638 Z0.0 E0.026
G1 X-0.5185 Y0.0729 Z0.0 E0.026
G1 X-0.5172 Y0.0819 Z0.0 E0.026
G1 X-0.5156 Y0.0909 Z0.0 E0.026
G1 X-0.514 Y0.0999 Z0.0 E0.026
G1 X-0.5122 Y0.1089 Z0.0 E0.026
G1 X-0.5102 Y0.1178 Z0.0 E0.026
G1 X-0.508 Y0.1267 Z0.0 E0.026
G1 X-0.5058 Y0.1355 Z0.0 E0.026
G1 X-0.5033 Y0.1443 Z0.0 E0.026
G1 X-0.5007 Y0.1531 Z0.0 E0.026
G1 X-0.498 Y0.1618 Z0.0 E0.026
G1 X-0.4951 Y0.1705 Z0.0 E0.026
G1 X-0.492 Y0.1791 Z0.0 E0.026
G1 X-0.4888 Y0.1876 Z0.0 E0.026
G1 X-0.4855 Y0.1961 Z0.0 E0.026
G1 X-0.482 Y0.2046 Z0.0 E0.026
G1 X-0.4783 Y0.213 Z0.0 E0.026
G1 X-0.4745 Y0.2213 Z0.0 E0.026
G1 X-0.4706 Y0.2295 Z0.0 E0.026
G1 X-0.4665 Y0.2377 Z0.0 E0.026
G1 X-0.4623 Y0.2458 Z0.0 E0.026
G1 X-0.4579 Y0.2538 Z0.0 E0.026
G1 X-0.4534 Y0.2618 Z0.0 E0.026
G1 X-0.4488 Y0.2697 Z0.0 E0.026
G1 X-0.444 Y0.2775 Z0.0 E0.026
G1 X-0.4391 Y0.2852 Z0.0 E0.026
G1 X-0.4341 Y0.2928 Z0.0 E0.026
G1 X-0.4289 Y0.3003 Z0.0 E0.026
G1 X-0.4236 Y0.3078 Z0.0 E0.026
G1 X-0.4182 Y0.3151 Z0.0 E0.026
G1 X-0.4126 Y0.3224 Z0.0 E0.026
G1 X-0.4069 Y0.3295 Z0.0 E0.026
G1 X-0.4011 Y0.3366 Z0.0 E0.026
G1 X-0.3952 Y0.3435 Z0.0 E0.026
G1 X-0.3891 Y0.3504 Z0.0 E0.026
G1 X-0.3829 Y0.3571 Z0.0 E0.026
G1 X-0.3766 Y0.3637 Z0.0 E0.026
G1 X-0.3702 Y0.3702 Z0.0 E0.026
G1 X-0.3637 Y0.3766 Z0.0 E0.026
G1 X-0.3571 Y0.3829 Z0.0 E0.026
G1 X-0.3504 Y0.3891 Z0.0 E0.026
G1 X-0.3435 Y0.3952 Z0.0 E0.026
G1 X-0.3366 Y0.4011 Z0.0 E0.026
G1 X-0.3295 Y0.4069 Z0.0 E0.026
G1 X-0.3224 Y0.4126 Z0.0 E0.026
G1 X-0.3151 Y0.4182 Z0.0 E0.026
G1 X-0.3078 Y0.4236 Z0.0 E0.026
G1 X-0.3003 Y0.4289 Z0.0 E0.026
G1 X-0.2928 Y0.4341 Z0.0 E0.026
G1 X-0.2852 Y0.4391 Z0.0 E0.026
G1 X-0.2775 Y0.444 Z0.0 E0.026
G1 X-0.2697 Y0.4488 Z0.0 E0.026
G1 X-0.2618 Y0.4534 Z0.0 E0.026
G1 X-0.2538 Y0.4579 Z0.0 E0.026
G1 X-0.2458 Y0.4623 Z0.0 E0.026
G1 X-0.2377 Y0.4665 Z0.0 E0.026
G1 X-0.2295 Y0.4706 Z0.0 E0.026
G1 X-0.2213 Y0.4745 Z0.0 E0.026
G1 X-0.213 Y0.4783 Z0.0 E0.026
G1 X-0.2046 Y0.482 Z0.0 E0.026
G1 X-0.1961 Y0.4855 Z0.0 E0.026
G1 X-0.1876 Y0.4888 Z0.0 E0.026
G1 X-0.1791 Y0.492 Z0.0 E0.026
G1 X-0.1705 Y0.4951 Z0.0 E0.026
G1 X-0.1618 Y0.498 Z0.0 E0.026
G1 X-0.1531 Y0.5007 Z0.0 E0.026
G1 X-0.1443 Y0.5033 Z0.0 E0.026
G1 X-0.1355 Y0.5058 Z0.0 E0.026
G1 X-0.1267 Y0.508 Z0.0 E0.026
G1 X-0.1178 Y0.5102 Z0.0 E0.026
G1 X-0.1089 Y0.5122 Z0.0 E0.026
G1 X-0.0999 Y0.514 Z0.0 E0.026
G1 X-0.0909 Y0.5156 Z0.0 E0.026
G1 X-0.0819 Y0.5172 Z0.0 E0.026
G1 X-0.0729 Y0.5185 Z0.0 E0.026
G1 X-0.0638 Y0.5197 Z0.0 E0.026
G1 X-0.0547 Y0.5207 Z0.0 E0.026
G1 X-0.0456 Y0.5216 Z0.0 E0.026
G1 X-0.0365 Y0.5223 Z0.0 E0.026
G1 X-0.0274 Y0.5229 Z0.0 E0.026
G1 X-0.0183 Y0.5233 Z0.0 E0.026
G1 X-0.0091 Y0.5235 Z0.0 E0.026
G1 X-0.0 Y0.5236 Z0.0 E0.026
G1 X0.0091 Y0.5235 Z0.0 E0.026
G1 X0.0183 Y0.5233 Z0.0 E0.026
G1 X0.0274 Y0.5229 Z0.0 E0.026
G1 X0.0365 Y0.5223 Z0.0 E0.026
G1 X0.0456 Y0.5216 Z0.0 E0.026
G1 X0.0547 Y0.5207 Z0.0 E0.026
G1 X0.0638 Y0.5197 Z0.0 E0.026
G1 X0.0729 Y0.5185 Z0.0 E0.026
G1 X0.0819 Y0.5172 Z0.0 E0.026
G1 X0.0909 Y0.5156 Z0.0 E0.026
G1 X0.0999 Y0.514 Z0.0 E0.026
G1 X0.1089 Y0.5122 Z0.0 E0.026
G1 X0.1178 Y0.5102 Z0.0 E0.026
G1 X0.1267 Y0.508 Z0.0 E0.026
G1 X0.1355 Y0.5058 Z0.0 E0.026
G1 X0.1443 Y0.5033 Z0.0 E0.026
G1 X0.1531 Y0.5007 Z0.0 E0.026
G1 X0.1618 Y0.498 Z0.0 E0.026
G1 X0.1705 Y0.4951 Z0.0 E0.026
G1 X0.1791 Y0.492 Z0.0 E0.026
G1 X0.1876 Y0.4888 Z0.0 E0.026
G1 X0.1961 Y0.4855 Z0.0 E0.026
G1 X0.2046 Y0.482 Z0.0 E0.026
G1 X0.213 Y0.4783 Z0.0 E0.026
G1 X0.2213 Y0.4745 Z0.0 E0.026
G1 X0.2295 Y0.4706 Z0.0 E0.026
G1 X0.2377 Y0.4665 Z0.0 E0.026
G1 X0.2458 Y0.4623 Z0.0 E0.026
G1 X0.2538 Y0.4579 Z0.0 E0.026
G1 X0.2618 Y0.4534 Z0.0 E0.026
G1 X0.2697 Y0.4488 Z0.0 E0.026
G1 X0.2775 Y0.444 Z0.0 E0.026
G1 X0.2852 Y0.4391 Z0.0 E0.026
G1 X0.2928 Y0.4341 Z0.0 E0.026
G1 X0.3003 Y0.4289 Z0.0 E0.026
G1 X0.3078 Y0.4236 Z0.0 E0.026
G1 X0.3151 Y0.4182 Z0.0 E0.026
G1 X0.3224 Y0.4126 Z0.0 E0.026
G1 X0.3295 Y0.4069 Z0.0 E0.026
G1 X0.3366 Y0.4011 Z0.0 E0.026
G1 X0.3435 Y0.3952 Z0.0 E0.026
G1 X0.3504 Y0.3891 Z0.0 E0.026
G1 X0.3571 Y0.3829 Z0.0 E0.026
G1 X0.3637 Y0.3766 Z0.0 E0.026
G1 X0.3702 Y0.3702 Z0.0 E0.026
G1 X0.3766 Y0.3637 Z0.0 E0.026
G1 X0.3829 Y0.3571 Z0.0 E0.026
G1 X0.3891 Y0.3504 Z0.0 E0.026
G1 X0.3952 Y0.3435 Z0.0 E0.026
G1 X0.4011 Y0.3366 Z0.0 E0.026
G1 X0.4069 Y0.3295 Z0.0 E0.026
G1 X0.4126 Y0.3224 Z0.0 E0.026
G1 X0.4182 Y0.3151 Z0.0 E0.026
G1 X0.4236 Y0.3078 Z0.0 E0.026
G1 X0.4289 Y0.3003 Z0.0 E0.026
G1 X0.4341 Y0.2928 Z0.0 E0.026
G1 X0.4391 Y0.2852 Z0.0 E0.026
G1 X0.444 Y0.2775 Z0.0 E0.026
G1 X0.4488 Y0.2697 Z0.0 E0.026
G1 X0.4534 Y0.2618 Z0.0 E0.026
G1 X0.4579 Y0.2538 Z0.0 E0.026
G1 X0.4623 Y0.2458 Z0.0 E0.026
G1 X0.4665 Y0.2377 Z0.0 E0.026
G1 X0.4706 Y0.2295 Z0.0 E0.026
G1 X0.4745 Y0.2213 Z0.0 E0.026
G1 X0.4783 Y0.213 Z0.0 E0.026
G1 X0.482 Y0.2046 Z0.0 E0.026
G1 X0.4855 Y0.1961 Z0.0 E0.026
G1 X0.4888 Y0.1876 Z0.0 E0.026
G1 X0.492 Y0.1791 Z0.0 E0.026
G1 X0.4951 Y0.1705 Z0.0 E0.026
G1 X0.498 Y0.1618 Z0.0 E0.026
G1 X0.5007 Y0.1531 Z0.0 E0.026
G1 X0.5033 Y0.1443 Z0.0 E0.026
G1 X0.5058 Y0.1355 Z0.0 E0.026
G1 X0.508 Y0.1267 Z0.0 E0.026
G1 X0.5102 Y0.1178 Z0.0 E0.026
G1 X0.5122 Y0.1089 Z0.0 E0.026
G1 X0.514 Y0.0999 Z0.0 E0.026
G1 X0.5156 Y0.0909 Z0.0 E0.026
G1 X0.5172 Y0.0819 Z0.0 E0.026
G1 X0.5185 Y0.0729 Z0.0 E0.026
G1 X0.5197 Y0.0638 Z0.0 E0.026
G1 X0.5207 Y0.0547 Z0.0 E0.026
G1 X0.5216 Y0.0456 Z0.0 E0.026
G1 X0.5223 Y0.0365 Z0.0 E0.026
G1 X0.5229 Y0.0274 Z0.0 E0.026
G1 X0.5233 Y0.0183 Z0.0 E0.026
G1 X0.5235 Y0.0091 Z0.0 E0.026
G1 Z0.2
G1 X0.5236 Y0.0 Z0.0 E0.026
G1 X0.5235 Y-0.0091 Z0.0 E0.026
G1 X0.5233 Y-0.0183 Z0.0 E0.026
G1 X0.5229 Y-0.0274 Z0.0 E0.026
G1 X0.5223 Y-0.0365 Z0.0 E0.026
G1 X0.5216 Y-0.0456 Z0.0 E0.026
G1 X0.5207 Y-0.0547 Z0.0 E0.026
G1 X0.5197 Y-0.0638 Z0.0 E0.026
G1 X0.5185 Y-0.0729 Z0.0 E0.026
G1 X0.5172 Y-0.0819 Z0.0 E0.026
G1 X0.5156 Y-0.0909 Z0.0 E0.026
G1 X0.514 Y-0.0999 Z0.0 E0.026
G1 X0.5122 Y-0.1089 Z0.0 E0.026
G1 X0.5102 Y-0.1178 Z0.0 E0.026
G1 X0.508 Y-0.1267 Z0.0 E0.026
G1 X0.5058 Y-0.1355 Z0.0 E0.026
G1 X0.5033 Y-0.1443 Z0.0 E0.026
G1 X0.5007 Y-0.1531 Z0.0 E0.026
G1 X0.498 Y-0.1618 Z0.0 E0.026
G1 X0.4951 Y-0.1705 Z0.0 E0.026
G1 X0.492 Y-0.1791 Z0.0 E0.026
G1 X0.4888 Y-0.1876 Z0.0 E0.026
G1 X0.4855 Y-0.1961 Z0.0 E0.026
G1 X0.482 Y-0.2046 Z0.0 E0.026
G1 X0.4783 Y-0.213 Z0.0 E0.026
G1 X0.4745 Y-0.2213 Z0.0 E0.026
G1 X0.4706 Y-0.2295 Z0.0 E0.026
G1 X0.4665 Y-0.2377 Z0.0 E0.026
G1 X0.4623 Y-0.2458 Z0.0 E0.026
G1 X0.4579 Y-0.2538 Z0.0 E0.026
G1 X0.4534 Y-0.2618 Z0.0 E0.026
G1 X0.4488 Y-0.2697 Z0.0 E0.026
G1 X0.444 Y-0.2775 Z0.0 E0.026
G1 X0.4391 Y-0.2852 Z0.0 E0.026
G1 X0.4341 Y-0.2928 Z0.0 E0.026
G1 X0.4289 Y-0.3003 Z0.0 E0.026
G1 X0.4236 Y-0.3078 Z0.0 E0.026
G1 X0.4182 Y-0.3151 Z0.0 E0.026
G1 X0.4126 Y-0.3224 Z0.0 E0.026
G1 X0.4069 Y-0.3295 Z0.0 E0.026
G1 X0.4011 Y-0.3366 Z0.0 E0.026
G1 X0.3952 Y-0.3435 Z0.0 E0.026
G1 X0.3891 Y-0.3504 Z0.0 E0.026
G1 X0.3829 Y-0.3571 Z0.0 E0.026
G1 X0.3766 Y-0.3637 Z0.0 E0.026
G1 X0.3702 Y-0.3702 Z0.0 E0.026
G1 X0.3637 Y-0.3766 Z0.0 E0.026
G1 X0.3571 Y-0.3829 Z0.0 E0.026
G1 X0.3504 Y-0.3891 Z0.0 E0.026
G1 X0.3435 Y-0.3952 Z0.0 E0.026
G1 X0.3366 Y-0.4011 Z0.0 E0.026
G1 X0.3295 Y-0.4069 Z0.0 E0.026
G1 X0.3224 Y-0.4126 Z0.0 E0.026
G1 X0.3151 Y-0.4182 Z0.0 E0.026
G1 X0.3078 Y-0.4236 Z0.0 E0.026
G1 X0.3003 Y-0.4289 Z0.0 E0.026
G1 X0.2928 Y-0.4341 Z0.0 E0.026
G1 X0.2852 Y-0.4391 Z0.0 E0.026
G1 X0.2775 Y-0.444 Z0.0 E0.026
G1 X0.2697 Y-0.4488 Z0.0 E0.026
G1 X0.2618 Y-0.4534 Z0.0 E0.026
G1 X0.2538 Y-0.4579 Z0.0 E0.026
G1 X0.2458 Y-0.4623 Z0.0 E0.026
G1 X0.2377 Y-0.4665 Z0.0 E0.026
G1 X0.2295 Y-0.4706 Z0.0 E0.026
G1 X0.2213 Y-0.4745 Z0.0 E0.026
G1 X0.213 Y-0.4783 Z0.0 E0.026
G1 X0.2046 Y-0.482 Z0.0 E0.026
G1 X0.1961 Y-0.4855 Z0.0 E0.026
G1 X0.1876 Y-0.4888 Z0.0 E0.026
G1 X0.1791 Y-0.492 Z0.0 E0.026
G1 X0.1705 Y-0.4951 Z0.0 E0.026
G1 X0.1618 Y-0.498 Z0.0 E0.026
G1 X0.1531 Y-0.5007 Z0.0 E0.026
G1 X0.1443 Y-0.5033 Z0.0 E0.026
G1 X0.1355 Y-0.5058 Z0.0 E0.026
G1 X0.1267 Y-0.508 Z0.0 E0.026
G1 X0.1178 Y-0.5102 Z0.0 E0.026
G1 X0.1089 Y-0.5122 Z0.0 E0.026
G1 X0.0999 Y-0.514 Z0.0 E0.026
G1 X0.0909 Y-0.5156 Z0.0 E0.026
G1 X0.0819 Y-0.5172 Z0.0 E0.026
G1 X0.0729 Y-0.5185 Z0.0 E0.026
G1 X0.0638 Y-0.5197 Z0.0 E0.026
G1 X0.0547 Y-0.5207 Z0.0 E0.026
G1 X0.0456 Y-0.5216 Z0.0 E0.026
G1 X0.0365 Y-0.5223 Z0.0 E0.026
G1 X0.0274 Y-0.5229 Z0.0 E0.026
G1 X0.0183 Y-0.5233 Z0.0 E0.026
G1 X0.0091 Y-0.5235 Z0.0 E0.026
G1 X0.0 Y-0.5236 Z0.0 E0.026
G1 X-0.0091 Y-0.5235 Z0.0 E0.026
G1 X-0.0183 Y-0.5233 Z0.0 E0.026
G1 X-0.0274 Y-0.5229 Z0.0 E0.026
G1 X-0.0365 Y-0.5223 Z0.0 E0.026
G1 X-0.0456 Y-0.5216 Z0.0 E0.026
G1 X-0.0547 Y-0.5207 Z0.0 E0.026
G1 X-0.0638 Y-0.5197 Z0.0 E0.026
G1 X-0.0729 Y-0.5185 Z0.0 E0.026
G1 X-0.0819 Y-0.5172 Z0.0 E0.026
G1 X-0.0909 Y-0.5156 Z0.0 E0.026
G1 X-0.0999 Y-0.514 Z0.0 E0.026
G1 X-0.1089 Y-0.5122 Z0.0 E0.026
G1 X-0.1178 Y-0.5102 Z0.0 E0.026
G1 X-0.1267 Y-0.508 Z0.0 E0.026
G1 X-0.1355 Y-0.5058 Z0.0 E0.026
G1 X-0.1443 Y-0.5033 Z0.0 E0.026
G1 X-0.1531 Y-0.5007 Z0.0 E0.026
G1 X-0.1618 Y-0.498 Z0.0 E0.026
G1 X-0.1705 Y-0.4951 Z0.0 E0.026
G1 X-0.1791 Y-0.492 Z0.0 E0.026
G1 X-0.1876 Y-0.4888 Z0.0 E0.026
G1 X-0.1961 Y-0.4855 Z0.0 E0.026
G1 X-0.2046 Y-0.482 Z0.0 E0.026
G1 X-0.213 Y-0.4783 Z0.0 E0.026
G1 X-0.2213 Y-0.4745 Z0.0 E0.026
G1 X-0.2295 Y-0.4706 Z0.0 E0.026
G1 X-0.2377 Y-0.4665 Z0.0 E0.026
G1 X-0.2458 Y-0.4623 Z0.0 E0.026
G1 X-0.2538 Y-0.4579 Z0.0 E0.026
G1 X-0.2618 Y-0.4534 Z0.0 E0.026
G1 X-0.2697 Y-0.4488 Z0.0 E0.026
G1 X-0.2775 Y-0.444 Z0.0 E0.026
G1 X-0.2852 Y-0.4391 Z0.0 E0.026
G1 X-0.2928 Y-0.4341 Z0.0 E0.026
G1 X-0.3003 Y-0.4289 Z0.0 E0.026
G1 X-0.3078 Y-0.4236 Z0.0 E0.026
G1 X-0.3151 Y-0.4182 Z0.0 E0.026
G1 X-0.3224 Y-0.4126 Z0.0 E0.026
G1 X-0.3295 Y-0.4069 Z0.0 E0.026
G1 X-0.3366 Y-0.4011 Z0.0 E0.026
G1 X-0.3435 Y-0.3952 Z0.0 E0.026
G1 X-0.3504 Y-0.3891 Z0.0 E0.026
G1 X-0.3571 Y-0.3829 Z0.0 E0.026
G1 X-0.3637 Y-0.3766 Z0.0 E0.026
G1 X-0.3702 Y-0.3702 Z0.0 E0.026
G1 X-0.3766 Y-0.3637 Z0.0 E0.026
G1 X-0.3829 Y-0.3571 Z0.0 E0.026
G1 X-0.3891 Y-0.3504 Z0.0 E0.026
G1 X-0.3952 Y-0.3435 Z0.0 E0.026
G1 X-0.4011 Y-0.3366 Z0.0 E0.026
G1 X-0.4069 Y-0.3295 Z0.0 E0.026
G1 X-0.4126 Y-0.3224 Z0.0 E0.026
G1 X-0.4182 Y-0.3151 Z0.0 E0.026
G1 X-0.4236 Y-0.3078 Z0.0 E0.026
G1 X-0.4289 Y-0.3003 Z0.0 E0.026
G1 X-0.4341 Y-0.2928 Z0.0 E0.026
G1 X-0.4391 Y-0.2852 Z0.0 E0.026
G1 X-0.444 Y-0.2775 Z0.0 E0.026
G1 X-0.4488 Y-0.2697 Z0.0 E0.026
G1 X-0.4534 Y-0.2618 Z0.0 E0.026
G1 X-0.4579 Y-0.2538 Z0.0 E0.026
G1 X-0.4623 Y-0.2458 Z0.0 E0.026
G1 X-0.4665 Y-0.2377 Z0.0 E0.026
G1 X-0.4706 Y-0.2295 Z0.0 E0.026
G1 X-0.4745 Y-0.2213 Z0.0 E0.026
G1 X-0.4783 Y-0.213 Z0.0 E0.026
G1 X-0.482 Y-0.2046 Z0.0 E0.026
G1 X-0.4855 Y-0.1961 Z0.0 E0.026
G1 X-0.4888 Y-0.1876 Z0.0 E0.026
G1 X-0.492 Y-0.1791 Z0.0 E0.026
G1 X-0.4951 Y-0.1705 Z0.0 E0.026
G1 X-0.498 Y-0.1618 Z0.0 E0.026
G1 X-0.5007 Y-0.1531 Z0.0 E0.026
G1 X-0.5033 Y-0.1443 Z0.0 E0.026
G1 X-0.5058 Y-0.1355 Z0.0 E0.026
G1 X-0.508 Y-0.1267 Z0.0 E0.026
G1 X-0.5102 Y-0.1178 Z0.0 E0.026
G1 X-0.5122 Y-0.1089 Z0.0 E0.026
G1 X-0.514 Y-0.0999 Z0.0 E0.026
G1 X-0.5156 Y-0.0909 Z0.0 E0.026
G1 X-0.5172 Y-0.0819 Z0.0 E0.026
G1 X-0.5185 Y-0.0729 Z0.0 E0.026
G1 X-0.5197 Y-0.0638 Z0.0 E0.026
G1 X-0.5207 Y-0.0547 Z0.0 E0.026
G1 X-0.5216 Y-0.0456 Z0.0 E0.026
G1 X-0.5223 Y-0.0365 Z0.0 E0.026
G1 X-0.5229 Y-0.0274 Z0.0 E0.026
G1 X-0.5233 Y-0.0183 Z0.0 E0.026
G1 X-0.5235 Y-0.0091 Z0.0 E0.026
G1 X-0.5236 Y-0.0 Z0.0 E0.026
G1 X-0.5235 Y0.0091 Z0.0 E0.026
G1 X-0.5233 Y0.0183 Z0.0 E0.026
G1 X-0.5229 Y0.0274 Z0.0 E0.026
G1 X-0.5223 Y0.0365 Z0.0 E0.026
G1 X-0.5216 Y0.0456 Z0.0 E0.026
G1 X-0.5207 Y0.0547 Z0.0 E0.026
G1 X-0.5197 Y0.0638 Z0.0 E0.026
G1 X-0.5185 Y0.0729 Z0.0 E0.026
G1 X-0.5172 Y0.0819 Z0.0 E0.026
G1 X-0.5156 Y0.0909 Z0.0 E0.026
G1 X-0.514 Y0.0999 Z0.0 E0.026
G1 X-0.5122 Y0.1089 Z0.0 E0.026
G1 X-0.5102 Y0.1178 Z0.0 E0.026
G1 X-0.508 Y0.1267 Z0.0 E0.026
G1 X-0.5058 Y0.1355 Z0.0 E0.026
G1 X-0.5033 Y0.1443 Z0.0 E0.026
G1 X-0.5007 Y0.1531 Z0.0 E0.026
G1 X-0.498 Y0.1618 Z0.0 E0.026
G1 X-0.4951 Y0.1705 Z0.0 E0.026
G1 X-0.492 Y0.1791 Z0.0 E0.026
G1 X-0.4888 Y0.1876 Z0.0 E0.026
G1 X-0.4855 Y0.1961 Z0.0 E0.026
G1 X-0.482 Y0.2046 Z0.0 E0.026
G1 X-0.4783 Y0.213 Z0.0 E0.026
G1 X-0.4745 Y0.2213 Z0.0 E0.026
G1 X-0.4706 Y0.2295 Z0.0 E0.026
G1 X-0.4665 Y0.2377 Z0.0 E0.026
G1 X-0.4623 Y0.2458 Z0.0 E0.026
G1 X-0.4579 Y0.2538 Z0.0 E0.026
G1 X-0.4534 Y0.2618 Z0.0 E0.026
G1 X-0.4488 Y0.2697 Z0.0 E0.026
G1 X-0.444 Y0.2775 Z0.0 E0.026
G1 X-0.4391 Y0.2852 Z0.0 E0.026
G1 X-0.4341 Y0.2928 Z0.0 E0.026
G1 X-0.4289 Y0.3003 Z0.0 E0.026
G1 X-0.4236 Y0.3078 Z0.0 E0.026
G1 X-0.4182 Y0.3151 Z0.0 E0.026
G1 X-0.4126 Y0.3224 Z0.0 E0.026
G1 X-0.4069 Y0.3295 Z0.0 E0.026
G1 X-0.4011 Y0.3366 Z0.0 E0.026
G1 X-0.3952 Y0.3435 Z0.0 E0.026
G1 X-0.3891 Y0.3504 Z0.0 E0.026
G1 X-0.3829 Y0.3571 Z0.0 E0.026
G1 X-0.3766 Y0.3637 Z0.0 E0.026
G1 X-0.3702 Y0.3702 Z0.0 E0.026
G1 X-0.3637 Y0.3766 Z0.0 E0.026
G1 X-0.3571 Y0.3829 Z0.0 E0.026
G1 X-0.3504 Y0.3891 Z0.0 E0.026
G1 X-0.3435 Y0.3952 Z0.0 E0.026
G1 X-0.3366 Y0.4011 Z0.0 E0.026
G1 X-0.3295 Y0.4069 Z0.0 E0.026
G1 X-0.3224 Y0.4126 Z0.0 E0.026
G1 X-0.3151 Y0.4182 Z0.0 E0.026
G1 X-0.3078 Y0.4236 Z0.0 E0.026
G1 X-0.3003 Y0.4289 Z0.0 E0.026
G1 X-0.2928 Y0.4341 Z0.0 E0.026
G1 X-0.2852 Y0.4391 Z0.0 E0.026
G1 X-0.2775 Y0.444 Z0.0 E0.026
G1 X-0.2697 Y0.4488 Z0.0 E0.026
G1 X-0.2618 Y0.4534 Z0.0 E0.026
G1 X-0.2538 Y0.4579 Z0.0 E0.026
G1 X-0.2458 Y0.4623 Z0.0 E0.026
G1 X-0.2377 Y0.4665 Z0.0 E0.026
G1 X-0.2295 Y0.4706 Z0.0 E0.026
G1 X-0.2213 Y0.4745 Z0.0 E0.026
G1 X-0.213 Y0.4783 Z0.0 E0.026
G1 X-0.2046 Y0.482 Z0.0 E0.026
G1 X-0.1961 Y0.4855 Z0.0 E0.026
G1 X-0.1876 Y0.4888 Z0.0 E0.026
G1 X-0.1791 Y0.492 Z0.0 E0.026
G1 X-0.1705 Y0.4951 Z0.0 E0.026
G1 X-0.1618 Y0.498 Z0.0 E0.026
G1 X-0.1531 Y0.5007 Z0.0 E0.026
G1 X-0.1443 Y0.5033 Z0.0 E0.026
G1 X-0.1355 Y0.5058 Z0.0 E0.026
G1 X-0.1267 Y0.508 Z0.0 E0.026
G1 X-0.1178 Y0.5102 Z0.0 E0.026
G1 X-0.1089 Y0.5122 Z0.0 E0.026
G1 X-0.0999 Y0.514 Z0.0 E0.026
G1 X-0.0909 Y0.5156 Z0.0 E0.026
G1 X-0.0819 Y0.5172 Z0.0 E0.026
G1 X-0.0729 Y0.5185 Z0.0 E0.026
G1 X-0.0638 Y0.5197 Z0.0 E0.026
G1 X-0.0547 Y0.5207 Z0.0 E0.026
G1 X-0.0456 Y0.5216 Z0.0 E0.026
G1 X-0.0365 Y0.5223 Z0.0 E0.026
G1 X-0.0274 Y0.5229 Z0.0 E0.026
G1 X-0.0183 Y0.5233 Z0.0 E0.026
G1 X-0.0091 Y0.5235 Z0.0 E0.026
G1 X-0.0 Y0.5236 Z0.0 E0.026
G1 X0.0091 Y0.5235 Z0.0 E0.026
G1 X0.0183 Y0.5233 Z0.0 E0.026
G1 X0.0274 Y0.5229 Z0.0 E0.026
G1 X0.0365 Y0.5223 Z0.0 E0.026
G1 X0.0456 Y0.5216 Z0.0 E0.026
G1 X0.0547 Y0.5207 Z0.0 E0.026
G1 X0.0638 Y0.5197 Z0.0 E0.026
G1 X0.0729 Y0.5185 Z0.0 E0.026
G1 X0.0819 Y0.5172 Z0.0 E0.026
G1 X0.0909 Y0.5156 Z0.0 E0.026
G1 X0.0999 Y0.514 Z0.0 E0.026
G1 X0.1089 Y0.5122 Z0.0 E0.026
G1 X0.1178 Y0.5102 Z0.0 E0.026
G1 X0.1267 Y0.508 Z0.0 E0.026
G1 X0.1355 Y0.5058 Z0.0 E0.026
G1 X0.1443 Y0.5033 Z0.0 E0.026
G1 X0.1531 Y0.5007 Z0.0 E0.026
G1 X0.1618 Y0.498 Z0.0 E0.026
G1 X0.1705 Y0.4951 Z0.0 E0.026
G1 X0.1791 Y0.492 Z0.0 E0.026
G1 X0.1876 Y0.4888 Z0.0 E0.026
G1 X0.1961 Y0.4855 Z0.0 E0.026
G1 X0.2046 Y0.482 Z0.0 E0.026
G1 X0.213 Y0.4783 Z0.0 E0.026
G1 X0.2213 Y0.4745 Z0.0 E0.026
G1 X0.2295 Y0.4706 Z0.0 E0.026
G1 X0.2377 Y0.4665 Z0.0 E0.026
G1 X0.2458 Y0.4623 Z0.0 E0.026
G1 X0.2538 Y0.4579 Z0.0 E0.026
G1 X0.2618 Y0.4534 Z0.0 E0.026
G1 X0.2697 Y0.4488 Z0.0 E0.026
G1 X0.2775 Y0.444 Z0.0 E0.026
G1 X0.2852 Y0.4391 Z0.0 E0.026
G1 X0.2928 Y0.4341 Z0.0 E0.026
G1 X0.3003 Y0.4289 Z0.0 E0.026
G1 X0.3078 Y0.4236 Z0.0 E0.026
G1 X0.3151 Y0.4182 Z0.0 E0.026
G1 X0.3224 Y0.4126 Z0.0 E0.026
G1 X0.3295 Y0.4069 Z0.0 E0.026
G1 X0.3366 Y0.4011 Z0.0 E0.026
G1 X0.3435 Y0.3952 Z0.0 E0.026
G1 X0.3504 Y0.3891 Z0.0 E0.026
G1 X0.3571 Y0.3829 Z0.0 E0.026
G1 X0.3637 Y0.3766 Z0.0 E0.026
G1 X0.3702 Y0.3702 Z0.0 E0.026
G1 X0.3766 Y0.3637 Z0.0 E0.026
G1 X0.3829 Y0.3571 Z0.0 E0.026
G1 X0.3891 Y0.3504 Z0.0 E0.026
G1 X0.3952 Y0.3435 Z0.0 E0.026
G1 X0.4011 Y0.3366 Z0.0 E0.026
G1 X0.4069 Y0.3295 Z0.0 E0.026
G1 X0.4126 Y0.3224 Z0.0 E0.026
G1 X0.4182 Y0.3151 Z0.0 E0.026
G1 X0.4236 Y0.3078 Z0.0 E0.026
G1 X0.4289 Y0.3003 Z0.0 E0.026
G1 X0.4341 Y0.2928 Z0.0 E0.026
G1 X0.4391 Y0.2852 Z0.0 E0.026
G1 X0.444 Y0.2775 Z0.0 E0.026
G1 X0.4488 Y0.2697 Z0.0 E0.026
G1 X0.4534 Y0.2618 Z0.0 E0.026
G1 X0.4579 Y0.2538 Z0.0 E0.026
G1 X0.4623 Y0.2458 Z0.0 E0.026
G1 X0.4665 Y0.2377 Z0.0 E0.026
G1 X0.4706 Y0.2295 Z0.0 E0.026
G1 X0.4745 Y0.2213 Z0.0 E0.026
G1 X0.4783 Y0.213 Z0.0 E0.026
G1 X0.482 Y0.2046 Z0.0 E0.026
G1 X0.4855 Y0.1961 Z0.0 E0.026
G1 X0.4888 Y0.1876 Z0.0 E0.026
G1 X0.492 Y0.1791 Z0.0 E0.026
G1 X0.4951 Y0.1705 Z0.0 E0.026
G1 X0.498 Y0.1618 Z0.0 E0.026
G1 X0.5007 Y0.1531 Z0.0 E0.026
G1 X0.5033 Y0.1443 Z0.0 E0.026
G1 X0.5058 Y0.1355 Z0.0 E0.026
G1 X0.508 Y0.1267 Z0.0 E0.026
G1 X0.5102 Y0.1178 Z0.0 E0.026
G1 X0.5122 Y0.1089 Z0.0 E0.026
G1 X0.514 Y0.0999 Z0.0 E0.026
G1 X0.5156 Y0.0909 Z0.0 E0.026
G1 X0.5172 Y0.0819 Z0.0 E0.026
G1 X0.5185 Y0.0729 Z0.0 E0.026
G1 X0.5197 Y0.0638 Z0.0 E0.026
G1 X0.5207 Y0.0547 Z0.0 E0.026
G1 X0.5216 Y0.0456 Z0.0 E0.026
G1 X0.5223 Y0.0365 Z0.0 E0.026
G1 X0.5229 Y0.0274 Z0.0 E0.026
G1 X0.5233 Y0.0183 Z0.0 E0.026
G1 X0.5235 Y0.0091 Z0.0 E0.026
G1 Z0.2
G1 X0.5236 Y0.0 Z0.0 E0.026
G1 X0.5235 Y-0.0091 Z0.0 E0.026
G1 X0.5233 Y-0.0183 Z0.0 E0.026
G1 X0.5229 Y-0.0274 Z0.0 E0.026
G1 X0.5223 Y-0.0365 Z0.0 E0.026
G1 X0.5216 Y-0.0456 Z0.0 E0.026
G1 X0.5207 Y-0.0547 Z0.0 E0.026
G1 X0.5197 Y-0.0638 Z0.0 E0.026
G1 X0.5185 Y-0.0729 Z0.0 E0.026
G1 X0.5172 Y-0.0819 Z0.0 E0.026
G1 X0.5156 Y-0.0909 Z0.0 E0.026
G1 X0.514 Y-0.0999 Z0.0 E0.026
G1 X0.5122 Y-0.1089 Z0.0 E0.026
G1 X0.5102 Y-0.1178 Z0.0 E0.026
G1 X0.508 Y-0.1267 Z0.0 E0.026
G1 X0.5058 Y-0.1355 Z0.0 E0.026
G1 X0.5033 Y-0.1443 Z0.0 E0.026
G1 X0.5007 Y-0.1531 Z0.0 E0.026
G1 X0.498 Y-0.1618 Z0.0 E0.026
G1 X0.4951 Y-0.1705 Z0.0 E0.026
G1 X0.492 Y-0.1791 Z0.0 E0.026
G1 X0.4888 Y-0.1876 Z0.0 E0.026
G1 X0.4855 Y-0.1961 Z0.0 E0.026
G1 X0.482 Y-0.2046 Z0.0 E0.026
G1 X0.4783 Y-0.213 Z0.0 E0.026
G1 X0.4745 Y-0.2213 Z0.0 E0.026
G1 X0.4706 Y-0.2295 Z0.0 E0.026
G1 X0.4665 Y-0.2377 Z0.0 E0.026
G1 X0.4623 Y-0.2458 Z0.0 E0.026
G1 X0.4579 Y-0.2538 Z0.0 E0.026
G1 X0.4534 Y-0.2618 Z0.0 E0.026
G1 X0.4488 Y-0.2697 Z0.0 E0.026
G1 X0.444 Y-0.2775 Z0.0 E0.026
G1 X0.4391 Y-0.2852 Z0.0 E0.026
G1 X0.4341 Y-0.2928 Z0.0 E0.026
G1 X0.4289 Y-0.3003 Z0.0 E0.026
G1 X0.4236 Y-0.3078 Z0.0 E0.026
G1 X0.4182 Y-0.3151 Z0.0 E0.026
G1 X0.4126 Y-0.3224 Z0.0 E0.026
G1 X0.4069 Y-0.3295 Z0.0 E0.026
G1 X0.4011 Y-0.3366 Z0.0 E0.026
G1 X0.3952 Y-0.3435 Z0.0 E0.026
G1 X0.3891 Y-0.3504 Z0.0 E0.026
G1 X0.3829 Y-0.3571 Z0.0 E0.026
G1 X0.3766 Y-0.3637 Z0.0 E0.026
G1 X0.3702 Y-0.3702 Z0.0 E0.026
G1 X0.3637 Y-0.3766 Z0.0 E0.026
G1 X0.3571 Y-0.3829 Z0.0 E0.026
G1 X0.3504 Y-0.3891 Z0.0 E0.026
G1 X0.3435 Y-0.3952 Z0.0 E0.026
G1 X0.3366 Y-0.4011 Z0.0 E0.026
G1 X0.3295 Y-0.4069 Z0.0 E0.026
G1 X0.3224 Y-0.4126 Z0.0 E0.026
G1 X0.3151 Y-0.4182 Z0.0 E0.026
G1 X0.3078 Y-0.4236 Z0.0 E0.026
G1 X0.3003 Y-0.4289 Z0.0 E0.026
G1 X0.2928 Y-0.4341 Z0.0 E0.026
G1 X0.2852 Y-0.4391 Z0.0 E0.026
G1 X0.2775 Y-0.444 Z0.0 E0.026
G1 X0.2697 Y-0.4488 Z0.0 E0.026
G1 X-51.9615 Y-0.0 Z-0.0 E2.598
G1 X25.9808 Y-45.0 Z0.0 E2.598
G1 X25.9808 Y45.0 Z0.0 E2.598
G1 X0.2618 Y-0.4534 Z0.0 E0.026
G1 X0.2538 Y-0.4579 Z0.0 E0.026
G1 X0.2458 Y-0.4623 Z0.0 E0.026
G1 X0.2377 Y-0.4665 Z0.0 E0.026
G1 X0.2295 Y-0.4706 Z0.0 E0.026
G1 X0.2213 Y-0.4745 Z0.0 E0.026
G1 X0.213 Y-0.4783 Z0.0 E0.026
G1 X0.2046 Y-0.482 Z0.0 E0.026
G1 X0.1961 Y-0.4855 Z0.0 E0.026
G1 X0.1876 Y-0.4888 Z0.0 E0.026
G1 X0.1791 Y-0.492 Z0.0 E0.026
G1 X0.1705 Y-0.4951 Z0.0 E0.026
G1 X0.1618 Y-0.498 Z0.0 E0.026
G1 X0.1531 Y-0.5007 Z0.0 E0.026
G1 X0.1443 Y-0.5033 Z0.0 E0.026
G1 X0.1355 Y-0.5058 Z0.0 E0.026
G1 X0.1267 Y-0.508 Z0.0 E0.026
G1 X0.1178 Y-0.5102 Z0.0 E0.026
G1 X0.1089 Y-0.5122 Z0.0 E0.026
G1 X0.0999 Y-0.514 Z0.0 E0.026
G1 X0.0909 Y-0.5156 Z0.0 E0.026
G1 X0.0819 Y-0.5172 Z0.0 E0.026
G1 X0.0729 Y-0.5185 Z0.0 E0.026
G1 X0.0638 Y-0.5197 Z0.0 E0.026
G1 X0.0547 Y-0.5207 Z0.0 E0.026
G1 X0.0456 Y-0.5216 Z0.0 E0.026
G1 X0.0365 Y-0.5223 Z0.0 E0.026
G1 X0.0274 Y-0.5229 Z0.0 E0.026
G1 X0.0183 Y-0.5233 Z0.0 E0.026
G1 X0.0091 Y-0.5235 Z0.0 E0.026
G1 X0.0 Y-0.5236 Z0.0 E0.026
G1 X-0.0091 Y-0.5235 Z0.0 E0.026
G1 X-0.0183 Y-0.5233 Z0.0 E0.026
G1 X-0.0274 Y-0.5229 Z0.0 E0.026
G1 X-0.0365 Y-0.5223 Z0.0 E0.026
G1 X-0.0456 Y-0.5216 Z0.0 E0.026
G1 X-0.0547 Y-0.5207 Z0.0 E0.026
G1 X-0.0638 Y-0.5197 Z0.0 E0.026
G1 X-0.0729 Y-0.5185 Z0.0 E0.026
G1 X-0.0819 Y-0.5172 Z0.0 E0.026
G1 X-0.0909 Y-0.5156 Z0.0 E0.026
G1 X-0.0999 Y-0.514 Z0.0 E0.026
G1 X-0.1089 Y-0.5122 Z0.0 E0.026
G1 X-0.1178 Y-0.5102 Z0.0 E0.026
G1 X-0.1267 Y-0.508 Z0.0 E0.026
G1 X-0.1355 Y-0.5058 Z0.0 E0.026
G1 X-0.1443 Y-0.5033 Z0.0 E0.026
G1 X-0.1531 Y-0.5007 Z0.0 E0.026
G1 X-0.1618 Y-0.498 Z0.0 E0.026
G1 X-0.1705 Y-0.4951 Z0.0 E0.026
G1 X-0.1791 Y-0.492 Z0.0 E0.026
G1 X-0.1876 Y-0.4888 Z0.0 E0.026
G1 X-0.1961 Y-0.4855 Z0.0 E0.026
G1 X-0.2046 Y-0.482 Z0.0 E0.026
G1 X-0.213 Y-0.4783 Z0.0 E0.026
G1 X-0.2213 Y-0.4745 Z0.0 E0.026
G1 X-0.2295 Y-0.4706 Z0.0 E0.026
G1 X-0.2377 Y-0.4665 Z0.0 E0.026
G1 X-0.2458 Y-0.4623 Z0.0 E0.026
G1 X-0.2538 Y-0.4579 Z0.0 E0.026
G1 X-0.2618 Y-0.4534 Z0.0 E0.026
G1 X-0.2697 Y-0.4488 Z0.0 E0.026
G1 X-0.2775 Y-0.444 Z0.0 E0.026
G1 X-0.2852 Y-0.4391 Z0.0 E0.026
G1 X-0.2928 Y-0.4341 Z0.0 E0.026
G1 X-0.3003 Y-0.4289 Z0.0 E0.026
G1 X-0.3078 Y-0.4236 Z0.0 E0.026
G1 X-0.3151 Y-0.4182 Z0.0 E0.026
G1 X-0.3224 Y-0.4126 Z0.0 E0.026
G1 X-0.3295 Y-0.4069 Z0.0 E0.026
G1 X-0.3366 Y-0.4011 Z0.0 E0.026
G1 X-0.3435 Y-0.3952 Z0.0 E0.026
G1 X-0.3504 Y-0.3891 Z0.0 E0.026
G1 X-0.3571 Y-0.3829 Z0.0 E0.026
G1 X-0.3637 Y-0.3766 Z0.0 E0.026
G1 X-0.3702 Y-0.3702 Z0.0 E0.026
G1 X-0.3766 Y-0.3637 Z0.0 E0.026
G1 X-0.3829 Y-0.3571 Z0.0 E0.026
G1 X-0.3891 Y-0.3504 Z0.0 E0.026
G1 X-0.3952 Y-0.3435 Z0.0 E0.026
G1 X-0.4011 Y-0.3366 Z0.0 E0.026
G1 X-0.4069 Y-0.3295 Z0.0 E0.026
G1 X-0.4126 Y-0.3224 Z0.0 E0.026
G1 X-0.4182 Y-0.3151 Z0.0 E0.026
G1 X-0.4236 Y-0.3078 Z0.0 E0.026
G1 X-0.4289 Y-0.3003 Z0.0 E0.026
G1 X-0.4341 Y-0.2928 Z0.0 E0.026
G1 X-0.4391 Y-0.2852 Z0.0 E0.026
G1 X-0.444 Y-0.2775 Z0.0 E0.026
G1 X-0.4488 Y-0.2697 Z0.0 E0.026
G1 X-0.4534 Y-0.2618 Z0.0 E0.026
G1 X-0.4579 Y-0.2538 Z0.0 E0.026
G1 X-0.4623 Y-0.2458 Z0.0 E0.026
G1 X-0.4665 Y-0.2377 Z0.0 E0.026
G1 X-0.4706 Y-0.2295 Z0.0 E0.026
G1 X-0.4745 Y-0.2213 Z0.0 E0.026
G1 X-0.4783 Y-0.213 Z0.0 E0.026
G1 X-0.482 Y-0.2046 Z0.0 E0.026
G1 X-0.4855 Y-0.1961 Z0.0 E0.026
G1 X-0.4888 Y-0.1876 Z0.0 E0.026
G1 X-0.492 Y-0.1791 Z0.0 E0.026
G1 X-0.4951 Y-0.1705 Z0.0 E0.026
G1 X-0.498 Y-0.1618 Z0.0 E0.026
G1 X-0.5007 Y-0.1531 Z0.0 E0.026
G1 X-0.5033 Y-0.1443 Z0.0 E0.026
G1 X-0.5058 Y-0.1355 Z0.0 E0.026
G1 X-0.508 Y-0.1267 Z0.0 E0.026
G1 X-0.5102 Y-0.1178 Z0.0 E0.026
G1 X-0.5122 Y-0.1089 Z0.0 E0.026
G1 X-0.514 Y-0.0999 Z0.0 E0.026
G1 X-0.5156 Y-0.0909 Z0.0 E0.026
G1 X-0.5172 Y-0.0819 Z0.0 E0.026
G1 X-0.5185 Y-0.0729 Z0.0 E0.026
G1 X-0.5197 Y-0.0638 Z0.0 E0.026
G1 X-0.5207 Y-0.0547 Z0.0 E0.026
G1 X-0.5216 Y-0.0456 Z0.0 E0.026
G1 X-0.5223 Y-0.0365 Z0.0 E0.026
G1 X-0.5229 Y-0.0274 Z0.0 E0.026
G1 X-0.5233 Y-0.0183 Z0.0 E0.026
G1 X-0.5235 Y-0.0091 Z0.0 E0.026
G1 X-0.5236 Y-0.0 Z0.0 E0.026
G1 X-0.5235 Y0.0091 Z0.0 E0.026
G1 X-0.5233 Y0.0183 Z0.0 E0.026
G1 X-0.5229 Y0.0274 Z0.0 E0.026
G1 X-0.5223 Y0.0365 Z0.0 E0.026
G1 X-0.5216 Y0.0456 Z0.0 E0.026
G1 X-0.5207 Y0.0547 Z0.0 E0.026
G1 X-0.5197 Y0.0638 Z0.0 E0.026
G1 X-0.5185 Y0.0729 Z0.0 E0.026
G1 X-0.5172 Y0.0819 Z0.0 E0.026
G1 X-0.5156 Y0.0909 Z0.0 E0.026
G1 X-0.514 Y0.0999 Z0.0 E0.026
G1 X-0.5122 Y0.1089 Z0.0 E0.026
G1 X-0.5102 Y0.1178 Z0.0 E0.026
G1 X-0.508 Y0.1267 Z0.0 E0.026
G1 X-0.5058 Y0.1355 Z0.0 E0.026
G1 X-0.5033 Y0.1443 Z0.0 E0.026
G1 X-0.5007 Y0.1531 Z0.0 E0.026
G1 X-0.498 Y0.1618 Z0.0 E0.026
G1 X-0.4951 Y0.1705 Z0.0 E0.026
G1 X-0.492 Y0.1791 Z0.0 E0.026
G1 X-0.4888 Y0.1876 Z0.0 E0.026
G1 X-0.4855 Y0.1961 Z0.0 E0.026
G1 X-0.482 Y0.2046 Z0.0 E0.026
G1 X-0.4783 Y0.213 Z0.0 E0.026
G1 X-0.4745 Y0.2213 Z0.0 E0.026
G1 X-0.4706 Y0.2295 Z0.0 E0.026
G1 X-0.4665 Y0.2377 Z0.0 E0.026
G1 X-0.4623 Y0.2458 Z0.0 E0.026
G1 X-0.4579 Y0.2538 Z0.0 E0.026
G1 X-0.4534 Y0.2618 Z0.0 E0.026
G1 X-0.4488 Y0.2697 Z0.0 E0.026
G1 X-0.444 Y0.2775 Z0.0 E0.026
G1 X-0.4391 Y0.2852 Z0.0 E0.026
G1 X-0.4341 Y0.2928 Z0.0 E0.026
G1 X-0.4289 Y0.3003 Z0.0 E0.026
G1 X-0.4236 Y0.3078 Z0.0 E0.026
G1 X-0.4182 Y0.3151 Z0.0 E0.026
G1 X-0.4126 Y0.3224 Z0.0 E0.026
G1 X-0.4069 Y0.3295 Z0.0 E0.026
G1 X-0.4011 Y0.3366 Z0.0 E0.026
G1 X-0.3952 Y0.3435 Z0.0 E0.026
G1 X-0.3891 Y0.3504 Z0.0 E0.026
G1 X-0.3829 Y0.3571 Z0.0 E0.026
G1 X-0.3766 Y0.3637 Z0.0 E0.026
G1 X-0.3702 Y0.3702 Z0.0 E0.026
G1 X-0.3637 Y0.3766 Z0.0 E0.026
G1 X-0.3571 Y0.3829 Z0.0 E0.026
G1 X-0.3504 Y0.3891 Z0.0 E0.026
G1 X-0.3435 Y0.3952 Z0.0 E0.026
G1 X-0.3366 Y0.4011 Z0.0 E0.026
G1 X-0.3295 Y0.4069 Z0.0 E0.026
G1 X-0.3224 Y0.4126 Z0.0 E0.026
G1 X-0.3151 Y0.4182 Z0.0 E0.026
G1 X-0.3078 Y0.4236 Z0.0 E0.026
G1 X-0.3003 Y0.4289 Z0.0 E0.026
G1 X-0.2928 Y0.4341 Z0.0 E0.026
G1 X-0.2852 Y0.4391 Z0.0 E0.026
G1 X-0.2775 Y0.444 Z0.0 E0.026
G1 X-0.2697 Y0.4488 Z0.0 E0.026
G1 X-0.2618 Y0.4534 Z0.0 E0.026
G1 X-0.2538 Y0.4579 Z0.0 E0.026
G1 X-0.2458 Y0.4623 Z0.0 E0.026
G1 X-0.2377 Y0.4665 Z0.0 E0.026
G1 X-0.2295 Y0.4706 Z0.0 E0.026
G1 X-0.2213 Y0.4745 Z0.0 E0.026
G1 X-0.213 Y0.4783 Z0.0 E0.026
G1 X-0.2046 Y0.482 Z0.0 E0.026
G1 X-0.1961 Y0.4855 Z0.0 E0.026
G1 X-0.1876 Y0.4888 Z0.0 E0.026
G1 X-0.1791 Y0.492 Z0.0 E0.026
G1 X-0.1705 Y0.4951 Z0.0 E0.026
G1 X-0.1618 Y0.498 Z0.0 E0.026
G1 X-0.1531 Y0.5007 Z0.0 E0.026
G1 X-0.1443 Y0.5033 Z0.0 E0.026
G1 X-0.1355 Y0.5058 Z0.0 E0.026
G1 X-0.1267 Y0.508 Z0.0 E0.026
G1 X-0.1178 Y0.5102 Z0.0 E0.026
G1 X-0.1089 Y0.5122 Z0.0 E0.026
G1 X-0.0999 Y0.514 Z0.0 E0.026
G1 X-0.0909 Y0.5156 Z0.0 E0.026
G1 X-0.0819 Y0.5172 Z0.0 E0.026
G1 X-0.0729 Y0.5185 Z0.0 E0.026
G1 X-0.0638 Y0.5197 Z0.0 E0.026
G1 X-0.0547 Y0.5207 Z0.0 E0.026
G1 X-0.0456 Y0.5216 Z0.0 E0.026
G1 X-0.0365 Y0.5223 Z0.0 E0.026
G1 X-0.0274 Y0.5229 Z0.0 E0.026
G1 X-0.0183 Y0.5233 Z0.0 E0.026
G1 X-0.0091 Y0.5235 Z0.0 E0.026
G1 X-0.0 Y0.5236 Z0.0 E0.026
G1 X0.0091 Y0.5235 Z0.0 E0.026
G1 X0.0183 Y0.5233 Z0.0 E0.026
G1 X0.0274 Y0.5229 Z0.0 E0.026
G1 X0.0365 Y0.5223 Z0.0 E0.026
G1 X0.0456 Y0.5216 Z0.0 E0.026
G1 X0.0547 Y0.5207 Z0.0 E0.026
G1 X0.0638 Y0.5197 Z0.0 E0.026
G1 X0.0729 Y0.5185 Z0.0 E0.026
G1 X0.0819 Y0.5172 Z0.0 E0.026
G1 X0.0909 Y0.5156 Z0.0 E0.026
G1 X0.0999 Y0.514 Z0.0 E0.026
G1 X0.1089 Y0.5122 Z0.0 E0.026
G1 X0.1178 Y0.5102 Z0.0 E0.026
G1 X0.1267 Y0.508 Z0.0 E0.026
G1 X0.1355 Y0.5058 Z0.0 E0.026
G1 X0.1443 Y0.5033 Z0.0 E0.026
G1 X0.1531 Y0.5007 Z0.0 E0.026
G1 X0.1618 Y0.498 Z0.0 E0.026
G1 X0.1705 Y0.4951 Z0.0 E0.026
G1 X0.1791 Y0.492 Z0.0 E0.026
G1 X0.1876 Y0.4888 Z0.0 E0.026
G1 X0.1961 Y0.4855 Z0.0 E0.026
G1 X0.2046 Y0.482 Z0.0 E0.026
G1 X0.213 Y0.4783 Z0.0 E0.026
G1 X0.2213 Y0.4745 Z0.0 E0.026
G1 X0.2295 Y0.4706 Z0.0 E0.026
G1 X0.2377 Y0.4665 Z0.0 E0.026
G1 X0.2458 Y0.4623 Z0.0 E0.026
G1 X0.2538 Y0.4579 Z0.0 E0.026
G1 X0.2618 Y0.4534 Z0.0 E0.026
G1 X0.2697 Y0.4488 Z0.0 E0.026
G1 X0.2775 Y0.444 Z0.0 E0.026
G1 X0.2852 Y0.4391 Z0.0 E0.026
G1 X0.2928 Y0.4341 Z0.0 E0.026
G1 X0.3003 Y0.4289 Z0.0 E0.026
G1 X0.3078 Y0.4236 Z0.0 E0.026
G1 X0.3151 Y0.4182 Z0.0 E0.026
G1 X0.3224 Y0.4126 Z0.0 E0.026
G1 X0.3295 Y0.4069 Z0.0 E0.026
G1 X0.3366 Y0.4011 Z0.0 E0.026
G1 X0.3435 Y0.3952 Z0.0 E0.026
G1 X0.3504 Y0.3891 Z0.0 E0.026
G1 X0.3571 Y0.3829 Z0.0 E0.026
G1 X0.3637 Y0.3766 Z0.0 E0.026
G1 X0.3702 Y0.3702 Z0.0 E0.026
G1 X0.3766 Y0.3637 Z0.0 E0.026
G1 X0.3829 Y0.3571 Z0.0 E0.026
G1 X0.3891 Y0.3504 Z0.0 E0.026
G1 X0.3952 Y0.3435 Z0.0 E0.026
G1 X0.4011 Y0.3366 Z0.0 E0.026
G1 X0.4069 Y0.3295 Z0.0 E0.026
G1 X0.4126 Y0.3224 Z0.0 E0.026
G1 X0.4182 Y0.3151 Z0.0 E0.026
G1 X0.4236 Y0.3078 Z0.0 E0.026
G1 X0.4289 Y0.3003 Z0.0 E0.026
G1 X0.4341 Y0.2928 Z0.0 E0.026
G1 X0.4391 Y0.2852 Z0.0 E0.026
G1 X0.444 Y0.2775 Z0.0 E0.026
G1 X0.4488 Y0.2697 Z0.0 E0.026
G1 X0.4534 Y0.2618 Z0.0 E0.026
G1 X0.4579 Y0.2538 Z0.0 E0.026
G1 X0.4623 Y0.2458 Z0.0 E0.026
G1 X0.4665 Y0.2377 Z0.0 E0.026
G1 X0.4706 Y0.2295 Z0.0 E0.026
G1 X0.4745 Y0.2213 Z0.0 E0.026
G1 X0.4783 Y0.213 Z0.0 E0.026
G1 X0.482 Y0.2046 Z0.0 E0.026
G1 X0.4855 Y0.1961 Z0.0 E0.026
G1 X0.4888 Y0.1876 Z0.0 E0.026
G1 X0.492 Y0.1791 Z0.0 E0.026
G1 X0.4951 Y0.1705 Z0.0 E0.026
G1 X0.498 Y0.1618 Z0.0 E0.026
G1 X0.5007 Y0.1531 Z0.0 E0.026
G1 X0.5033 Y0.1443 Z0.0 E0.026
G1 X0.5058 Y0.1355 Z0.0 E0.026
G1 X0.508 Y0.1267 Z0.0 E0.026
G1 X0.5102 Y0.1178 Z0.0 E0.026
G1 X0.5122 Y0.1089 Z0.0 E0.026
G1 X0.514 Y0.0999 Z0.0 E0.026
G1 X0.5156 Y0.0909 Z0.0 E0.026
G1 X0.5172 Y0.0819 Z0.0 E0.026
G1 X0.5185 Y0.0729 Z0.0 E0.026
G1 X0.5197 Y0.0638 Z0.0 E0.026
G1 X0.5207 Y0.0547 Z0.0 E0.026
G1 X0.5216 Y0.0456 Z0.0 E0.026
G1 X0.5223 Y0.0365 Z0.0 E0.026
G1 X0.5229 Y0.0274 Z0.0 E0.026
G1 X0.5233 Y0.0183 Z0.0 E0.026
G1 X0.5235 Y0.0091 Z0.0 E0.026
G1 Z0.2
G1 X0.5236 Y0.0 Z0.0 E0.026
G1 X0.5235 Y-0.0091 Z0.0 E0.026
G1 X0.5233 Y-0.0183 Z0.0 E0.026
G1 X0.5229 Y-0.0274 Z0.0 E0.026
G1 X0.5223 Y-0.0365 Z0.0 E0.026
G1 X0.5216 Y-0.0456 Z0.0 E0.026
G1 X0.5207 Y-0.0547 Z0.0 E0.026
G1 X0.5197 Y-0.0638 Z0.0 E0.026
G1 X0.5185 Y-0.0729 Z0.0 E0.026
G1 X0.5172 Y-0.0819 Z0.0 E0.026
G1 X0.5156 Y-0.0909 Z0.0 E0.026
G1 X0.514 Y-0.0999 Z0.0 E0.026
G1 X0.5122 Y-0.1089 Z0.0 E0.026
G1 X0.5102 Y-0.1178 Z0.0 E0.026
G1 X0.508 Y-0.1267 Z0.0 E0.026
G1 X0.5058 Y-0.1355 Z0.0 E0.026
G1 X0.5033 Y-0.1443 Z0.0 E0.026
G1 X0.5007 Y-0.1531 Z0.0 E0.026
G1 X0.498 Y-0.1618 Z0.0 E0.026
G1 X0.4951 Y-0.1705 Z0.0 E0.026
G1 X0.492 Y-0.1791 Z0.0 E0.026
G1 X0.4888 Y-0.1876 Z0.0 E0.026
G1 X0.4855 Y-0.1961 Z0.0 E0.026
G1 X0.482 Y-0.2046 Z0.0 E0.026
G1 X0.4783 Y-0.213 Z0.0 E0.026
G1 X0.4745 Y-0.2213 Z0.0 E0.026
G1 X0.4706 Y-0.2295 Z0.0 E0.026
G1 X0.4665 Y-0.2377 Z0.0 E0.026
G1 X0.4623 Y-0.2458 Z0.0 E0.026
G1 X0.4579 Y-0.2538 Z0.0 E0.026
G1 X0.4534 Y-0.2618 Z0.0 E0.026
G1 X0.4488 Y-0.2697 Z0.0 E0.026
G1 X0.444 Y-0.2775 Z0.0 E0.026
G1 X0.4391 Y-0.2852 Z0.0 E0.026
G1 X0.4341 Y-0.2928 Z0.0 E0.026
G1 X0.4289 Y-0.3003 Z0.0 E0.026
G1 X0.4236 Y-0.3078 Z0.0 E0.026
G1 X0.4182 Y-0.3151 Z0.0 E0.026
G1 X0.4126 Y-0.3224 Z0.0 E0.026
G1 X0.4069 Y-0.3295 Z0.0 E0.026
G1 X0.4011 Y-0.3366 Z0.0 E0.026
G1 X0.3952 Y-0.3435 Z0.0 E0.026
G1 X0.3891 Y-0.3504 Z0.0 E0.026
G1 X0.3829 Y-0.3571 Z0.0 E0.026
G1 X0.3766 Y-0.3637 Z0.0 E0.026
G1 X0.3702 Y-0.3702 Z0.0 E0.026
G1 X0.3637 Y-0.3766 Z0.0 E0.026
G1 X0.3571 Y-0.3829 Z0.0 E0.026
G1 X0.3504 Y-0.3891 Z0.0 E0.026
G1 X0.3435 Y-0.3952 Z0.0 E0.026
G1 X0.3366 Y-0.4011 Z0.0 E0.026
G1 X0.3295 Y-0.4069 Z0.0 E0.026
G1 X0.3224 Y-0.4126 Z0.0 E0.026
G1 X0.3151 Y-0.4182 Z0.0 E0.026
G1 X0.3078 Y-0.4236 Z0.0 E0.026
G1 X0.3003 Y-0.4289 Z0.0 E0.026
G1 X0.2928 Y-0.4341 Z0.0 E0.026
G1 X0.2852 Y-0.4391 Z0.0 E0.026
G1 X0.2775 Y-0.444 Z0.0 E0.026
G1 X0.2697 Y-0.4488 Z0.0 E0.026
G1 X0.2618 Y-0.4534 Z0.0 E0.026
G1 X0.2538 Y-0.4579 Z0.0 E0.026
G1 X0.2458 Y-0.4623 Z0.0 E0.026
G1 X0.2377 Y-0.4665 Z0.0 E0.026
G1 X0.2295 Y-0.4706 Z0.0 E0.026
G1 X0.2213 Y-0.4745 Z0.0 E0.026
G1 X0.213 Y-0.4783 Z0.0 E0.026
G1 X0.2046 Y-0.482 Z0.0 E0.026
G1 X0.1961 Y-0.4855 Z0.0 E0.026
G1 X0.1876 Y-0.4888 Z0.0 E0.026
G1 X0.1791 Y-0.492 Z0.0 E0.026
G1 X0.1705 Y-0.4951 Z0.0 E0.026
G1 X0.1618 Y-0.498 Z0.0 E0.026
G1 X0.1531 Y-0.5007 Z0.0 E0.026
G1 X0.1443 Y-0.5033 Z0.0 E0.026
G1 X0.1355 Y-0.5058 Z0.0 E0.026
G1 X0.1267 Y-0.508 Z0.0 E0.026
G1 X0.1178 Y-0.5102 Z0.0 E0.026
G1 X0.1089 Y-0.5122 Z0.0 E0.026
G1 X0.0999 Y-0.514 Z0.0 E0.026
G1 X0.0909 Y-0.5156 Z0.0 E0.026
G1 X0.0819 Y-0.5172 Z0.0 E0.026
G1 X0.0729 Y-0.5185 Z0.0 E0.026
G1 X0.0638 Y-0.5197 Z0.0 E0.026
G1 X0.0547 Y-0.5207 Z0.0 E0.026
G1 X0.0456 Y-0.5216 Z0.0 E0.026
G1 X0.0365 Y-0.5223 Z0.0 E0.026
G1 X0.0274 Y-0.5229 Z0.0 E0.026
G1 X0.0183 Y-0.5233 Z0.0 E0.026
G1 X0.0091 Y-0.5235 Z0.0 E0.026
G1 X0.0 Y-0.5236 Z0.0 E0.026
G1 X-0.0091 Y-0.5235 Z0.0 E0.026
G1 X-0.0183 Y-0.5233 Z0.0 E0.026
G1 X-0.0274 Y-0.5229 Z0.0 E0.026
G1 X-0.0365 Y-0.5223 Z0.0 E0.026
G1 X-0.0456 Y-0.5216 Z0.0 E0.026
G1 X-0.0547 Y-0.5207 Z0.0 E0.026
G1 X-0.0638 Y-0.5197 Z0.0 E0.026
G1 X-0.0729 Y-0.5185 Z0.0 E0.026
G1 X-0.0819 Y-0.5172 Z0.0 E0.026
G1 X-0.0909 Y-0.5156 Z0.0 E0.026
G1 X-0.0999 Y-0.514 Z0.0 E0.026
G1 X-0.1089 Y-0.5122 Z0.0 E0.026
G1 X-0.1178 Y-0.5102 Z0.0 E0.026
G1 X-0.1267 Y-0.508 Z0.0 E0.026
G1 X-0.1355 Y-0.5058 Z0.0 E0.026
G1 X-0.1443 Y-0.5033 Z0.0 E0.026
G1 X-0.1531 Y-0.5007 Z0.0 E0.026
G1 X-0.1618 Y-0.498 Z0.0 E0.026
G1 X-0.1705 Y-0.4951 Z0.0 E0.026
G1 X-0.1791 Y-0.492 Z0.0 E0.026
G1 X-0.1876 Y-0.4888 Z0.0 E0.026
G1 X-0.1961 Y-0.4855 Z0.0 E0.026
G1 X-0.2046 Y-0.482 Z0.0 E0.026
G1 X-0.213 Y-0.4783 Z0.0 E0.026
G1 X-0.2213 Y-0.4745 Z0.0 E0.026
G1 X-0.2295 Y-0.4706 Z0.0 E0.026
G1 X-0.2377 Y-0.4665 Z0.0 E0.026
G1 X-0.2458 Y-0.4623 Z0.0 E0.026
G1 X-0.2538 Y-0.4579 Z0.0 E0.026
G1 X-0.2618 Y-0.4534 Z0.0 E0.026
G1 X-0.2697 Y-0.4488 Z0.0 E0.026
G1 X-0.2775 Y-0.444 Z0.0 E0.026
G1 X-0.2852 Y-0.4391 Z0.0 E0.026
G1 X-0.2928 Y-0.4341 Z0.0 E0.026
G1 X-0.3003 Y-0.4289 Z0.0 E0.026
G1 X-0.3078 Y-0.4236 Z0.0 E0.026
G1 X-0.3151 Y-0.4182 Z0.0 E0.026
G1 X-0.3224 Y-0.4126 Z0.0 E0.026
G1 X-0.3295 Y-0.4069 Z0.0 E0.026
G1 X-0.3366 Y-0.4011 Z0.0 E0.026
G1 X-0.3435 Y-0.3952 Z0.0 E0.026
G1 X-0.3504 Y-0.3891 Z0.0 E0.026
G1 X-0.3571 Y-0.3829 Z0.0 E0.026
G1 X-0.3637 Y-0.3766 Z0.0 E0.026
G1 X-0.3702 Y-0.3702 Z0.0 E0.026
G1 X-0.3766 Y-0.3637 Z0.0 E0.026
G1 X-0.3829 Y-0.3571 Z0.0 E0.026
G1 X-0.3891 Y-0.3504 Z0.0 E0.026
G1 X-0.3952 Y-0.3435 Z0.0 E0.026
G1 X-0.4011 Y-0.3366 Z0.0 E0.026
G1 X-0.4069 Y-0.3295 Z0.0 E0.026
G1 X-0.4126 Y-0.3224 Z0.0 E0.026
G1 X-0.4182 Y-0.3151 Z0.0 E0.026
G1 X-0.4236 Y-0.3078 Z0.0 E0.026
G1 X-0.4289 Y-0.3003 Z0.0 E0.026
G1 X-0.4341 Y-0.2928 Z0.0 E0.026
G1 X-0.4391 Y-0.2852 Z0.0 E0.026
G1 X-0.444 Y-0.2775 Z0.0 E0.026
G1 X-0.4488 Y-0.2697 Z0.0 E0.026
G1 X-0.4534 Y-0.2618 Z0.0 E0.026
G1 X-0.4579 Y-0.2538 Z0.0 E0.026
G1 X-0.4623 Y-0.2458 Z0.0 E0.026
G1 X-0.4665 Y-0.2377 Z0.0 E0.026
G1 X-0.4706 Y-0.2295 Z0.0 E0.026
G1 X-0.4745 Y-0.2213 Z0.0 E0.026
G1 X-0.4783 Y-0.213 Z0.0 E0.026
G1 X-0.482 Y-0.2046 Z0.0 E0.026
G1 X-0.4855 Y-0.1961 Z0.0 E0.026
G1 X-0.4888 Y-0.1876 Z0.0 E0.026
G1 X-0.492 Y-0.1791 Z0.0 E0.026
G1 X-0.4951 Y-0.1705 Z0.0 E0.026
G1 X-0.498 Y-0.1618 Z0.0 E0.026
G1 X-0.5007 Y-0.1531 Z0.0 E0.026
G1 X-0.5033 Y-0.1443 Z0.0 E0.026
G1 X-0.5058 Y-0.1355 Z0.0 E0.026
G1 X-0.508 Y-0.1267 Z0.0 E0.026
G1 X-0.5102 Y-0.1178 Z0.0 E0.026
G1 X-0.5122 Y-0.1089 Z0.0 E0.026
G1 X-0.514 Y-0.0999 Z0.0 E0.026
G1 X-0.5156 Y-0.0909 Z0.0 E0.026
G1 X-0.5172 Y-0.0819 Z0.0 E0.026
G1 X-0.5185 Y-0.0729 Z0.0 E0.026
G1 X-0.5197 Y-0.0638 Z0.0 E0.026
G1 X-0.5207 Y-0.0547 Z0.0 E0.026
G1 X-0.5216 Y-0.0456 Z0.0 E0.026
G1 X-0.5223 Y-0.0365 Z0.0 E0.026
G1 X-0.5229 Y-0.0274 Z0.0 E0.026
G1 X-0.5233 Y-0.0183 Z0.0 E0.026
G1 X-0.5235 Y-0.0091 Z0.0 E0.026
G1 X-0.5236 Y-0.0 Z0.0 E0.026
G1 X-0.5235 Y0.0091 Z0.0 E0.026
G1 X-0.5233 Y0.0183 Z0.0 E0.026
G1 X-0.5229 Y0.0274 Z0.0 E0.026
G1 X-0.5223 Y0.0365 Z0.0 E0.026
G1 X-0.5216 Y0.0456 Z0.0 E0.026
G1 X-0.5207 Y0.0547 Z0.0 E0.026
G1 X-0.5197 Y0.0638 Z0.0 E0.026
G1 X-0.5185 Y0.0729 Z0.0 E0.026
G1 X-0.5172 Y0.0819 Z0.0 E0.026
G1 X-0.5156 Y0.0909 Z0.0 E0.026
G1 X-0.514 Y0.0999 Z0.0 E0.026
G1 X-0.5122 Y0.1089 Z0.0 E0.026
G1 X-0.5102 Y0.1178 Z0.0 E0.026
G1 X-0.508 Y0.1267 Z0.0 E0.026
G1 X-0.5058 Y0.1355 Z0.0 E0.026
G1 X-0.5033 Y0.1443 Z0.0 E0.026
G1 X-0.5007 Y0.1531 Z0.0 E0.026
G1 X-0.498 Y0.1618 Z0.0 E0.026
G1 X-0.4951 Y0.1705 Z0.0 E0.026
G1 X-0.492 Y0.1791 Z0.0 E0.026
G1 X-0.4888 Y0.1876 Z0.0 E0.026
G1 X-0.4855 Y0.1961 Z0.0 E0.026
G1 X-0.482 Y0.2046 Z0.0 E0.026
G1 X-0.4783 Y0.213 Z0.0 E0.026
G1 X-0.4745 Y0.2213 Z0.0 E0.026
G1 X-0.4706 Y0.2295 Z0.0 E0.026
G1 X-0.4665 Y0.2377 Z0.0 E0.026
G1 X-0.4623 Y0.2458 Z0.0 E0.026
G1 X-0.4579 Y0.2538 Z0.0 E0.026
G1 X-0.4534 Y0.2618 Z0.0 E0.026
G1 X-0.4488 Y0.2697 Z0.0 E0.026
G1 X-0.444 Y0.2775 Z0.0 E0.026
G1 X-0.4391 Y0.2852 Z0.0 E0.026
G1 X-0.4341 Y0.2928 Z0.0 E0.026
G1 X-0.4289 Y0.3003 Z0.0 E0.026
G1 X-0.4236 Y0.3078 Z0.0 E0.026
G1 X-0.4182 Y0.3151 Z0.0 E0.026
G1 X-0.4126 Y0.3224 Z0.0 E0.026
G1 X-0.4069 Y0.3295 Z0.0 E0.026
G1 X-0.4011 Y0.3366 Z0.0 E0.026
G1 X-0.3952 Y0.3435 Z0.0 E0.026
G1 X-0.3891 Y0.3504 Z0.0 E0.026
G1 X-0.3829 Y0.3571 Z0.0 E0.026
G1 X-0.3766 Y0.3637 Z0.0 E0.026
G1 X-0.3702 Y0.3702 Z0.0 E0.026
G1 X-0.3637 Y0.3766 Z0.0 E0.026
G1 X-0.3571 Y0.3829 Z0.0 E0.026
G1 X-0.3504 Y0.3891 Z0.0 E0.026
G1 X-0.3435 Y0.3952 Z0.0 E0.026
G1 X-0.3366 Y0.4011 Z0.0 E0.026
G1 X-0.3295 Y0.4069 Z0.0 E0.026
G1 X-0.3224 Y0.4126 Z0.0 E0.026
G1 X-0.3151 Y0.4182 Z0.0 E0.026
G1 X-0.3078 Y0.4236 Z0.0 E0.026
G1 X-0.3003 Y0.4289 Z0.0 E0.026
G1 X-0.2928 Y0.4341 Z0.0 E0.026
G1 X-0.2852 Y0.4391 Z0.0 E0.026
G1 X-0.2775 Y0.444 Z0.0 E0.026
G1 X-0.2697 Y0.4488 Z0.0 E0.026
G1 X-0.2618 Y0.4534 Z0.0 E0.026
G1 X-0.2538 Y0.4579 Z0.0 E0.026
G1 X-0.2458 Y0.4623 Z0.0 E0.026
G1 X-0.2377 Y0.4665 Z0.0 E0.026
G1 X-0.2295 Y0.4706 Z0.0 E0.026
G1 X-0.2213 Y0.4745 Z0.0 E0.026
G1 X-0.213 Y0.4783 Z0.0 E0.026
G1 X-0.2046 Y0.482 Z0.0 E0.026
G1 X-0.1961 Y0.4855 Z0.0 E0.026
G1 X-0.1876 Y0.4888 Z0.0 E0.026
G1 X-0.1791 Y0.492 Z0.0 E0.026
G1 X-0.1705 Y0.4951 Z0.0 E0.026
G1 X-0.1618 Y0.498 Z0.0 E0.026
G1 X-0.1531 Y0.5007 Z0.0 E0.026
G1 X-0.1443 Y0.5033 Z0.0 E0.026
G1 X-0.1355 Y0.5058 Z0.0 E0.026
G1 X-0.1267 Y0.508 Z0.0 E0.026
G1 X-0.1178 Y0.5102 Z0.0 E0.026
G1 X-0.1089 Y0.5122 Z0.0 E0.026
G1 X-0.0999 Y0.514 Z0.0 E0.026
G1 X-0.0909 Y0.5156 Z0.0 E0.026
G1 X-0.0819 Y0.5172 Z0.0 E0.026
G1 X-0.0729 Y0.5185 Z0.0 E0.026
G1 X-0.0638 Y0.5197 Z0.0 E0.026
G1 X-0.0547 Y0.5207 Z0.0 E0.026
G1 X-0.0456 Y0.5216 Z0.0 E0.026
G1 X-0.0365 Y0.5223 Z0.0 E0.026
G1 X-0.0274 Y0.5229 Z0.0 E0.026
G1 X-0.0183 Y0.5233 Z0.0 E0.026
G1 X-0.0091 Y0.5235 Z0.0 E0.026
G1 X-0.0 Y0.5236 Z0.0 E0.026
G1 X0.0091 Y0.5235 Z0.0 E0.026
G1 X0.0183 Y0.5233 Z0.0 E0.026
G1 X0.0274 Y0.5229 Z0.0 E0.026
G1 X0.0365 Y0.5223 Z0.0 E0.026
G1 X0.0456 Y0.5216 Z0.0 E0.026
G1 X0.0547 Y0.5207 Z0.0 E0.026
G1 X0.0638 Y0.5197 Z0.0 E0.026
G1 X0.0729 Y0.5185 Z0.0 E0.026
G1 X0.0819 Y0.5172 Z0.0 E0.026
G1 X0.0909 Y0.5156 Z0.0 E0.026
G1 X0.0999 Y0.514 Z0.0 E0.026
G1 X0.1089 Y0.5122 Z0.0 E0.026
G1 X0.1178 Y0.5102 Z0.0 E0.026
G1 X0.1267 Y0.508 Z0.0 E0.026
G1 X0.1355 Y0.5058 Z0.0 E0.026
G1 X0.1443 Y0.5033 Z0.0 E0.026
G1 X0.1531 Y0.5007 Z0.0 E0.026
G1 X0.1618 Y0.498 Z0.0 E0.026
G1 X0.1705 Y0.4951 Z0.0 E0.026
G1 X0.1791 Y0.492 Z0.0 E0.026
G1 X0.1876 Y0.4888 Z0.0 E0.026
G1 X0.1961 Y0.4855 Z0.0 E0.026
G1 X0.2046 Y0.482 Z0.0 E0.026
G1 X0.213 Y0.4783 Z0.0 E0.026
G1 X0.2213 Y0.4745 Z0.0 E0.026
G1 X0.2295 Y0.4706 Z0.0 E0.026
G1 X0.2377 Y0.4665 Z0.0 E0.026
G1 X0.2458 Y0.4623 Z0.0 E0.026
G1 X0.2538 Y0.4579 Z0.0 E0.026
G1 X0.2618 Y0.4534 Z0.0 E0.026
G1 X0.2697 Y0.4488 Z0.0 E0.026
G1 X0.2775 Y0.444 Z0.0 E0.026
G1 X0.2852 Y0.4391 Z0.0 E0.026
G1 X0.2928 Y0.4341 Z0.0 E0.026
G1 X0.3003 Y0.4289 Z0.0 E0.026
G1 X0.3078 Y0.4236 Z0.0 E0.026
G1 X0.3151 Y0.4182 Z0.0 E0.026
G1 X0.3224 Y0.4126 Z0.0 E0.026
G1 X0.3295 Y0.4069 Z0.0 E0.026
G1 X0.3366 Y0.4011 Z0.0 E0.026
G1 X0.3435 Y0.3952 Z0.0 E0.026
G1 X0.3504 Y0.3891 Z0.0 E0.026
G1 X0.3571 Y0.3829 Z0.0 E0.026
G1 X0.3637 Y0.3766 Z0.0 E0.026
G1 X0.3702 Y0.3702 Z0.0 E0.026
G1 X0.3766 Y0.3637 Z0.0 E0.026
G1 X0.3829 Y0.3571 Z0.0 E0.026
G1 X0.3891 Y0.3504 Z0.0 E0.026
G1 X0.3952 Y0.3435 Z0.0 E0.026
G1 X0.4011 Y0.3366 Z0.0 E0.026
G1 X0.4069 Y0.3295 Z0.0 E0.026
G1 X0.4126 Y0.3224 Z0.0 E0.026
G1 X0.4182 Y0.3151 Z0.0 E0.026
G1 X0.4236 Y0.3078 Z0.0 E0.026
G1 X0.4289 Y0.3003 Z0.0 E0.026
G1 X0.4341 Y0.2928 Z0.0 E0.026
G1 X0.4391 Y0.2852 Z0.0 E0.026
G1 X0.444 Y0.2775 Z0.0 E0.026
G1 X0.4488 Y0.2697 Z0.0 E0.026
G1 X0.4534 Y0.2618 Z0.0 E0.026
G1 X0.4579 Y0.2538 Z0.0 E0.026
G1 X0.4623 Y0.2458 Z0.0 E0.026
G1 X0.4665 Y0.2377 Z0.0 E0.026
G1 X0.4706 Y0.2295 Z0.0 E0.026
G1 X0.4745 Y0.2213 Z0.0 E0.026
G1 X0.4783 Y0.213 Z0.0 E0.026
G1 X0.482 Y0.2046 Z0.0 E0.026
G1 X0.4855 Y0.1961 Z0.0 E0.026
G1 X0.4888 Y0.1876 Z0.0 E0.026
G1 X0.492 Y0.1791 Z0.0 E0.026
G1 X0.4951 Y0.1705 Z0.0 E0.026
G1 X0.498 Y0.1618 Z0.0 E0.026
G1 X0.5007 Y0.1531 Z0.0 E0.026
G1 X0.5033 Y0.1443 Z0.0 E0.026
G1 X0.5058 Y0.1355 Z0.0 E0.026
G1 X0.508 Y0.1267 Z0.0 E0.026
G1 X0.5102 Y0.1178 Z0.0 E0.026
G1 X0.5122 Y0.1089 Z0.0 E0.026
G1 X0.514 Y0.0999 Z0.0 E0.026
G1 X0.5156 Y0.0909 Z0.0 E0.026
G1 X0.5172 Y0.0819 Z0.0 E0.026
G1 X0.5185 Y0.0729 Z0.0 E0.026
G1 X0.5197 Y0.0638 Z0.0 E0.026
G1 X0.5207 Y0.0547 Z0.0 E0.026
G1 X0.5216 Y0.0456 Z0.0 E0.026
G1 X0.5223 Y0.0365 Z0.0 E0.026
G1 X0.5229 Y0.0274 Z0.0 E0.026
G1 X0.5233 Y0.0183 Z0.0 E0.026
G1 X0.5235 Y0.0091 Z0.0 E0.026
G1 Z0.2
G1 X0.5236 Y0.0 Z0.0 E0.026
G1 X0.5235 Y-0.0091 Z0.0 E0.026
G1 X0.5233 Y-0.0183 Z0.0 E0.026
G1 X0.5229 Y-0.0274 Z0.0 E0.026
G1 X0.5223 Y-0.0365 Z0.0 E0.026
G1 X0.5216 Y-0.0456 Z0.0 E0.026
G1 X0.5207 Y-0.0547 Z0.0 E0.026
G1 X0.5197 Y-0.0638 Z0.0 E0.026
G1 X0.5185 Y-0.0729 Z0.0 E0.026
G1 X0.5172 Y-0.0819 Z0.0 E0.026
G1 X0.5156 Y-0.0909 Z0.0 E0.026
G1 X0.514 Y-0.0999 Z0.0 E0.026
G1 X0.5122 Y-0.1089 Z0.0 E0.026
G1 X0.5102 Y-0.1178 Z0.0 E0.026
G1 X0.508 Y-0.1267 Z0.0 E0.026
G1 X0.5058 Y-0.1355 Z0.0 E0.026
G1 X0.5033 Y-0.1443 Z0.0 E0.026
G1 X0.5007 Y-0.1531 Z0.0 E0.026
G1 X0.498 Y-0.1618 Z0.0 E0.026
G1 X0.4951 Y-0.1705 Z0.0 E0.026
G1 X0.492 Y-0.1791 Z0.0 E0.026
G1 X0.4888 Y-0.1876 Z0.0 E0.026
G1 X0.4855 Y-0.1961 Z0.0 E0.026
G1 X0.482 Y-0.2046 Z0.0 E0.026
G1 X0.4783 Y-0.213 Z0.0 E0.026
G1 X0.4745 Y-0.2213 Z0.0 E0.026
G1 X0.4706 Y-0.2295 Z0.0 E0.026
G1 X0.4665 Y-0.2377 Z0.0 E0.026
G1 X0.4623 Y-0.2458 Z0.0 E0.026
G1 X0.4579 Y-0.2538 Z0.0 E0.026
G1 X0.4534 Y-0.2618 Z0.0 E0.026
G1 X0.4488 Y-0.2697 Z0.0 E0.026
G1 X0.444 Y-0.2775 Z0.0 E0.026
G1 X0.4391 Y-0.2852 Z0.0 E0.026
G1 X0.4341 Y-0.2928 Z0.0 E0.026
G1 X0.4289 Y-0.3003 Z0.0 E0.026
G1 X0.4236 Y-0.3078 Z0.0 E0.026
G1 X0.4182 Y-0.3151 Z0.0 E0.026
G1 X0.4126 Y-0.3224 Z0.0 E0.026
G1 X0.4069 Y-0.3295 Z0.0 E0.026
G1 X0.4011 Y-0.3366 Z0.0 E0.026
G1 X0.3952 Y-0.3435 Z0.0 E0.026
G1 X0.3891 Y-0.3504 Z0.0 E0.026
G1 X0.3829 Y-0.3571 Z0.0 E0.026
G1 X0.3766 Y-0.3637 Z0.0 E0.026
G1 X0.3702 Y-0.3702 Z0.0 E0.026
G1 X0.3637 Y-0.3766 Z0.0 E0.026
G1 X0.3571 Y-0.3829 Z0.0 E0.026
G1 X0.3504 Y-0.3891 Z0.0 E0.026
G1 X0.3435 Y-0.3952 Z0.0 E0.026
G1 X0.3366 Y-0.4011 Z0.0 E0.026
G1 X0.3295 Y-0.4069 Z0.0 E0.026
G1 X0.3224 Y-0.4126 Z0.0 E0.026
G1 X0.3151 Y-0.4182 Z0.0 E0.026
G1 X0.3078 Y-0.4236 Z0.0 E0.026
G1 X0.3003 Y-0.4289 Z0.0 E0.026
G1 X0.2928 Y-0.4341 Z0.0 E0.026
G1 X0.2852 Y-0.4391 Z0.0 E0.026
G1 X0.2775 Y-0.444 Z0.0 E0.026
G1 X0.2697 Y-0.4488 Z0.0 E0.026
G1 X0.2618 Y-0.4534 Z0.0 E0.026
G1 X0.2538 Y-0.4579 Z0.0 E0.026
G1 X0.2458 Y-0.4623 Z0.0 E0.026
G1 X0.2377 Y-0.4665 Z0.0 E0.026
G1 X0.2295 Y-0.4706 Z0.0 E0.026
G1 X0.2213 Y-0.4745 Z0.0 E0.026
G1 X0.213 Y-0.4783 Z0.0 E0.026
G1 X0.2046 Y-0.482 Z0.0 E0.026
G1 X0.1961 Y-0.4855 Z0.0 E0.026
G1 X0.1876 Y-0.4888 Z0.0 E0.026
G1 X0.1791 Y-0.492 Z0.0 E0.026
G1 X0.1705 Y-0.4951 Z0.0 E0.026
G1 X0.1618 Y-0.498 Z0.0 E0.026
G1 X0.1531 Y-0.5007 Z0.0 E0.026
G1 X0.1443 Y-0.5033 Z0.0 E0.026
G1 X0.1355 Y-0.5058 Z0.0 E0.026
G1 X0.1267 Y-0.508 Z0.0 E0.026
G1 X0.1178 Y-0.5102 Z0.0 E0.026
G1 X0.1089 Y-0.5122 Z0.0 E0.026
G1 X0.0999 Y-0.514 Z0.0 E0.026
G1 X0.0909 Y-0.5156 Z0.0 E0.026
G1 X0.0819 Y-0.5172 Z0.0 E0.026
G1 X0.0729 Y-0.5185 Z0.0 E0.026
G1 X0.0638 Y-0.5197 Z0.0 E0.026
G1 X0.0547 Y-0.5207 Z0.0 E0.026
G1 X0.0456 Y-0.5216 Z0.0 E0.026
G1 X0.0365 Y-0.5223 Z0.0 E0.026
G1 X0.0274 Y-0.5229 Z0.0 E0.026
G1 X0.0183 Y-0.5233 Z0.0 E0.026
G1 X0.0091 Y-0.5235 Z0.0 E0.026
G1 X-45.0 Y25.9808 Z-0.0 E2.598
G1 X0.0 Y-51.9615 Z0.0 E2.598
G1 X45.0 Y25.9808 Z0.0 E2.598
G1 X0.0 Y-0.5236 Z0.0 E0.026
G1 X-0.0091 Y-0.5235 Z0.0 E0.026
G1 X-0.0183 Y-0.5233 Z0.0 E0.026
G1 X-0.0274 Y-0.5229 Z0.0 E0.026
G1 X-0.0365 Y-0.5223 Z0.0 E0.026
G1 X-0.0456 Y-0.5216 Z0.0 E0.026
G1 X-0.0547 Y-0.5207 Z0.0 E0.026
G1 X-0.0638 Y-0.5197 Z0.0 E0.026
G1 X-0.0729 Y-0.5185 Z0.0 E0.026
G1 X-0.0819 Y-0.5172 Z0.0 E0.026
G1 X-0.0909 Y-0.5156 Z0.0 E0.026
G1 X-0.0999 Y-0.514 Z0.0 E0.026
G1 X-0.1089 Y-0.5122 Z0.0 E0.026
G1 X-0.1178 Y-0.5102 Z0.0 E0.026
G1 X-0.1267 Y-0.508 Z0.0 E0.026
G1 X-0.1355 Y-0.5058 Z0.0 E0.026
G1 X-0.1443 Y-0.5033 Z0.0 E0.026
G1 X-0.1531 Y-0.5007 Z0.0 E0.026
G1 X-0.1618 Y-0.498 Z0.0 E0.026
G1 X-0.1705 Y-0.4951 Z0.0 E0.026
G1 X-0.1791 Y-0.492 Z0.0 E0.026
G1 X-0.1876 Y-0.4888 Z0.0 E0.026
G1 X-0.1961 Y-0.4855 Z0.0 E0.026
G1 X-0.2046 Y-0.482 Z0.0 E0.026
G1 X-0.213 Y-0.4783 Z0.0 E0.026
G1 X-0.2213 Y-0.4745 Z0.0 E0.026
G1 X-0.2295 Y-0.4706 Z0.0 E0.026
G1 X-0.2377 Y-0.4665 Z0.0 E0.026
G1 X-0.2458 Y-0.4623 Z0.0 E0.026
G1 X-0.2538 Y-0.4579 Z0.0 E0.026
G1 X-0.2618 Y-0.4534 Z0.0 E0.026
G1 X-0.2697 Y-0.4488 Z0.0 E0.026
G1 X-0.2775 Y-0.444 Z0.0 E0.026
G1 X-0.2852 Y-0.4391 Z0.0 E0.026
G1 X-0.2928 Y-0.4341 Z0.0 E0.026
G1 X-0.3003 Y-0.4289 Z0.0 E0.026
G1 X-0.3078 Y-0.4236 Z0.0 E0.026
G1 X-0.3151 Y-0.4182 Z0.0 E0.026
G1 X-0.3224 Y-0.4126 Z0.0 E0.026
G1 X-0.3295 Y-0.4069 Z0.0 E0.026
G1 X-0.3366 Y-0.4011 Z0.0 E0.026
G1 X-0.3435 Y-0.3952 Z0.0 E0.026
G1 X-0.3504 Y-0.3891 Z0.0 E0.026
G1 X-0.3571 Y-0.3829 Z0.0 E0.026
G1 X-0.3637 Y-0.3766 Z0.0 E0.026
G1 X-0.3702 Y-0.3702 Z0.0 E0.026
G1 X-0.3766 Y-0.3637 Z0.0 E0.026
G1 X-0.3829 Y-0.3571 Z0.0 E0.026
G1 X-0.3891 Y-0.3504 Z0.0 E0.026
G1 X-0.3952 Y-0.3435 Z0.0 E0.026
G1 X-0.4011 Y-0.3366 Z0.0 E0.026
G1 X-0.4069 Y-0.3295 Z0.0 E0.026
G1 X-0.4126 Y-0.3224 Z0.0 E0.026
G1 X-0.4182 Y-0.3151 Z0.0 E0.026
G1 X-0.4236 Y-0.3078 Z0.0 E0.026
G1 X-0.4289 Y-0.3003 Z0.0 E0.026
G1 X-0.4341 Y-0.2928 Z0.0 E0.026
G1 X-0.4391 Y-0.2852 Z0.0 E0.026
G1 X-0.444 Y-0.2775 Z0.0 E0.026
G1 X-0.4488 Y-0.2697 Z0.0 E0.026
G1 X-0.4534 Y-0.2618 Z0.0 E0.026
G1 X-0.4579 Y-0.2538 Z0.0 E0.026
G1 X-0.4623 Y-0.2458 Z0.0 E0.026
G1 X-0.4665 Y-0.2377 Z0.0 E0.026
G1 X-0.4706 Y-0.2295 Z0.0 E0.026
G1 X-0.4745 Y-0.2213 Z0.0 E0.026
G1 X-0.4783 Y-0.213 Z0.0 E0.026
G1 X-0.482 Y-0.2046 Z0.0 E0.026
G1 X-0.4855 Y-0.1961 Z0.0 E0.026
G1 X-0.4888 Y-0.1876 Z0.0 E0.026
G1 X-0.492 Y-0.1791 Z0.0 E0.026
G1 X-0.4951 Y-0.1705 Z0.0 E0.026
G1 X-0.498 Y-0.1618 Z0.0 E0.026
G1 X-0.5007 Y-0.1531 Z0.0 E0.026
G1 X-0.5033 Y-0.1443 Z0.0 E0.026
G1 X-0.5058 Y-0.1355 Z0.0 E0.026
G1 X-0.508 Y-0.1267 Z0.0 E0.026
G1 X-0.5102 Y-0.1178 Z0.0 E0.026
G1 X-0.5122 Y-0.1089 Z0.0 E0.026
G1 X-0.514 Y-0.0999 Z0.0 E0.026
G1 X-0.5156 Y-0.0909 Z0.0 E0.026
G1 X-0.5172 Y-0.0819 Z0.0 E0.026
G1 X-0.5185 Y-0.0729 Z0.0 E0.026
G1 X-0.5197 Y-0.0638 Z0.0 E0.026
G1 X-0.5207 Y-0.0547 Z0.0 E0.026
G1 X-0.5216 Y-0.0456 Z0.0 E0.026
G1 X-0.5223 Y-0.0365 Z0.0 E0.026
G1 X-0.5229 Y-0.0274 Z0.0 E0.026
G1 X-0.5233 Y-0.0183 Z0.0 E0.026
G1 X-0.5235 Y-0.0091 Z0.0 E0.026
G1 X-0.5236 Y-0.0 Z0.0 E0.026
G1 X-0.5235 Y0.0091 Z0.0 E0.026
G1 X-0.5233 Y0.0183 Z0.0 E0.026
G1 X-0.5229 Y0.0274 Z0.0 E0.026
G1 X-0.5223 Y0.0365 Z0.0 E0.026
G1 X-0.5216 Y0.0456 Z0.0 E0.026
G1 X-0.5207 Y0.0547 Z0.0 E0.026
G1 X-0.5197 Y0.0638 Z0.0 E0.026
G1 X-0.5185 Y0.0729 Z0.0 E0.026
G1 X-0.5172 Y0.0819 Z0.0 E0.026
G1 X-0.5156 Y0.0909 Z0.0 E0.026
G1 X-0.514 Y0.0999 Z0.0 E0.026
G1 X-0.5122 Y0.1089 Z0.0 E0.026
G1 X-0.5102 Y0.1178 Z0.0 E0.026
G1 X-0.508 Y0.1267 Z0.0 E0.026
G1 X-0.5058 Y0.1355 Z0.0 E0.026
G1 X-0.5033 Y0.1443 Z0.0 E0.026
G1 X-0.5007 Y0.1531 Z0.0 E0.026
G1 X-0.498 Y0.1618 Z0.0 E0.026
G1 X-0.4951 Y0.1705 Z0.0 E0.026
G1 X-0.492 Y0.1791 Z0.0 E0.026
G1 X-0.4888 Y0.1876 Z0.0 E0.026
G1 X-0.4855 Y0.1961 Z0.0 E0.026
G1 X-0.482 Y0.2046 Z0.0 E0.026
G1 X-0.4783 Y0.213 Z0.0 E0.026
G1 X-0.4745 Y0.2213 Z0.0 E0.026
G1 X-0.4706 Y0.2295 Z0.0 E0.026
G1 X-0.4665 Y0.2377 Z0.0 E0.026
G1 X-0.4623 Y0.2458 Z0.0 E0.026
G1 X-0.4579 Y0.2538 Z0.0 E0.026
G1 X-0.4534 Y0.2618 Z0.0 E0.026
G1 X-0.4488 Y0.2697 Z0.0 E0.026
G1 X-0.444 Y0.2775 Z0.0 E0.026
G1 X-0.4391 Y0.2852 Z0.0 E0.026
G1 X-0.4341 Y0.2928 Z0.0 E0.026
G1 X-0.4289 Y0.3003 Z0.0 E0.026
G1 X-0.4236 Y0.3078 Z0.0 E0.026
G1 X-0.4182 Y0.3151 Z0.0 E0.026
G1 X-0.4126 Y0.3224 Z0.0 E0.026
G1 X-0.4069 Y0.3295 Z0.0 E0.026
G1 X-0.4011 Y0.3366 Z0.0 E0.026
G1 X-0.3952 Y0.3435 Z0.0 E0.026
G1 X-0.3891 Y0.3504 Z0.0 E0.026
G1 X-0.3829 Y0.3571 Z0.0 E0.026
G1 X-0.3766 Y0.3637 Z0.0 E0.026
G1 X-0.3702 Y0.3702 Z0.0 E0.026
G1 X-0.3637 Y0.3766 Z0.0 E0.026
G1 X-0.3571 Y0.3829 Z0.0 E0.026
G1 X-0.3504 Y0.3891 Z0.0 E0.026
G1 X-0.3435 Y0.3952 Z0.0 E0.026
G1 X-0.3366 Y0.4011 Z0.0 E0.026
G1 X-0.3295 Y0.4069 Z0.0 E0.026
G1 X-0.3224 Y0.4126 Z0.0 E0.026
G1 X-0.3151 Y0.4182 Z0.0 E0.026
G1 X-0.3078 Y0.4236 Z0.0 E0.026
G1 X-0.3003 Y0.4289 Z0.0 E0.026
G1 X-0.2928 Y0.4341 Z0.0 E0.026
G1 X-0.2852 Y0.4391 Z0.0 E0.026
G1 X-0.2775 Y0.444 Z0.0 E0.026
G1 X-0.2697 Y0.4488 Z0.0 E0.026
G1 X-0.2618 Y0.4534 Z0.0 E0.026
G1 X-0.2538 Y0.4579 Z0.0 E0.026
G1 X-0.2458 Y0.4623 Z0.0 E0.026
G1 X-0.2377 Y0.4665 Z0.0 E0.026
G1 X-0.2295 Y0.4706 Z0.0 E0.026
G1 X-0.2213 Y0.4745 Z0.0 E0.026
G1 X-0.213 Y0.4783 Z0.0 E0.026
G1 X-0.2046 Y0.482 Z0.0 E0.026
G1 X-0.1961 Y0.4855 Z0.0 E0.026
G1 X-0.1876 Y0.4888 Z0.0 E0.026
G1 X-0.1791 Y0.492 Z0.0 E0.026
G1 X-0.1705 Y0.4951 Z0.0 E0.026
G1 X-0.1618 Y0.498 Z0.0 E0.026
G1 X-0.1531 Y0.5007 Z0.0 E0.026
G1 X-0.1443 Y0.5033 Z0.0 E0.026
G1 X-0.1355 Y0.5058 Z0.0 E0.026
G1 X-0.1267 Y0.508 Z0.0 E0.026
G1 X-0.1178 Y0.5102 Z0.0 E0.026
G1 X-0.1089 Y0.5122 Z0.0 E0.026
G1 X-0.0999 Y0.514 Z0.0 E0.026
G1 X-0.0909 Y0.5156 Z0.0 E0.026
G1 X-0.0819 Y0.5172 Z0.0 E0.026
G1 X-0.0729 Y0.5185 Z0.0 E0.026
G1 X-0.0638 Y0.5197 Z0.0 E0.026
G1 X-0.0547 Y0.5207 Z0.0 E0.026
G1 X-0.0456 Y0.5216 Z0.0 E0.026
G1 X-0.0365 Y0.5223 Z0.0 E0.026
G1 X-0.0274 Y0.5229 Z0.0 E0.026
G1 X-0.0183 Y0.5233 Z0.0 E0.026
G1 X-0.0091 Y0.5235 Z0.0 E0.026
G1 X-0.0 Y0.5236 Z0.0 E0.026
G1 X0.0091 Y0.5235 Z0.0 E0.026
G1 X0.0183 Y0.5233 Z0.0 E0.026
G1 X0.0274 Y0.5229 Z0.0 E0.026
G1 X0.0365 Y0.5223 Z0.0 E0.026
G1 X0.0456 Y0.5216 Z0.0 E0.026
G1 X0.0547 Y0.5207 Z0.0 E0.026
G1 X0.0638 Y0.5197 Z0.0 E0.026
G1 X0.0729 Y0.5185 Z0.0 E0.026
G1 X0.0819 Y0.5172 Z0.0 E0.026
G1 X0.0909 Y0.5156 Z0.0 E0.026
G1 X0.0999 Y0.514 Z0.0 E0.026
G1 X0.1089 Y0.5122 Z0.0 E0.026
G1 X0.1178 Y0.5102 Z0.0 E0.026
G1 X0.1267 Y0.508 Z0.0 E0.026
G1 X0.1355 Y0.5058 Z0.0 E0.026
G1 X0.1443 Y0.5033 Z0.0 E0.026
G1 X0.1531 Y0.5007 Z0.0 E0.026
G1 X0.1618 Y0.498 Z0.0 E0.026
G1 X0.1705 Y0.4951 Z0.0 E0.026
G1 X0.1791 Y0.492 Z0.0 E0.026
G1 X0.1876 Y0.4888 Z0.0 E0.026
G1 X0.1961 Y0.4855 Z0.0 E0.026
G1 X0.2046 Y0.482 Z0.0 E0.026
G1 X0.213 Y0.4783 Z0.0 E0.026
G1 X0.2213 Y0.4745 Z0.0 E0.026
G1 X0.2295 Y0.4706 Z0.0 E0.026
G1 X0.2377 Y0.4665 Z0.0 E0.026
G1 X0.2458 Y0.4623 Z0.0 E0.026
G1 X0.2538 Y0.4579 Z0.0 E0.026
G1 X0.2618 Y0.4534 Z0.0 E0.026
G1 X0.2697 Y0.4488 Z0.0 E0.026
G1 X0.2775 Y0.444 Z0.0 E0.026
G1 X0.2852 Y0.4391 Z0.0 E0.026
G1 X0.2928 Y0.4341 Z0.0 E0.026
G1 X0.3003 Y0.4289 Z0.0 E0.026
G1 X0.3078 Y0.4236 Z0.0 E0.026
G1 X0.3151 Y0.4182 Z0.0 E0.026
G1 X0.3224 Y0.4126 Z0.0 E0.026
G1 X0.3295 Y0.4069 Z0.0 E0.026
G1 X0.3366 Y0.4011 Z0.0 E0.026
G1 X0.3435 Y0.3952 Z0.0 E0.026
G1 X0.3504 Y0.3891 Z0.0 E0.026
G1 X0.3571 Y0.3829 Z0.0 E0.026
G1 X0.3637 Y0.3766 Z0.0 E0.026
G1 X0.3702 Y0.3702 Z0.0 E0.026
G1 X0.3766 Y0.3637 Z0.0 E0.026
G1 X0.3829 Y0.3571 Z0.0 E0.026
G1 X0.3891 Y0.3504 Z0.0 E0.026
G1 X0.3952 Y0.3435 Z0.0 E0.026
G1 X0.4011 Y0.3366 Z0.0 E0.026
G1 X0.4069 Y0.3295 Z0.0 E0.026
G1 X0.4126 Y0.3224 Z0.0 E0.026
G1 X0.4182 Y0.3151 Z0.0 E0.026
G1 X0.4236 Y0.3078 Z0.0 E0.026
G1 X0.4289 Y0.3003 Z0.0 E0.026
G1 X0.4341 Y0.2928 Z0.0 E0.026
G1 X0.4391 Y0.2852 Z0.0 E0.026
G1 X0.444 Y0.2775 Z0.0 E0.026
G1 X0.4488 Y0.2697 Z0.0 E0.026
G1 X0.4534 Y0.2618 Z0.0 E0.026
G1 X0.4579 Y0.2538 Z0.0 E0.026
G1 X0.4623 Y0.2458 Z0.0 E0.026
G1 X0.4665 Y0.2377 Z0.0 E0.026
G1 X0.4706 Y0.2295 Z0.0 E0.026
G1 X0.4745 Y0.2213 Z0.0 E0.026
G1 X0.4783 Y0.213 Z0.0 E0.026
G1 X0.482 Y0.2046 Z0.0 E0.026
G1 X0.4855 Y0.1961 Z0.0 E0.026
G1 X0.4888 Y0.1876 Z0.0 E0.026
G1 X0.492 Y0.1791 Z0.0 E0.026
G1 X0.4951 Y0.1705 Z0.0 E0.026
G1 X0.498 Y0.1618 Z0.0 E0.026
G1 X0.5007 Y0.1531 Z0.0 E0.026
G1 X0.5033 Y0.1443 Z0.0 E0.026
G1 X0.5058 Y0.1355 Z0.0 E0.026
G1 X0.508 Y0.1267 Z0.0 E0.026
G1 X0.5102 Y0.1178 Z0.0 E0.026
G1 X0.5122 Y0.1089 Z0.0 E0.026
G1 X0.514 Y0.0999 Z0.0 E0.026
G1 X0.5156 Y0.0909 Z0.0 E0.026
G1 X0.5172 Y0.0819 Z0.0 E0.026
G1 X0.5185 Y0.0729 Z0.0 E0.026
G1 X0.5197 Y0.0638 Z0.0 E0.026
G1 X0.5207 Y0.0547 Z0.0 E0.026
G1 X0.5216 Y0.0456 Z0.0 E0.026
G1 X0.5223 Y0.0365 Z0.0 E0.026
G1 X0.5229 Y0.0274 Z0.0 E0.026
G1 X0.5233 Y0.0183 Z0.0 E0.026
G1 X0.5235 Y0.0091 Z0.0 E0.026
G1 Z0.2
G1 X0.5236 Y0.0 Z0.0 E0.026
G1 X0.5235 Y-0.0091 Z0.0 E0.026
G1 X0.5233 Y-0.0183 Z0.0 E0.026
G1 X0.5229 Y-0.0274 Z0.0 E0.026
G1 X0.5223 Y-0.0365 Z0.0 E0.026
G1 X0.5216 Y-0.0456 Z0.0 E0.026
G1 X0.5207 Y-0.0547 Z0.0 E0.026
G1 X0.5197 Y-0.0638 Z0.0 E0.026
G1 X0.5185 Y-0.0729 Z0.0 E0.026
G1 X0.5172 Y-0.0819 Z0.0 E0.026
G1 X0.5156 Y-0.0909 Z0.0 E0.026
G1 X0.514 Y-0.0999 Z0.0 E0.026
G1 X0.5122 Y-0.1089 Z0.0 E0.026
G1 X0.5102 Y-0.1178 Z0.0 E0.026
G1 X0.508 Y-0.1267 Z0.0 E0.026
G1 X0.5058 Y-0.1355 Z0.0 E0.026
G1 X0.5033 Y-0.1443 Z0.0 E0.026
G1 X0.5007 Y-0.1531 Z0.0 E0.026
G1 X0.498 Y-0.1618 Z0.0 E0.026
G1 X0.4951 Y-0.1705 Z0.0 E0.026
G1 X0.492 Y-0.1791 Z0.0 E0.026
G1 X0.4888 Y-0.1876 Z0.0 E0.026
G1 X0.4855 Y-0.1961 Z0.0 E0.026
G1 X0.482 Y-0.2046 Z0.0 E0.026
G1 X0.4783 Y-0.213 Z0.0 E0.026
G1 X0.4745 Y-0.2213 Z0.0 E0.026
G1 X0.4706 Y-0.2295 Z0.0 E0.026
G1 X0.4665 Y-0.2377 Z0.0 E0.026
G1 X0.4623 Y-0.2458 Z0.0 E0.026
G1 X0.4579 Y-0.2538 Z0.0 E0.026
G1 X0.4534 Y-0.2618 Z0.0 E0.026
G1 X0.4488 Y-0.2697 Z0.0 E0.026
G1 X0.444 Y-0.2775 Z0.0 E0.026
G1 X0.4391 Y-0.2852 Z0.0 E0.026
G1 X0.4341 Y-0.2928 Z0.0 E0.026
G1 X0.4289 Y-0.3003 Z0.0 E0.026
G1 X0.4236 Y-0.3078 Z0.0 E0.026
G1 X0.4182 Y-0.3151 Z0.0 E0.026
G1 X0.4126 Y-0.3224 Z0.0 E0.026
G1 X0.4069 Y-0.3295 Z0.0 E0.026
G1 X0.4011 Y-0.3366 Z0.0 E0.026
G1 X0.3952 Y-0.3435 Z0.0 E0.026
G1 X0.3891 Y-0.3504 Z0.0 E0.026
G1 X0.3829 Y-0.3571 Z0.0 E0.026
G1 X0.3766 Y-0.3637 Z0.0 E0.026
G1 X0.3702 Y-0.3702 Z0.0 E0.026
G1 X0.3637 Y-0.3766 Z0.0 E0.026
G1 X0.3571 Y-0.3829 Z0.0 E0.026
G1 X0.3504 Y-0.3891 Z0.0 E0.026
G1 X0.3435 Y-0.3952 Z0.0 E0.026
G1 X0.3366 Y-0.4011 Z0.0 E0.026
G1 X0.3295 Y-0.4069 Z0.0 E0.026
G1 X0.3224 Y-0.4126 Z0.0 E0.026
G1 X0.3151 Y-0.4182 Z0.0 E0.026
G1 X0.3078 Y-0.4236 Z0.0 E0.026
G1 X0.3003 Y-0.4289 Z0.0 E0.026
G1 X0.2928 Y-0.4341 Z0.0 E0.026
G1 X0.2852 Y-0.4391 Z0.0 E0.026
G1 X0.2775 Y-0.444 Z0.0 E0.026
G1 X0.2697 Y-0.4488 Z0.0 E0.026
G1 X0.2618 Y-0.4534 Z0.0 E0.026
G1 X0.2538 Y-0.4579 Z0.0 E0.026
G1 X0.2458 Y-0.4623 Z0.0 E0.026
G1 X0.2377 Y-0.4665 Z0.0 E0.026
G1 X0.2295 Y-0.4706 Z0.0 E0.026
G1 X0.2213 Y-0.4745 Z0.0 E0.026
G1 X0.213 Y-0.4783 Z0.0 E0.026
G1 X0.2046 Y-0.482 Z0.0 E0.026
G1 X0.1961 Y-0.4855 Z0.0 E0.026
G1 X0.1876 Y-0.4888 Z0.0 E0.026
G1 X0.1791 Y-0.492 Z0.0 E0.026
G1 X0.1705 Y-0.4951 Z0.0 E0.026
G1 X0.1618 Y-0.498 Z0.0 E0.026
G1 X0.1531 Y-0.5007 Z0.0 E0.026
G1 X0.1443 Y-0.5033 Z0.0 E0.026
G1 X0.1355 Y-0.5058 Z0.0 E0.026
G1 X0.1267 Y-0.508 Z0.0 E0.026
G1 X0.1178 Y-0.5102 Z0.0 E0.026
G1 X0.1089 Y-0.5122 Z0.0 E0.026
G1 X0.0999 Y-0.514 Z0.0 E0.026
G1 X0.0909 Y-0.5156 Z0.0 E0.026
G1 X0.0819 Y-0.5172 Z0.0 E0.026
G1 X0.0729 Y-0.5185 Z0.0 E0.026
G1 X0.0638 Y-0.5197 Z0.0 E0.026
G1 X0.0547 Y-0.5207 Z0.0 E0.026
G1 X0.0456 Y-0.5216 Z0.0 E0.026
G1 X0.0365 Y-0.5223 Z0.0 E0.026
G1 X0.0274 Y-0.5229 Z0.0 E0.026
G1 X0.0183 Y-0.5233 Z0.0 E0.026
G1 X0.0091 Y-0.5235 Z0.0 E0.026
G1 X0.0 Y-0.5236 Z0.0 E0.026
G1 X-0.0091 Y-0.5235 Z0.0 E0.026
G1 X-0.0183 Y-0.5233 Z0.0 E0.026
G1 X-0.0274 Y-0.5229 Z0.0 E0.026
G1 X-0.0365 Y-0.5223 Z0.0 E0.026
G1 X-0.0456 Y-0.5216 Z0.0 E0.026
G1 X-0.0547 Y-0.5207 Z0.0 E0.026
G1 X-0.0638 Y-0.5197 Z0.0 E0.026
G1 X-0.0729 Y-0.5185 Z0.0 E0.026
G1 X-0.0819 Y-0.5172 Z0.0 E0.026
G1 X-0.0909 Y-0.5156 Z0.0 E0.026
G1 X-0.0999 Y-0.514 Z0.0 E0.026
G1 X-0.1089 Y-0.5122 Z0.0 E0.026
G1 X-0.1178 Y-0.5102 Z0.0 E0.026
G1 X-0.1267 Y-0.508 Z0.0 E0.026
G1 X-0.1355 Y-0.5058 Z0.0 E0.026
G1 X-0.1443 Y-0.5033 Z0.0 E0.026
G1 X-0.1531 Y-0.5007 Z0.0 E0.026
G1 X-0.1618 Y-0.498 Z0.0 E0.026
G1 X-0.1705 Y-0.4951 Z0.0 E0.026
G1 X-0.1791 Y-0.492 Z0.0 E0.026
G1 X-0.1876 Y-0.4888 Z0.0 E0.026
G1 X-0.1961 Y-0.4855 Z0.0 E0.026
G1 X-0.2046 Y-0.482 Z0.0 E0.026
G1 X-0.213 Y-0.4783 Z0.0 E0.026
G1 X-0.2213 Y-0.4745 Z0.0 E0.026
G1 X-0.2295 Y-0.4706 Z0.0 E0.026
G1 X-0.2377 Y-0.4665 Z0.0 E0.026
G1 X-0.2458 Y-0.4623 Z0.0 E0.026
G1 X-0.2538 Y-0.4579 Z0.0 E0.026
G1 X-0.2618 Y-0.4534 Z0.0 E0.026
G1 X-0.2697 Y-0.4488 Z0.0 E0.026
G1 X-0.2775 Y-0.444 Z0.0 E0.026
G1 X-0.2852 Y-0.4391 Z0.0 E0.026
G1 X-0.2928 Y-0.4341 Z0.0 E0.026
G1 X-0.3003 Y-0.4289 Z0.0 E0.026
G1 X-0.3078 Y-0.4236 Z0.0 E0.026
G1 X-0.3151 Y-0.4182 Z0.0 E0.026
G1 X-0.3224 Y-0.4126 Z0.0 E0.026
G1 X-0.3295 Y-0.4069 Z0.0 E0.026
G1 X-0.3366 Y-0.4011 Z0.0 E0.026
G1 X-0.3435 Y-0.3952 Z0.0 E0.026
G1 X-0.3504 Y-0.3891 Z0.0 E0.026
G1 X-0.3571 Y-0.3829 Z0.0 E0.026
G1 X-0.3637 Y-0.3766 Z0.0 E0.026
G1 X-0.3702 Y-0.3702 Z0.0 E0.026
G1 X-0.3766 Y-0.3637 Z0.0 E0.026
G1 X-0.3829 Y-0.3571 Z0.0 E0.026
G1 X-0.3891 Y-0.3504 Z0.0 E0.026
G1 X-0.3952 Y-0.3435 Z0.0 E0.026
G1 X-0.4011 Y-0.3366 Z0.0 E0.026
G1 X-0.4069 Y-0.3295 Z0.0 E0.026
G1 X-0.4126 Y-0.3224 Z0.0 E0.026
G1 X-0.4182 Y-0.3151 Z0.0 E0.026
G1 X-0.4236 Y-0.3078 Z0.0 E0.026
G1 X-0.4289 Y-0.3003 Z0.0 E0.026
G1 X-0.4341 Y-0.2928 Z0.0 E0.026
G1 X-0.4391 Y-0.2852 Z0.0 E0.026
G1 X-0.444 Y-0.2775 Z0.0 E0.026
G1 X-0.4488 Y-0.2697 Z0.0 E0.026
G1 X-0.4534 Y-0.2618 Z0.0 E0.026
G1 X-0.4579 Y-0.2538 Z0.0 E0.026
G1 X-0.4623 Y-0.2458 Z0.0 E0.026
G1 X-0.4665 Y-0.2377 Z0.0 E0.026
G1 X-0.4706 Y-0.2295 Z0.0 E0.026
G1 X-0.4745 Y-0.2213 Z0.0 E0.026
G1 X-0.4783 Y-0.213 Z0.0 E0.026
G1 X-0.482 Y-0.2046 Z0.0 E0.026
G1 X-0.4855 Y-0.1961 Z0.0 E0.026
G1 X-0.4888 Y-0.1876 Z0.0 E0.026
G1 X-0.492 Y-0.1791 Z0.0 E0.026
G1 X-0.4951 Y-0.1705 Z0.0 E0.026
G1 X-0.498 Y-0.1618 Z0.0 E0.026
G1 X-0.5007 Y-0.1531 Z0.0 E0.026
G1 X-0.5033 Y-0.1443 Z0.0 E0.026
G1 X-0.5058 Y-0.1355 Z0.0 E0.026
G1 X-0.508 Y-0.1267 Z0.0 E0.026
G1 X-0.5102 Y-0.1178 Z0.0 E0.026
G1 X-0.5122 Y-0.1089 Z0.0 E0.026
G1 X-0.514 Y-0.0999 Z0.0 E0.026
G1 X-0.5156 Y-0.0909 Z0.0 E0.026
G1 X-0.5172 Y-0.0819 Z0.0 E0.026
G1 X-0.5185 Y-0.0729 Z0.0 E0.026
G1 X-0.5197 Y-0.0638 Z0.0 E0.026
G1 X-0.5207 Y-0.0547 Z0.0 E0.026
G1 X-0.5216 Y-0.0456 Z0.0 E0.026
G1 X-0.5223 Y-0.0365 Z0.0 E0.026
G1 X-0.5229 Y-0.0274 Z0.0 E0.026
G1 X-0.5233 Y-0.0183 Z0.0 E0.026
G1 X-0.5235 Y-0.0091 Z0.0 E0.026
G1 X-0.5236 Y-0.0 Z0.0 E0.026
G1 X-0.5235 Y0.0091 Z0.0 E0.026
G1 X-0.5233 Y0.0183 Z0.0 E0.026
G1 X-0.5229 Y0.0274 Z0.0 E0.026
G1 X-0.5223 Y0.0365 Z0.0 E0.026
G1 X-0.5216 Y0.0456 Z0.0 E0.026
G1 X-0.5207 Y0.0547 Z0.0 E0.026
G1 X-0.5197 Y0.0638 Z0.0 E0.026
G1 X-0.5185 Y0.0729 Z0.0 E0.026
G1 X-0.5172 Y0.0819 Z0.0 E0.026
G1 X-0.5156 Y0.0909 Z0.0 E0.026
G1 X-0.514 Y0.0999 Z0.0 E0.026
G1 X-0.5122 Y0.1089 Z0.0 E0.026
