; *************************************************
; *************************************************
; ******* File generated by Extruder Turtle *******
; ******* written by Leah Buechley and  ***********
; ******* and Franklin Pezutti-Dyer ***************
; **** Hand and Machine Lab, UNM, 2021-present ****
; *************************************************
; *************************************************
; ********** Default printer parameters ***********
; Printer: ender
; Nozzle size: 0.2
; Extrude width: 0.4
; Layer height: 0.2
; Extrude rate: 0.05
; Speed: 1000
; Mix Factor: 0.9
; *************** Ender initialization **************
G92 E0 ; Reset Extruder 
G28 ; Home all axes
G90 ; Absolute coordinates for X,Y,Z   
M190 S60 ; Set bed temperature and wait 
M109 S205 ; Set extruder temperature and wait 
G1 Z2.0 F3000 ; Move Z to 2mm above bed 
G1 X0.1 Y20 Z0.3 F5000.0 ; Move to start position
G1 X0.1 Y200.0 Z0.3 F1500.0 E15 ; Draw the first line
G1 X0.4 Y200.0 Z0.3 F5000.0 ; Move to side a little
G1 X0.4 Y20 Z0.3 F1500.0 E30 ; Draw the second line
G92 E0 ; Reset Extruder
G1 Z2.0 F3000 ; Move Z Axis up little to prevent scratching of Heat Bed 
G1 X5 Y20 Z0.3 F5000.0 ; Move over to prevent blob squish 
G92 E0 ; Reset extruder position to zero 
G1 F300 E-3 
G1 F2000
G1 0 0 .3               ; Lift nozzle above bed a little
G1 X100 Y100 Z.1        ; Go to the starting position 
F300 E3                 ; Extrude to get ready
M83 					; Relative extrustion
G91                     ; Relative coordinates for X,Y,Z axes
G1 F1000
; ********** End printer initialization ***********
; *************************************************

; *************** Begin print *********************
G1 X0.2618 Y0.0 Z0.0 E0.013
G1 X0.2618 Y-0.0046 Z0.0 E0.013
G1 X0.2616 Y-0.0091 Z0.0 E0.013
G1 X0.2614 Y-0.0137 Z0.0 E0.013
G1 X0.2612 Y-0.0183 Z0.0 E0.013
G1 X0.2608 Y-0.0228 Z0.0 E0.013
G1 X0.2604 Y-0.0274 Z0.0 E0.013
G1 X0.2598 Y-0.0319 Z0.0 E0.013
G1 X0.2593 Y-0.0364 Z0.0 E0.013
G1 X0.2586 Y-0.041 Z0.0 E0.013
G1 X0.2578 Y-0.0455 Z0.0 E0.013
G1 X0.257 Y-0.05 Z0.0 E0.013
G1 X0.2561 Y-0.0544 Z0.0 E0.013
G1 X0.2551 Y-0.0589 Z0.0 E0.013
G1 X0.254 Y-0.0633 Z0.0 E0.013
G1 X0.2529 Y-0.0678 Z0.0 E0.013
G1 X0.2517 Y-0.0722 Z0.0 E0.013
G1 X0.2504 Y-0.0765 Z0.0 E0.013
G1 X0.249 Y-0.0809 Z0.0 E0.013
G1 X0.2475 Y-0.0852 Z0.0 E0.013
G1 X0.246 Y-0.0895 Z0.0 E0.013
G1 X0.2444 Y-0.0938 Z0.0 E0.013
G1 X0.2427 Y-0.0981 Z0.0 E0.013
G1 X0.241 Y-0.1023 Z0.0 E0.013
G1 X0.2392 Y-0.1065 Z0.0 E0.013
G1 X0.2373 Y-0.1106 Z0.0 E0.013
G1 X0.2353 Y-0.1148 Z0.0 E0.013
G1 X0.2333 Y-0.1189 Z0.0 E0.013
G1 X0.2312 Y-0.1229 Z0.0 E0.013
G1 X0.229 Y-0.1269 Z0.0 E0.013
G1 X0.2267 Y-0.1309 Z0.0 E0.013
G1 X0.2244 Y-0.1348 Z0.0 E0.013
G1 X0.222 Y-0.1387 Z0.0 E0.013
G1 X0.2196 Y-0.1426 Z0.0 E0.013
G1 X0.217 Y-0.1464 Z0.0 E0.013
G1 X0.2145 Y-0.1502 Z0.0 E0.013
G1 X0.2118 Y-0.1539 Z0.0 E0.013
G1 X0.2091 Y-0.1576 Z0.0 E0.013
G1 X0.2063 Y-0.1612 Z0.0 E0.013
G1 X0.2035 Y-0.1648 Z0.0 E0.013
G1 X0.2005 Y-0.1683 Z0.0 E0.013
G1 X0.1976 Y-0.1718 Z0.0 E0.013
G1 X0.1946 Y-0.1752 Z0.0 E0.013
G1 X0.1915 Y-0.1785 Z0.0 E0.013
G1 X0.1883 Y-0.1819 Z0.0 E0.013
G1 X0.1851 Y-0.1851 Z0.0 E0.013
G1 X0.1819 Y-0.1883 Z0.0 E0.013
G1 X0.1785 Y-0.1915 Z0.0 E0.013
G1 X0.1752 Y-0.1946 Z0.0 E0.013
G1 X0.1718 Y-0.1976 Z0.0 E0.013
G1 X0.1683 Y-0.2005 Z0.0 E0.013
G1 X0.1648 Y-0.2035 Z0.0 E0.013
G1 X0.1612 Y-0.2063 Z0.0 E0.013
G1 X0.1576 Y-0.2091 Z0.0 E0.013
G1 X0.1539 Y-0.2118 Z0.0 E0.013
G1 X0.1502 Y-0.2145 Z0.0 E0.013
G1 X0.1464 Y-0.217 Z0.0 E0.013
G1 X0.1426 Y-0.2196 Z0.0 E0.013
G1 X0.1387 Y-0.222 Z0.0 E0.013
G1 X0.1348 Y-0.2244 Z0.0 E0.013
G1 X0.1309 Y-0.2267 Z0.0 E0.013
G1 X0.1269 Y-0.229 Z0.0 E0.013
G1 X0.1229 Y-0.2312 Z0.0 E0.013
G1 X0.1189 Y-0.2333 Z0.0 E0.013
G1 X0.1148 Y-0.2353 Z0.0 E0.013
G1 X0.1106 Y-0.2373 Z0.0 E0.013
G1 X0.1065 Y-0.2392 Z0.0 E0.013
G1 X0.1023 Y-0.241 Z0.0 E0.013
G1 X0.0981 Y-0.2427 Z0.0 E0.013
G1 X0.0938 Y-0.2444 Z0.0 E0.013
G1 X0.0895 Y-0.246 Z0.0 E0.013
G1 X0.0852 Y-0.2475 Z0.0 E0.013
G1 X0.0809 Y-0.249 Z0.0 E0.013
G1 X0.0765 Y-0.2504 Z0.0 E0.013
G1 X0.0722 Y-0.2517 Z0.0 E0.013
G1 X0.0678 Y-0.2529 Z0.0 E0.013
G1 X0.0633 Y-0.254 Z0.0 E0.013
G1 X0.0589 Y-0.2551 Z0.0 E0.013
G1 X0.0544 Y-0.2561 Z0.0 E0.013
G1 X0.05 Y-0.257 Z0.0 E0.013
G1 X0.0455 Y-0.2578 Z0.0 E0.013
G1 X0.041 Y-0.2586 Z0.0 E0.013
G1 X0.0364 Y-0.2593 Z0.0 E0.013
G1 X0.0319 Y-0.2598 Z0.0 E0.013
G1 X0.0274 Y-0.2604 Z0.0 E0.013
G1 X0.0228 Y-0.2608 Z0.0 E0.013
G1 X0.0183 Y-0.2612 Z0.0 E0.013
G1 X0.0137 Y-0.2614 Z0.0 E0.013
G1 X0.0091 Y-0.2616 Z0.0 E0.013
G1 X0.0046 Y-0.2618 Z0.0 E0.013
G1 X0.0 Y-0.2618 Z0.0 E0.013
G1 X-0.0046 Y-0.2618 Z0.0 E0.013
G1 X-0.0091 Y-0.2616 Z0.0 E0.013
G1 X-0.0137 Y-0.2614 Z0.0 E0.013
G1 X-0.0183 Y-0.2612 Z0.0 E0.013
G1 X-0.0228 Y-0.2608 Z0.0 E0.013
G1 X-0.0274 Y-0.2604 Z0.0 E0.013
G1 X-0.0319 Y-0.2598 Z0.0 E0.013
G1 X-0.0364 Y-0.2593 Z0.0 E0.013
G1 X-0.041 Y-0.2586 Z0.0 E0.013
G1 X-0.0455 Y-0.2578 Z0.0 E0.013
G1 X-0.05 Y-0.257 Z0.0 E0.013
G1 X-0.0544 Y-0.2561 Z0.0 E0.013
G1 X-0.0589 Y-0.2551 Z0.0 E0.013
G1 X-0.0633 Y-0.254 Z0.0 E0.013
G1 X-0.0678 Y-0.2529 Z0.0 E0.013
G1 X-0.0722 Y-0.2517 Z0.0 E0.013
G1 X-0.0765 Y-0.2504 Z0.0 E0.013
G1 X-0.0809 Y-0.249 Z0.0 E0.013
G1 X-0.0852 Y-0.2475 Z0.0 E0.013
G1 X-0.0895 Y-0.246 Z0.0 E0.013
G1 X-0.0938 Y-0.2444 Z0.0 E0.013
G1 X-0.0981 Y-0.2427 Z0.0 E0.013
G1 X-0.1023 Y-0.241 Z0.0 E0.013
G1 X-0.1065 Y-0.2392 Z0.0 E0.013
G1 X-0.1106 Y-0.2373 Z0.0 E0.013
G1 X-0.1148 Y-0.2353 Z0.0 E0.013
G1 X-0.1189 Y-0.2333 Z0.0 E0.013
G1 X-0.1229 Y-0.2312 Z0.0 E0.013
G1 X-0.1269 Y-0.229 Z0.0 E0.013
G1 X-0.1309 Y-0.2267 Z0.0 E0.013
G1 X-0.1348 Y-0.2244 Z0.0 E0.013
G1 X-0.1387 Y-0.222 Z0.0 E0.013
G1 X-0.1426 Y-0.2196 Z0.0 E0.013
G1 X-0.1464 Y-0.217 Z0.0 E0.013
G1 X-0.1502 Y-0.2145 Z0.0 E0.013
G1 X-0.1539 Y-0.2118 Z0.0 E0.013
G1 X-0.1576 Y-0.2091 Z0.0 E0.013
G1 X-0.1612 Y-0.2063 Z0.0 E0.013
G1 X-0.1648 Y-0.2035 Z0.0 E0.013
G1 X-0.1683 Y-0.2005 Z0.0 E0.013
G1 X-0.1718 Y-0.1976 Z0.0 E0.013
G1 X-0.1752 Y-0.1946 Z0.0 E0.013
G1 X-0.1785 Y-0.1915 Z0.0 E0.013
G1 X-0.1819 Y-0.1883 Z0.0 E0.013
G1 X-0.1851 Y-0.1851 Z0.0 E0.013
G1 X-0.1883 Y-0.1819 Z0.0 E0.013
G1 X-0.1915 Y-0.1785 Z0.0 E0.013
G1 X-0.1946 Y-0.1752 Z0.0 E0.013
G1 X-0.1976 Y-0.1718 Z0.0 E0.013
G1 X-0.2005 Y-0.1683 Z0.0 E0.013
G1 X-0.2035 Y-0.1648 Z0.0 E0.013
G1 X-0.2063 Y-0.1612 Z0.0 E0.013
G1 X-0.2091 Y-0.1576 Z0.0 E0.013
G1 X-0.2118 Y-0.1539 Z0.0 E0.013
G1 X-0.2145 Y-0.1502 Z0.0 E0.013
G1 X-0.217 Y-0.1464 Z0.0 E0.013
G1 X-0.2196 Y-0.1426 Z0.0 E0.013
G1 X-0.222 Y-0.1387 Z0.0 E0.013
G1 X-0.2244 Y-0.1348 Z0.0 E0.013
G1 X-0.2267 Y-0.1309 Z0.0 E0.013
G1 X-0.229 Y-0.1269 Z0.0 E0.013
G1 X-0.2312 Y-0.1229 Z0.0 E0.013
G1 X-0.2333 Y-0.1189 Z0.0 E0.013
G1 X-0.2353 Y-0.1148 Z0.0 E0.013
G1 X-0.2373 Y-0.1106 Z0.0 E0.013
G1 X-0.2392 Y-0.1065 Z0.0 E0.013
G1 X-0.241 Y-0.1023 Z0.0 E0.013
G1 X-0.2427 Y-0.0981 Z0.0 E0.013
G1 X-0.2444 Y-0.0938 Z0.0 E0.013
G1 X-0.246 Y-0.0895 Z0.0 E0.013
G1 X-0.2475 Y-0.0852 Z0.0 E0.013
G1 X-0.249 Y-0.0809 Z0.0 E0.013
G1 X-0.2504 Y-0.0765 Z0.0 E0.013
G1 X-0.2517 Y-0.0722 Z0.0 E0.013
G1 X-0.2529 Y-0.0678 Z0.0 E0.013
G1 X-0.254 Y-0.0633 Z0.0 E0.013
G1 X-0.2551 Y-0.0589 Z0.0 E0.013
G1 X-0.2561 Y-0.0544 Z0.0 E0.013
G1 X-0.257 Y-0.05 Z0.0 E0.013
G1 X-0.2578 Y-0.0455 Z0.0 E0.013
G1 X-0.2586 Y-0.041 Z0.0 E0.013
G1 X-0.2593 Y-0.0364 Z0.0 E0.013
G1 X-0.2598 Y-0.0319 Z0.0 E0.013
G1 X-0.2604 Y-0.0274 Z0.0 E0.013
G1 X-0.2608 Y-0.0228 Z0.0 E0.013
G1 X-0.2612 Y-0.0183 Z0.0 E0.013
G1 X-0.2614 Y-0.0137 Z0.0 E0.013
G1 X-0.2616 Y-0.0091 Z0.0 E0.013
G1 X-0.2618 Y-0.0046 Z0.0 E0.013
G1 X-0.2618 Y-0.0 Z0.0 E0.013
G1 X-0.2618 Y0.0046 Z0.0 E0.013
G1 X-0.2616 Y0.0091 Z0.0 E0.013
G1 X-0.2614 Y0.0137 Z0.0 E0.013
G1 X-0.2612 Y0.0183 Z0.0 E0.013
G1 X-0.2608 Y0.0228 Z0.0 E0.013
G1 X-0.2604 Y0.0274 Z0.0 E0.013
G1 X-0.2598 Y0.0319 Z0.0 E0.013
G1 X-0.2593 Y0.0364 Z0.0 E0.013
G1 X-0.2586 Y0.041 Z0.0 E0.013
G1 X-0.2578 Y0.0455 Z0.0 E0.013
G1 X-0.257 Y0.05 Z0.0 E0.013
G1 X-0.2561 Y0.0544 Z0.0 E0.013
G1 X-0.2551 Y0.0589 Z0.0 E0.013
G1 X-0.254 Y0.0633 Z0.0 E0.013
G1 X-0.2529 Y0.0678 Z0.0 E0.013
G1 X-0.2517 Y0.0722 Z0.0 E0.013
G1 X-0.2504 Y0.0765 Z0.0 E0.013
G1 X-0.249 Y0.0809 Z0.0 E0.013
G1 X-0.2475 Y0.0852 Z0.0 E0.013
G1 X-0.246 Y0.0895 Z0.0 E0.013
G1 X-0.2444 Y0.0938 Z0.0 E0.013
G1 X-0.2427 Y0.0981 Z0.0 E0.013
G1 X-0.241 Y0.1023 Z0.0 E0.013
G1 X-0.2392 Y0.1065 Z0.0 E0.013
G1 X-0.2373 Y0.1106 Z0.0 E0.013
G1 X-0.2353 Y0.1148 Z0.0 E0.013
G1 X-0.2333 Y0.1189 Z0.0 E0.013
G1 X-0.2312 Y0.1229 Z0.0 E0.013
G1 X-0.229 Y0.1269 Z0.0 E0.013
G1 X-0.2267 Y0.1309 Z0.0 E0.013
G1 X-0.2244 Y0.1348 Z0.0 E0.013
G1 X-0.222 Y0.1387 Z0.0 E0.013
G1 X-0.2196 Y0.1426 Z0.0 E0.013
G1 X-0.217 Y0.1464 Z0.0 E0.013
G1 X-0.2145 Y0.1502 Z0.0 E0.013
G1 X-0.2118 Y0.1539 Z0.0 E0.013
G1 X-0.2091 Y0.1576 Z0.0 E0.013
G1 X-0.2063 Y0.1612 Z0.0 E0.013
G1 X-0.2035 Y0.1648 Z0.0 E0.013
G1 X-0.2005 Y0.1683 Z0.0 E0.013
G1 X-0.1976 Y0.1718 Z0.0 E0.013
G1 X-0.1946 Y0.1752 Z0.0 E0.013
G1 X-0.1915 Y0.1785 Z0.0 E0.013
G1 X-0.1883 Y0.1819 Z0.0 E0.013
G1 X-0.1851 Y0.1851 Z0.0 E0.013
G1 X-0.1819 Y0.1883 Z0.0 E0.013
G1 X-0.1785 Y0.1915 Z0.0 E0.013
G1 X-0.1752 Y0.1946 Z0.0 E0.013
G1 X-0.1718 Y0.1976 Z0.0 E0.013
G1 X-0.1683 Y0.2005 Z0.0 E0.013
G1 X-0.1648 Y0.2035 Z0.0 E0.013
G1 X-0.1612 Y0.2063 Z0.0 E0.013
G1 X-0.1576 Y0.2091 Z0.0 E0.013
G1 X-0.1539 Y0.2118 Z0.0 E0.013
G1 X-0.1502 Y0.2145 Z0.0 E0.013
G1 X-0.1464 Y0.217 Z0.0 E0.013
G1 X-0.1426 Y0.2196 Z0.0 E0.013
G1 X-0.1387 Y0.222 Z0.0 E0.013
G1 X-0.1348 Y0.2244 Z0.0 E0.013
G1 X-0.1309 Y0.2267 Z0.0 E0.013
G1 X-0.1269 Y0.229 Z0.0 E0.013
G1 X-0.1229 Y0.2312 Z0.0 E0.013
G1 X-0.1189 Y0.2333 Z0.0 E0.013
G1 X-0.1148 Y0.2353 Z0.0 E0.013
G1 X-0.1106 Y0.2373 Z0.0 E0.013
G1 X-0.1065 Y0.2392 Z0.0 E0.013
G1 X-0.1023 Y0.241 Z0.0 E0.013
G1 X-0.0981 Y0.2427 Z0.0 E0.013
G1 X-0.0938 Y0.2444 Z0.0 E0.013
G1 X-0.0895 Y0.246 Z0.0 E0.013
G1 X-0.0852 Y0.2475 Z0.0 E0.013
G1 X-0.0809 Y0.249 Z0.0 E0.013
G1 X-0.0765 Y0.2504 Z0.0 E0.013
G1 X-0.0722 Y0.2517 Z0.0 E0.013
G1 X-0.0678 Y0.2529 Z0.0 E0.013
G1 X-0.0633 Y0.254 Z0.0 E0.013
G1 X-0.0589 Y0.2551 Z0.0 E0.013
G1 X-0.0544 Y0.2561 Z0.0 E0.013
G1 X-0.05 Y0.257 Z0.0 E0.013
G1 X-0.0455 Y0.2578 Z0.0 E0.013
G1 X-0.041 Y0.2586 Z0.0 E0.013
G1 X-0.0364 Y0.2593 Z0.0 E0.013
G1 X-0.0319 Y0.2598 Z0.0 E0.013
G1 X-0.0274 Y0.2604 Z0.0 E0.013
G1 X-0.0228 Y0.2608 Z0.0 E0.013
G1 X-0.0183 Y0.2612 Z0.0 E0.013
G1 X-0.0137 Y0.2614 Z0.0 E0.013
G1 X-0.0091 Y0.2616 Z0.0 E0.013
G1 X-0.0046 Y0.2618 Z0.0 E0.013
G1 X-0.0 Y0.2618 Z0.0 E0.013
G1 X0.0046 Y0.2618 Z0.0 E0.013
G1 X0.0091 Y0.2616 Z0.0 E0.013
G1 X0.0137 Y0.2614 Z0.0 E0.013
G1 X0.0183 Y0.2612 Z0.0 E0.013
G1 X0.0228 Y0.2608 Z0.0 E0.013
G1 X0.0274 Y0.2604 Z0.0 E0.013
G1 X0.0319 Y0.2598 Z0.0 E0.013
G1 X0.0364 Y0.2593 Z0.0 E0.013
G1 X0.041 Y0.2586 Z0.0 E0.013
G1 X0.0455 Y0.2578 Z0.0 E0.013
G1 X0.05 Y0.257 Z0.0 E0.013
G1 X0.0544 Y0.2561 Z0.0 E0.013
G1 X0.0589 Y0.2551 Z0.0 E0.013
G1 X0.0633 Y0.254 Z0.0 E0.013
G1 X0.0678 Y0.2529 Z0.0 E0.013
G1 X0.0722 Y0.2517 Z0.0 E0.013
G1 X0.0765 Y0.2504 Z0.0 E0.013
G1 X0.0809 Y0.249 Z0.0 E0.013
G1 X0.0852 Y0.2475 Z0.0 E0.013
G1 X0.0895 Y0.246 Z0.0 E0.013
G1 X0.0938 Y0.2444 Z0.0 E0.013
G1 X0.0981 Y0.2427 Z0.0 E0.013
G1 X0.1023 Y0.241 Z0.0 E0.013
G1 X0.1065 Y0.2392 Z0.0 E0.013
G1 X0.1106 Y0.2373 Z0.0 E0.013
G1 X0.1148 Y0.2353 Z0.0 E0.013
G1 X0.1189 Y0.2333 Z0.0 E0.013
G1 X0.1229 Y0.2312 Z0.0 E0.013
G1 X0.1269 Y0.229 Z0.0 E0.013
G1 X0.1309 Y0.2267 Z0.0 E0.013
G1 X0.1348 Y0.2244 Z0.0 E0.013
G1 X0.1387 Y0.222 Z0.0 E0.013
G1 X0.1426 Y0.2196 Z0.0 E0.013
G1 X0.1464 Y0.217 Z0.0 E0.013
G1 X0.1502 Y0.2145 Z0.0 E0.013
G1 X0.1539 Y0.2118 Z0.0 E0.013
G1 X0.1576 Y0.2091 Z0.0 E0.013
G1 X0.1612 Y0.2063 Z0.0 E0.013
G1 X0.1648 Y0.2035 Z0.0 E0.013
G1 X0.1683 Y0.2005 Z0.0 E0.013
G1 X0.1718 Y0.1976 Z0.0 E0.013
G1 X0.1752 Y0.1946 Z0.0 E0.013
G1 X0.1785 Y0.1915 Z0.0 E0.013
G1 X0.1819 Y0.1883 Z0.0 E0.013
G1 X0.1851 Y0.1851 Z0.0 E0.013
G1 X0.1883 Y0.1819 Z0.0 E0.013
G1 X0.1915 Y0.1785 Z0.0 E0.013
G1 X0.1946 Y0.1752 Z0.0 E0.013
G1 X0.1976 Y0.1718 Z0.0 E0.013
G1 X0.2005 Y0.1683 Z0.0 E0.013
G1 X0.2035 Y0.1648 Z0.0 E0.013
G1 X0.2063 Y0.1612 Z0.0 E0.013
G1 X0.2091 Y0.1576 Z0.0 E0.013
G1 X0.2118 Y0.1539 Z0.0 E0.013
G1 X0.2145 Y0.1502 Z0.0 E0.013
G1 X0.217 Y0.1464 Z0.0 E0.013
G1 X0.2196 Y0.1426 Z0.0 E0.013
G1 X0.222 Y0.1387 Z0.0 E0.013
G1 X0.2244 Y0.1348 Z0.0 E0.013
G1 X0.2267 Y0.1309 Z0.0 E0.013
G1 X0.229 Y0.1269 Z0.0 E0.013
G1 X0.2312 Y0.1229 Z0.0 E0.013
G1 X0.2333 Y0.1189 Z0.0 E0.013
G1 X0.2353 Y0.1148 Z0.0 E0.013
G1 X0.2373 Y0.1106 Z0.0 E0.013
G1 X0.2392 Y0.1065 Z0.0 E0.013
G1 X0.241 Y0.1023 Z0.0 E0.013
G1 X0.2427 Y0.0981 Z0.0 E0.013
G1 X0.2444 Y0.0938 Z0.0 E0.013
G1 X0.246 Y0.0895 Z0.0 E0.013
G1 X0.2475 Y0.0852 Z0.0 E0.013
G1 X0.249 Y0.0809 Z0.0 E0.013
G1 X0.2504 Y0.0765 Z0.0 E0.013
G1 X0.2517 Y0.0722 Z0.0 E0.013
G1 X0.2529 Y0.0678 Z0.0 E0.013
G1 X0.254 Y0.0633 Z0.0 E0.013
G1 X0.2551 Y0.0589 Z0.0 E0.013
G1 X0.2561 Y0.0544 Z0.0 E0.013
G1 X0.257 Y0.05 Z0.0 E0.013
G1 X0.2578 Y0.0455 Z0.0 E0.013
G1 X0.2586 Y0.041 Z0.0 E0.013
G1 X0.2593 Y0.0364 Z0.0 E0.013
G1 X0.2598 Y0.0319 Z0.0 E0.013
G1 X0.2604 Y0.0274 Z0.0 E0.013
G1 X0.2608 Y0.0228 Z0.0 E0.013
G1 X0.2612 Y0.0183 Z0.0 E0.013
G1 X0.2614 Y0.0137 Z0.0 E0.013
G1 X0.2616 Y0.0091 Z0.0 E0.013
G1 X0.2618 Y0.0046 Z0.0 E0.013
G1 Z0.2
G1 X0.2618 Y0.0 Z0.0 E0.013
G1 X0.2618 Y-0.0046 Z0.0 E0.013
G1 X0.2616 Y-0.0091 Z0.0 E0.013
G1 X0.2614 Y-0.0137 Z0.0 E0.013
G1 X0.2612 Y-0.0183 Z0.0 E0.013
G1 X0.2608 Y-0.0228 Z0.0 E0.013
G1 X0.2604 Y-0.0274 Z0.0 E0.013
G1 X0.2598 Y-0.0319 Z0.0 E0.013
G1 X0.2593 Y-0.0364 Z0.0 E0.013
G1 X0.2586 Y-0.041 Z0.0 E0.013
G1 X0.2578 Y-0.0455 Z0.0 E0.013
G1 X0.257 Y-0.05 Z0.0 E0.013
G1 X0.2561 Y-0.0544 Z0.0 E0.013
G1 X0.2551 Y-0.0589 Z0.0 E0.013
G1 X0.254 Y-0.0633 Z0.0 E0.013
G1 X0.2529 Y-0.0678 Z0.0 E0.013
G1 X0.2517 Y-0.0722 Z0.0 E0.013
G1 X0.2504 Y-0.0765 Z0.0 E0.013
G1 X0.249 Y-0.0809 Z0.0 E0.013
G1 X0.2475 Y-0.0852 Z0.0 E0.013
G1 X0.246 Y-0.0895 Z0.0 E0.013
G1 X0.2444 Y-0.0938 Z0.0 E0.013
G1 X0.2427 Y-0.0981 Z0.0 E0.013
G1 X0.241 Y-0.1023 Z0.0 E0.013
G1 X0.2392 Y-0.1065 Z0.0 E0.013
G1 X0.2373 Y-0.1106 Z0.0 E0.013
G1 X0.2353 Y-0.1148 Z0.0 E0.013
G1 X0.2333 Y-0.1189 Z0.0 E0.013
G1 X0.2312 Y-0.1229 Z0.0 E0.013
G1 X0.229 Y-0.1269 Z0.0 E0.013
G1 X0.2267 Y-0.1309 Z0.0 E0.013
G1 X0.2244 Y-0.1348 Z0.0 E0.013
G1 X0.222 Y-0.1387 Z0.0 E0.013
G1 X0.2196 Y-0.1426 Z0.0 E0.013
G1 X0.217 Y-0.1464 Z0.0 E0.013
G1 X0.2145 Y-0.1502 Z0.0 E0.013
G1 X0.2118 Y-0.1539 Z0.0 E0.013
G1 X0.2091 Y-0.1576 Z0.0 E0.013
G1 X0.2063 Y-0.1612 Z0.0 E0.013
G1 X0.2035 Y-0.1648 Z0.0 E0.013
G1 X0.2005 Y-0.1683 Z0.0 E0.013
G1 X0.1976 Y-0.1718 Z0.0 E0.013
G1 X0.1946 Y-0.1752 Z0.0 E0.013
G1 X0.1915 Y-0.1785 Z0.0 E0.013
G1 X0.1883 Y-0.1819 Z0.0 E0.013
G1 X0.1851 Y-0.1851 Z0.0 E0.013
G1 X0.1819 Y-0.1883 Z0.0 E0.013
G1 X0.1785 Y-0.1915 Z0.0 E0.013
G1 X0.1752 Y-0.1946 Z0.0 E0.013
G1 X0.1718 Y-0.1976 Z0.0 E0.013
G1 X0.1683 Y-0.2005 Z0.0 E0.013
G1 X0.1648 Y-0.2035 Z0.0 E0.013
G1 X0.1612 Y-0.2063 Z0.0 E0.013
G1 X0.1576 Y-0.2091 Z0.0 E0.013
G1 X0.1539 Y-0.2118 Z0.0 E0.013
G1 X0.1502 Y-0.2145 Z0.0 E0.013
G1 X0.1464 Y-0.217 Z0.0 E0.013
G1 X0.1426 Y-0.2196 Z0.0 E0.013
G1 X0.1387 Y-0.222 Z0.0 E0.013
G1 X0.1348 Y-0.2244 Z0.0 E0.013
G1 X0.1309 Y-0.2267 Z0.0 E0.013
G1 X0.1269 Y-0.229 Z0.0 E0.013
G1 X0.1229 Y-0.2312 Z0.0 E0.013
G1 X0.1189 Y-0.2333 Z0.0 E0.013
G1 X0.1148 Y-0.2353 Z0.0 E0.013
G1 X0.1106 Y-0.2373 Z0.0 E0.013
G1 X0.1065 Y-0.2392 Z0.0 E0.013
G1 X0.1023 Y-0.241 Z0.0 E0.013
G1 X0.0981 Y-0.2427 Z0.0 E0.013
G1 X0.0938 Y-0.2444 Z0.0 E0.013
G1 X0.0895 Y-0.246 Z0.0 E0.013
G1 X0.0852 Y-0.2475 Z0.0 E0.013
G1 X0.0809 Y-0.249 Z0.0 E0.013
G1 X0.0765 Y-0.2504 Z0.0 E0.013
G1 X0.0722 Y-0.2517 Z0.0 E0.013
G1 X0.0678 Y-0.2529 Z0.0 E0.013
G1 X0.0633 Y-0.254 Z0.0 E0.013
G1 X0.0589 Y-0.2551 Z0.0 E0.013
G1 X0.0544 Y-0.2561 Z0.0 E0.013
G1 X0.05 Y-0.257 Z0.0 E0.013
G1 X0.0455 Y-0.2578 Z0.0 E0.013
G1 X0.041 Y-0.2586 Z0.0 E0.013
G1 X0.0364 Y-0.2593 Z0.0 E0.013
G1 X0.0319 Y-0.2598 Z0.0 E0.013
G1 X0.0274 Y-0.2604 Z0.0 E0.013
G1 X0.0228 Y-0.2608 Z0.0 E0.013
G1 X0.0183 Y-0.2612 Z0.0 E0.013
G1 X0.0137 Y-0.2614 Z0.0 E0.013
G1 X0.0091 Y-0.2616 Z0.0 E0.013
G1 X0.0046 Y-0.2618 Z0.0 E0.013
G1 X0.0 Y-0.2618 Z0.0 E0.013
G1 X-0.0046 Y-0.2618 Z0.0 E0.013
G1 X-0.0091 Y-0.2616 Z0.0 E0.013
G1 X-0.0137 Y-0.2614 Z0.0 E0.013
G1 X-0.0183 Y-0.2612 Z0.0 E0.013
G1 X-0.0228 Y-0.2608 Z0.0 E0.013
G1 X-0.0274 Y-0.2604 Z0.0 E0.013
G1 X-0.0319 Y-0.2598 Z0.0 E0.013
G1 X-0.0364 Y-0.2593 Z0.0 E0.013
G1 X-0.041 Y-0.2586 Z0.0 E0.013
G1 X-0.0455 Y-0.2578 Z0.0 E0.013
G1 X-0.05 Y-0.257 Z0.0 E0.013
G1 X-0.0544 Y-0.2561 Z0.0 E0.013
G1 X-0.0589 Y-0.2551 Z0.0 E0.013
G1 X-0.0633 Y-0.254 Z0.0 E0.013
G1 X-0.0678 Y-0.2529 Z0.0 E0.013
G1 X-0.0722 Y-0.2517 Z0.0 E0.013
G1 X-0.0765 Y-0.2504 Z0.0 E0.013
G1 X-0.0809 Y-0.249 Z0.0 E0.013
G1 X-0.0852 Y-0.2475 Z0.0 E0.013
G1 X-0.0895 Y-0.246 Z0.0 E0.013
G1 X-0.0938 Y-0.2444 Z0.0 E0.013
G1 X-0.0981 Y-0.2427 Z0.0 E0.013
G1 X-0.1023 Y-0.241 Z0.0 E0.013
G1 X-0.1065 Y-0.2392 Z0.0 E0.013
G1 X-0.1106 Y-0.2373 Z0.0 E0.013
G1 X-0.1148 Y-0.2353 Z0.0 E0.013
G1 X-0.1189 Y-0.2333 Z0.0 E0.013
G1 X-0.1229 Y-0.2312 Z0.0 E0.013
G1 X-0.1269 Y-0.229 Z0.0 E0.013
G1 X-0.1309 Y-0.2267 Z0.0 E0.013
G1 X-0.1348 Y-0.2244 Z0.0 E0.013
G1 X-0.1387 Y-0.222 Z0.0 E0.013
G1 X-0.1426 Y-0.2196 Z0.0 E0.013
G1 X-0.1464 Y-0.217 Z0.0 E0.013
G1 X-0.1502 Y-0.2145 Z0.0 E0.013
G1 X-0.1539 Y-0.2118 Z0.0 E0.013
G1 X-0.1576 Y-0.2091 Z0.0 E0.013
G1 X-0.1612 Y-0.2063 Z0.0 E0.013
G1 X-0.1648 Y-0.2035 Z0.0 E0.013
G1 X-0.1683 Y-0.2005 Z0.0 E0.013
G1 X-0.1718 Y-0.1976 Z0.0 E0.013
G1 X-0.1752 Y-0.1946 Z0.0 E0.013
G1 X-0.1785 Y-0.1915 Z0.0 E0.013
G1 X-0.1819 Y-0.1883 Z0.0 E0.013
G1 X-0.1851 Y-0.1851 Z0.0 E0.013
G1 X-0.1883 Y-0.1819 Z0.0 E0.013
G1 X-0.1915 Y-0.1785 Z0.0 E0.013
G1 X-0.1946 Y-0.1752 Z0.0 E0.013
G1 X-0.1976 Y-0.1718 Z0.0 E0.013
G1 X-0.2005 Y-0.1683 Z0.0 E0.013
G1 X-0.2035 Y-0.1648 Z0.0 E0.013
G1 X-0.2063 Y-0.1612 Z0.0 E0.013
G1 X-0.2091 Y-0.1576 Z0.0 E0.013
G1 X-0.2118 Y-0.1539 Z0.0 E0.013
G1 X-0.2145 Y-0.1502 Z0.0 E0.013
G1 X-0.217 Y-0.1464 Z0.0 E0.013
G1 X-0.2196 Y-0.1426 Z0.0 E0.013
G1 X-0.222 Y-0.1387 Z0.0 E0.013
G1 X-0.2244 Y-0.1348 Z0.0 E0.013
G1 X-0.2267 Y-0.1309 Z0.0 E0.013
G1 X-0.229 Y-0.1269 Z0.0 E0.013
G1 X-0.2312 Y-0.1229 Z0.0 E0.013
G1 X-0.2333 Y-0.1189 Z0.0 E0.013
G1 X-0.2353 Y-0.1148 Z0.0 E0.013
G1 X-0.2373 Y-0.1106 Z0.0 E0.013
G1 X-0.2392 Y-0.1065 Z0.0 E0.013
G1 X-0.241 Y-0.1023 Z0.0 E0.013
G1 X-0.2427 Y-0.0981 Z0.0 E0.013
G1 X-0.2444 Y-0.0938 Z0.0 E0.013
G1 X-0.246 Y-0.0895 Z0.0 E0.013
G1 X-0.2475 Y-0.0852 Z0.0 E0.013
G1 X-0.249 Y-0.0809 Z0.0 E0.013
G1 X-0.2504 Y-0.0765 Z0.0 E0.013
G1 X-0.2517 Y-0.0722 Z0.0 E0.013
G1 X-0.2529 Y-0.0678 Z0.0 E0.013
G1 X-0.254 Y-0.0633 Z0.0 E0.013
G1 X-0.2551 Y-0.0589 Z0.0 E0.013
G1 X-0.2561 Y-0.0544 Z0.0 E0.013
G1 X-0.257 Y-0.05 Z0.0 E0.013
G1 X-0.2578 Y-0.0455 Z0.0 E0.013
G1 X-0.2586 Y-0.041 Z0.0 E0.013
G1 X-0.2593 Y-0.0364 Z0.0 E0.013
G1 X-0.2598 Y-0.0319 Z0.0 E0.013
G1 X-0.2604 Y-0.0274 Z0.0 E0.013
G1 X-0.2608 Y-0.0228 Z0.0 E0.013
G1 X-0.2612 Y-0.0183 Z0.0 E0.013
G1 X-0.2614 Y-0.0137 Z0.0 E0.013
G1 X-0.2616 Y-0.0091 Z0.0 E0.013
G1 X-0.2618 Y-0.0046 Z0.0 E0.013
G1 X-0.2618 Y-0.0 Z0.0 E0.013
G1 X-0.2618 Y0.0046 Z0.0 E0.013
G1 X-0.2616 Y0.0091 Z0.0 E0.013
G1 X-0.2614 Y0.0137 Z0.0 E0.013
G1 X-0.2612 Y0.0183 Z0.0 E0.013
G1 X-0.2608 Y0.0228 Z0.0 E0.013
G1 X-0.2604 Y0.0274 Z0.0 E0.013
G1 X-0.2598 Y0.0319 Z0.0 E0.013
G1 X-0.2593 Y0.0364 Z0.0 E0.013
G1 X-0.2586 Y0.041 Z0.0 E0.013
G1 X-0.2578 Y0.0455 Z0.0 E0.013
G1 X-0.257 Y0.05 Z0.0 E0.013
G1 X-0.2561 Y0.0544 Z0.0 E0.013
G1 X-0.2551 Y0.0589 Z0.0 E0.013
G1 X-0.254 Y0.0633 Z0.0 E0.013
G1 X-0.2529 Y0.0678 Z0.0 E0.013
G1 X-0.2517 Y0.0722 Z0.0 E0.013
G1 X-0.2504 Y0.0765 Z0.0 E0.013
G1 X-0.249 Y0.0809 Z0.0 E0.013
G1 X-0.2475 Y0.0852 Z0.0 E0.013
G1 X-0.246 Y0.0895 Z0.0 E0.013
G1 X-0.2444 Y0.0938 Z0.0 E0.013
G1 X-0.2427 Y0.0981 Z0.0 E0.013
G1 X-0.241 Y0.1023 Z0.0 E0.013
G1 X-0.2392 Y0.1065 Z0.0 E0.013
G1 X-0.2373 Y0.1106 Z0.0 E0.013
G1 X-0.2353 Y0.1148 Z0.0 E0.013
G1 X-0.2333 Y0.1189 Z0.0 E0.013
G1 X-0.2312 Y0.1229 Z0.0 E0.013
G1 X-0.229 Y0.1269 Z0.0 E0.013
G1 X-0.2267 Y0.1309 Z0.0 E0.013
G1 X-0.2244 Y0.1348 Z0.0 E0.013
G1 X-0.222 Y0.1387 Z0.0 E0.013
G1 X-0.2196 Y0.1426 Z0.0 E0.013
G1 X-0.217 Y0.1464 Z0.0 E0.013
G1 X-0.2145 Y0.1502 Z0.0 E0.013
G1 X-0.2118 Y0.1539 Z0.0 E0.013
G1 X-0.2091 Y0.1576 Z0.0 E0.013
G1 X-0.2063 Y0.1612 Z0.0 E0.013
G1 X-0.2035 Y0.1648 Z0.0 E0.013
G1 X-0.2005 Y0.1683 Z0.0 E0.013
G1 X-0.1976 Y0.1718 Z0.0 E0.013
G1 X-0.1946 Y0.1752 Z0.0 E0.013
G1 X-0.1915 Y0.1785 Z0.0 E0.013
G1 X-0.1883 Y0.1819 Z0.0 E0.013
G1 X-0.1851 Y0.1851 Z0.0 E0.013
G1 X-0.1819 Y0.1883 Z0.0 E0.013
G1 X-0.1785 Y0.1915 Z0.0 E0.013
G1 X-0.1752 Y0.1946 Z0.0 E0.013
G1 X-0.1718 Y0.1976 Z0.0 E0.013
G1 X-0.1683 Y0.2005 Z0.0 E0.013
G1 X-0.1648 Y0.2035 Z0.0 E0.013
G1 X-0.1612 Y0.2063 Z0.0 E0.013
G1 X-0.1576 Y0.2091 Z0.0 E0.013
G1 X-0.1539 Y0.2118 Z0.0 E0.013
G1 X-0.1502 Y0.2145 Z0.0 E0.013
G1 X-0.1464 Y0.217 Z0.0 E0.013
G1 X-0.1426 Y0.2196 Z0.0 E0.013
G1 X-0.1387 Y0.222 Z0.0 E0.013
G1 X-0.1348 Y0.2244 Z0.0 E0.013
G1 X-0.1309 Y0.2267 Z0.0 E0.013
G1 X-0.1269 Y0.229 Z0.0 E0.013
G1 X-0.1229 Y0.2312 Z0.0 E0.013
G1 X-0.1189 Y0.2333 Z0.0 E0.013
G1 X-0.1148 Y0.2353 Z0.0 E0.013
G1 X-0.1106 Y0.2373 Z0.0 E0.013
G1 X-0.1065 Y0.2392 Z0.0 E0.013
G1 X-0.1023 Y0.241 Z0.0 E0.013
G1 X-0.0981 Y0.2427 Z0.0 E0.013
G1 X-0.0938 Y0.2444 Z0.0 E0.013
G1 X-0.0895 Y0.246 Z0.0 E0.013
G1 X-0.0852 Y0.2475 Z0.0 E0.013
G1 X-0.0809 Y0.249 Z0.0 E0.013
G1 X-0.0765 Y0.2504 Z0.0 E0.013
G1 X-0.0722 Y0.2517 Z0.0 E0.013
G1 X-0.0678 Y0.2529 Z0.0 E0.013
G1 X-0.0633 Y0.254 Z0.0 E0.013
G1 X-0.0589 Y0.2551 Z0.0 E0.013
G1 X-0.0544 Y0.2561 Z0.0 E0.013
G1 X-0.05 Y0.257 Z0.0 E0.013
G1 X-0.0455 Y0.2578 Z0.0 E0.013
G1 X-0.041 Y0.2586 Z0.0 E0.013
G1 X-0.0364 Y0.2593 Z0.0 E0.013
G1 X-0.0319 Y0.2598 Z0.0 E0.013
G1 X-0.0274 Y0.2604 Z0.0 E0.013
G1 X-0.0228 Y0.2608 Z0.0 E0.013
G1 X-0.0183 Y0.2612 Z0.0 E0.013
G1 X-0.0137 Y0.2614 Z0.0 E0.013
G1 X-0.0091 Y0.2616 Z0.0 E0.013
G1 X-0.0046 Y0.2618 Z0.0 E0.013
G1 X-0.0 Y0.2618 Z0.0 E0.013
G1 X0.0046 Y0.2618 Z0.0 E0.013
G1 X0.0091 Y0.2616 Z0.0 E0.013
G1 X0.0137 Y0.2614 Z0.0 E0.013
G1 X0.0183 Y0.2612 Z0.0 E0.013
G1 X0.0228 Y0.2608 Z0.0 E0.013
G1 X0.0274 Y0.2604 Z0.0 E0.013
G1 X0.0319 Y0.2598 Z0.0 E0.013
G1 X0.0364 Y0.2593 Z0.0 E0.013
G1 X0.041 Y0.2586 Z0.0 E0.013
G1 X0.0455 Y0.2578 Z0.0 E0.013
G1 X0.05 Y0.257 Z0.0 E0.013
G1 X0.0544 Y0.2561 Z0.0 E0.013
G1 X0.0589 Y0.2551 Z0.0 E0.013
G1 X0.0633 Y0.254 Z0.0 E0.013
G1 X0.0678 Y0.2529 Z0.0 E0.013
G1 X0.0722 Y0.2517 Z0.0 E0.013
G1 X0.0765 Y0.2504 Z0.0 E0.013
G1 X0.0809 Y0.249 Z0.0 E0.013
G1 X0.0852 Y0.2475 Z0.0 E0.013
G1 X0.0895 Y0.246 Z0.0 E0.013
G1 X0.0938 Y0.2444 Z0.0 E0.013
G1 X0.0981 Y0.2427 Z0.0 E0.013
G1 X0.1023 Y0.241 Z0.0 E0.013
G1 X0.1065 Y0.2392 Z0.0 E0.013
G1 X0.1106 Y0.2373 Z0.0 E0.013
G1 X0.1148 Y0.2353 Z0.0 E0.013
G1 X0.1189 Y0.2333 Z0.0 E0.013
G1 X0.1229 Y0.2312 Z0.0 E0.013
G1 X0.1269 Y0.229 Z0.0 E0.013
G1 X0.1309 Y0.2267 Z0.0 E0.013
G1 X0.1348 Y0.2244 Z0.0 E0.013
G1 X0.1387 Y0.222 Z0.0 E0.013
G1 X0.1426 Y0.2196 Z0.0 E0.013
G1 X0.1464 Y0.217 Z0.0 E0.013
G1 X0.1502 Y0.2145 Z0.0 E0.013
G1 X0.1539 Y0.2118 Z0.0 E0.013
G1 X0.1576 Y0.2091 Z0.0 E0.013
G1 X0.1612 Y0.2063 Z0.0 E0.013
G1 X0.1648 Y0.2035 Z0.0 E0.013
G1 X0.1683 Y0.2005 Z0.0 E0.013
G1 X0.1718 Y0.1976 Z0.0 E0.013
G1 X0.1752 Y0.1946 Z0.0 E0.013
G1 X0.1785 Y0.1915 Z0.0 E0.013
G1 X0.1819 Y0.1883 Z0.0 E0.013
G1 X0.1851 Y0.1851 Z0.0 E0.013
G1 X0.1883 Y0.1819 Z0.0 E0.013
G1 X0.1915 Y0.1785 Z0.0 E0.013
G1 X0.1946 Y0.1752 Z0.0 E0.013
G1 X0.1976 Y0.1718 Z0.0 E0.013
G1 X0.2005 Y0.1683 Z0.0 E0.013
G1 X0.2035 Y0.1648 Z0.0 E0.013
G1 X0.2063 Y0.1612 Z0.0 E0.013
G1 X0.2091 Y0.1576 Z0.0 E0.013
G1 X0.2118 Y0.1539 Z0.0 E0.013
G1 X0.2145 Y0.1502 Z0.0 E0.013
G1 X0.217 Y0.1464 Z0.0 E0.013
G1 X0.2196 Y0.1426 Z0.0 E0.013
G1 X0.222 Y0.1387 Z0.0 E0.013
G1 X0.2244 Y0.1348 Z0.0 E0.013
G1 X0.2267 Y0.1309 Z0.0 E0.013
G1 X0.229 Y0.1269 Z0.0 E0.013
G1 X0.2312 Y0.1229 Z0.0 E0.013
G1 X0.2333 Y0.1189 Z0.0 E0.013
G1 X0.2353 Y0.1148 Z0.0 E0.013
G1 X0.2373 Y0.1106 Z0.0 E0.013
G1 X0.2392 Y0.1065 Z0.0 E0.013
G1 X0.241 Y0.1023 Z0.0 E0.013
G1 X0.2427 Y0.0981 Z0.0 E0.013
G1 X0.2444 Y0.0938 Z0.0 E0.013
G1 X0.246 Y0.0895 Z0.0 E0.013
G1 X0.2475 Y0.0852 Z0.0 E0.013
G1 X0.249 Y0.0809 Z0.0 E0.013
G1 X0.2504 Y0.0765 Z0.0 E0.013
G1 X0.2517 Y0.0722 Z0.0 E0.013
G1 X0.2529 Y0.0678 Z0.0 E0.013
G1 X0.254 Y0.0633 Z0.0 E0.013
G1 X0.2551 Y0.0589 Z0.0 E0.013
G1 X0.2561 Y0.0544 Z0.0 E0.013
G1 X0.257 Y0.05 Z0.0 E0.013
G1 X0.2578 Y0.0455 Z0.0 E0.013
G1 X0.2586 Y0.041 Z0.0 E0.013
G1 X0.2593 Y0.0364 Z0.0 E0.013
G1 X0.2598 Y0.0319 Z0.0 E0.013
G1 X0.2604 Y0.0274 Z0.0 E0.013
G1 X0.2608 Y0.0228 Z0.0 E0.013
G1 X0.2612 Y0.0183 Z0.0 E0.013
G1 X0.2614 Y0.0137 Z0.0 E0.013
G1 X0.2616 Y0.0091 Z0.0 E0.013
G1 X0.2618 Y0.0046 Z0.0 E0.013
G1 Z0.2
G1 X0.2618 Y0.0 Z0.0 E0.013
G1 X0.2618 Y-0.0046 Z0.0 E0.013
G1 X0.2616 Y-0.0091 Z0.0 E0.013
G1 X0.2614 Y-0.0137 Z0.0 E0.013
G1 X0.2612 Y-0.0183 Z0.0 E0.013
G1 X0.2608 Y-0.0228 Z0.0 E0.013
G1 X0.2604 Y-0.0274 Z0.0 E0.013
G1 X0.2598 Y-0.0319 Z0.0 E0.013
G1 X0.2593 Y-0.0364 Z0.0 E0.013
G1 X0.2586 Y-0.041 Z0.0 E0.013
G1 X0.2578 Y-0.0455 Z0.0 E0.013
G1 X0.257 Y-0.05 Z0.0 E0.013
G1 X0.2561 Y-0.0544 Z0.0 E0.013
G1 X0.2551 Y-0.0589 Z0.0 E0.013
G1 X0.254 Y-0.0633 Z0.0 E0.013
G1 X0.2529 Y-0.0678 Z0.0 E0.013
G1 X0.2517 Y-0.0722 Z0.0 E0.013
G1 X0.2504 Y-0.0765 Z0.0 E0.013
G1 X0.249 Y-0.0809 Z0.0 E0.013
G1 X0.2475 Y-0.0852 Z0.0 E0.013
G1 X0.246 Y-0.0895 Z0.0 E0.013
G1 X0.2444 Y-0.0938 Z0.0 E0.013
G1 X0.2427 Y-0.0981 Z0.0 E0.013
G1 X0.241 Y-0.1023 Z0.0 E0.013
G1 X0.2392 Y-0.1065 Z0.0 E0.013
G1 X0.2373 Y-0.1106 Z0.0 E0.013
G1 X0.2353 Y-0.1148 Z0.0 E0.013
G1 X0.2333 Y-0.1189 Z0.0 E0.013
G1 X0.2312 Y-0.1229 Z0.0 E0.013
G1 X0.229 Y-0.1269 Z0.0 E0.013
G1 X0.2267 Y-0.1309 Z0.0 E0.013
G1 X0.2244 Y-0.1348 Z0.0 E0.013
G1 X0.222 Y-0.1387 Z0.0 E0.013
G1 X0.2196 Y-0.1426 Z0.0 E0.013
G1 X0.217 Y-0.1464 Z0.0 E0.013
G1 X0.2145 Y-0.1502 Z0.0 E0.013
G1 X0.2118 Y-0.1539 Z0.0 E0.013
G1 X0.2091 Y-0.1576 Z0.0 E0.013
G1 X0.2063 Y-0.1612 Z0.0 E0.013
G1 X0.2035 Y-0.1648 Z0.0 E0.013
G1 X0.2005 Y-0.1683 Z0.0 E0.013
G1 X0.1976 Y-0.1718 Z0.0 E0.013
G1 X0.1946 Y-0.1752 Z0.0 E0.013
G1 X0.1915 Y-0.1785 Z0.0 E0.013
G1 X0.1883 Y-0.1819 Z0.0 E0.013
G1 X0.1851 Y-0.1851 Z0.0 E0.013
G1 X0.1819 Y-0.1883 Z0.0 E0.013
G1 X0.1785 Y-0.1915 Z0.0 E0.013
G1 X0.1752 Y-0.1946 Z0.0 E0.013
G1 X0.1718 Y-0.1976 Z0.0 E0.013
G1 X0.1683 Y-0.2005 Z0.0 E0.013
G1 X0.1648 Y-0.2035 Z0.0 E0.013
G1 X0.1612 Y-0.2063 Z0.0 E0.013
G1 X0.1576 Y-0.2091 Z0.0 E0.013
G1 X0.1539 Y-0.2118 Z0.0 E0.013
G1 X0.1502 Y-0.2145 Z0.0 E0.013
G1 X0.1464 Y-0.217 Z0.0 E0.013
G1 X0.1426 Y-0.2196 Z0.0 E0.013
G1 X0.1387 Y-0.222 Z0.0 E0.013
G1 X0.1348 Y-0.2244 Z0.0 E0.013
G1 X0.1309 Y-0.2267 Z0.0 E0.013
G1 X0.1269 Y-0.229 Z0.0 E0.013
G1 X0.1229 Y-0.2312 Z0.0 E0.013
G1 X0.1189 Y-0.2333 Z0.0 E0.013
G1 X0.1148 Y-0.2353 Z0.0 E0.013
G1 X0.1106 Y-0.2373 Z0.0 E0.013
G1 X0.1065 Y-0.2392 Z0.0 E0.013
G1 X0.1023 Y-0.241 Z0.0 E0.013
G1 X0.0981 Y-0.2427 Z0.0 E0.013
G1 X0.0938 Y-0.2444 Z0.0 E0.013
G1 X0.0895 Y-0.246 Z0.0 E0.013
G1 X0.0852 Y-0.2475 Z0.0 E0.013
G1 X0.0809 Y-0.249 Z0.0 E0.013
G1 X0.0765 Y-0.2504 Z0.0 E0.013
G1 X0.0722 Y-0.2517 Z0.0 E0.013
G1 X0.0678 Y-0.2529 Z0.0 E0.013
G1 X0.0633 Y-0.254 Z0.0 E0.013
G1 X0.0589 Y-0.2551 Z0.0 E0.013
G1 X0.0544 Y-0.2561 Z0.0 E0.013
G1 X0.05 Y-0.257 Z0.0 E0.013
G1 X0.0455 Y-0.2578 Z0.0 E0.013
G1 X0.041 Y-0.2586 Z0.0 E0.013
G1 X0.0364 Y-0.2593 Z0.0 E0.013
G1 X0.0319 Y-0.2598 Z0.0 E0.013
G1 X0.0274 Y-0.2604 Z0.0 E0.013
G1 X0.0228 Y-0.2608 Z0.0 E0.013
G1 X0.0183 Y-0.2612 Z0.0 E0.013
G1 X0.0137 Y-0.2614 Z0.0 E0.013
G1 X0.0091 Y-0.2616 Z0.0 E0.013
G1 X0.0046 Y-0.2618 Z0.0 E0.013
G1 X0.0 Y-0.2618 Z0.0 E0.013
G1 X-0.0046 Y-0.2618 Z0.0 E0.013
G1 X-0.0091 Y-0.2616 Z0.0 E0.013
G1 X-0.0137 Y-0.2614 Z0.0 E0.013
G1 X-0.0183 Y-0.2612 Z0.0 E0.013
G1 X-0.0228 Y-0.2608 Z0.0 E0.013
G1 X-0.0274 Y-0.2604 Z0.0 E0.013
G1 X-0.0319 Y-0.2598 Z0.0 E0.013
G1 X-0.0364 Y-0.2593 Z0.0 E0.013
G1 X-0.041 Y-0.2586 Z0.0 E0.013
G1 X-0.0455 Y-0.2578 Z0.0 E0.013
G1 X-0.05 Y-0.257 Z0.0 E0.013
G1 X-0.0544 Y-0.2561 Z0.0 E0.013
G1 X-0.0589 Y-0.2551 Z0.0 E0.013
G1 X-0.0633 Y-0.254 Z0.0 E0.013
G1 X-0.0678 Y-0.2529 Z0.0 E0.013
G1 X-0.0722 Y-0.2517 Z0.0 E0.013
G1 X-0.0765 Y-0.2504 Z0.0 E0.013
G1 X-0.0809 Y-0.249 Z0.0 E0.013
G1 X-0.0852 Y-0.2475 Z0.0 E0.013
G1 X-0.0895 Y-0.246 Z0.0 E0.013
G1 X-0.0938 Y-0.2444 Z0.0 E0.013
G1 X-0.0981 Y-0.2427 Z0.0 E0.013
G1 X-0.1023 Y-0.241 Z0.0 E0.013
G1 X-0.1065 Y-0.2392 Z0.0 E0.013
G1 X-0.1106 Y-0.2373 Z0.0 E0.013
G1 X-0.1148 Y-0.2353 Z0.0 E0.013
G1 X-0.1189 Y-0.2333 Z0.0 E0.013
G1 X-0.1229 Y-0.2312 Z0.0 E0.013
G1 X-0.1269 Y-0.229 Z0.0 E0.013
G1 X-0.1309 Y-0.2267 Z0.0 E0.013
G1 X-0.1348 Y-0.2244 Z0.0 E0.013
G1 X-0.1387 Y-0.222 Z0.0 E0.013
G1 X-0.1426 Y-0.2196 Z0.0 E0.013
G1 X-0.1464 Y-0.217 Z0.0 E0.013
G1 X-0.1502 Y-0.2145 Z0.0 E0.013
G1 X-0.1539 Y-0.2118 Z0.0 E0.013
G1 X-0.1576 Y-0.2091 Z0.0 E0.013
G1 X-0.1612 Y-0.2063 Z0.0 E0.013
G1 X-0.1648 Y-0.2035 Z0.0 E0.013
G1 X-0.1683 Y-0.2005 Z0.0 E0.013
G1 X-0.1718 Y-0.1976 Z0.0 E0.013
G1 X-0.1752 Y-0.1946 Z0.0 E0.013
G1 X-0.1785 Y-0.1915 Z0.0 E0.013
G1 X-0.1819 Y-0.1883 Z0.0 E0.013
G1 X-0.1851 Y-0.1851 Z0.0 E0.013
G1 X-0.1883 Y-0.1819 Z0.0 E0.013
G1 X-0.1915 Y-0.1785 Z0.0 E0.013
G1 X-0.1946 Y-0.1752 Z0.0 E0.013
G1 X-0.1976 Y-0.1718 Z0.0 E0.013
G1 X-0.2005 Y-0.1683 Z0.0 E0.013
G1 X-0.2035 Y-0.1648 Z0.0 E0.013
G1 X-0.2063 Y-0.1612 Z0.0 E0.013
G1 X-0.2091 Y-0.1576 Z0.0 E0.013
G1 X-0.2118 Y-0.1539 Z0.0 E0.013
G1 X-0.2145 Y-0.1502 Z0.0 E0.013
G1 X-0.217 Y-0.1464 Z0.0 E0.013
G1 X-0.2196 Y-0.1426 Z0.0 E0.013
G1 X-0.222 Y-0.1387 Z0.0 E0.013
G1 X-0.2244 Y-0.1348 Z0.0 E0.013
G1 X-0.2267 Y-0.1309 Z0.0 E0.013
G1 X-0.229 Y-0.1269 Z0.0 E0.013
G1 X-0.2312 Y-0.1229 Z0.0 E0.013
G1 X-0.2333 Y-0.1189 Z0.0 E0.013
G1 X-0.2353 Y-0.1148 Z0.0 E0.013
G1 X-0.2373 Y-0.1106 Z0.0 E0.013
G1 X-0.2392 Y-0.1065 Z0.0 E0.013
G1 X-0.241 Y-0.1023 Z0.0 E0.013
G1 X-0.2427 Y-0.0981 Z0.0 E0.013
G1 X-0.2444 Y-0.0938 Z0.0 E0.013
G1 X-0.246 Y-0.0895 Z0.0 E0.013
G1 X-0.2475 Y-0.0852 Z0.0 E0.013
G1 X-0.249 Y-0.0809 Z0.0 E0.013
G1 X-0.2504 Y-0.0765 Z0.0 E0.013
G1 X-0.2517 Y-0.0722 Z0.0 E0.013
G1 X-0.2529 Y-0.0678 Z0.0 E0.013
G1 X-0.254 Y-0.0633 Z0.0 E0.013
G1 X-0.2551 Y-0.0589 Z0.0 E0.013
G1 X-0.2561 Y-0.0544 Z0.0 E0.013
G1 X-0.257 Y-0.05 Z0.0 E0.013
G1 X-0.2578 Y-0.0455 Z0.0 E0.013
G1 X-0.2586 Y-0.041 Z0.0 E0.013
G1 X-0.2593 Y-0.0364 Z0.0 E0.013
G1 X-0.2598 Y-0.0319 Z0.0 E0.013
G1 X-0.2604 Y-0.0274 Z0.0 E0.013
G1 X-0.2608 Y-0.0228 Z0.0 E0.013
G1 X-0.2612 Y-0.0183 Z0.0 E0.013
G1 X-0.2614 Y-0.0137 Z0.0 E0.013
G1 X-0.2616 Y-0.0091 Z0.0 E0.013
G1 X-0.2618 Y-0.0046 Z0.0 E0.013
G1 X-0.2618 Y-0.0 Z0.0 E0.013
G1 X-0.2618 Y0.0046 Z0.0 E0.013
G1 X-0.2616 Y0.0091 Z0.0 E0.013
G1 X-0.2614 Y0.0137 Z0.0 E0.013
G1 X-0.2612 Y0.0183 Z0.0 E0.013
G1 X-0.2608 Y0.0228 Z0.0 E0.013
G1 X-0.2604 Y0.0274 Z0.0 E0.013
G1 X-0.2598 Y0.0319 Z0.0 E0.013
G1 X-0.2593 Y0.0364 Z0.0 E0.013
G1 X-0.2586 Y0.041 Z0.0 E0.013
G1 X-0.2578 Y0.0455 Z0.0 E0.013
G1 X-0.257 Y0.05 Z0.0 E0.013
G1 X-0.2561 Y0.0544 Z0.0 E0.013
G1 X-0.2551 Y0.0589 Z0.0 E0.013
G1 X-0.254 Y0.0633 Z0.0 E0.013
G1 X-0.2529 Y0.0678 Z0.0 E0.013
G1 X-0.2517 Y0.0722 Z0.0 E0.013
G1 X-0.2504 Y0.0765 Z0.0 E0.013
G1 X-0.249 Y0.0809 Z0.0 E0.013
G1 X-0.2475 Y0.0852 Z0.0 E0.013
G1 X-0.246 Y0.0895 Z0.0 E0.013
G1 X-0.2444 Y0.0938 Z0.0 E0.013
G1 X-0.2427 Y0.0981 Z0.0 E0.013
G1 X-0.241 Y0.1023 Z0.0 E0.013
G1 X-0.2392 Y0.1065 Z0.0 E0.013
G1 X-0.2373 Y0.1106 Z0.0 E0.013
G1 X-0.2353 Y0.1148 Z0.0 E0.013
G1 X-0.2333 Y0.1189 Z0.0 E0.013
G1 X-0.2312 Y0.1229 Z0.0 E0.013
G1 X-0.229 Y0.1269 Z0.0 E0.013
G1 X-0.2267 Y0.1309 Z0.0 E0.013
G1 X-0.2244 Y0.1348 Z0.0 E0.013
G1 X-0.222 Y0.1387 Z0.0 E0.013
G1 X-0.2196 Y0.1426 Z0.0 E0.013
G1 X-0.217 Y0.1464 Z0.0 E0.013
G1 X-0.2145 Y0.1502 Z0.0 E0.013
G1 X-0.2118 Y0.1539 Z0.0 E0.013
G1 X-0.2091 Y0.1576 Z0.0 E0.013
G1 X-0.2063 Y0.1612 Z0.0 E0.013
G1 X-0.2035 Y0.1648 Z0.0 E0.013
G1 X-0.2005 Y0.1683 Z0.0 E0.013
G1 X-0.1976 Y0.1718 Z0.0 E0.013
G1 X-0.1946 Y0.1752 Z0.0 E0.013
G1 X-0.1915 Y0.1785 Z0.0 E0.013
G1 X-0.1883 Y0.1819 Z0.0 E0.013
G1 X-0.1851 Y0.1851 Z0.0 E0.013
G1 X-0.1819 Y0.1883 Z0.0 E0.013
G1 X-0.1785 Y0.1915 Z0.0 E0.013
G1 X-0.1752 Y0.1946 Z0.0 E0.013
G1 X-0.1718 Y0.1976 Z0.0 E0.013
G1 X-0.1683 Y0.2005 Z0.0 E0.013
G1 X-0.1648 Y0.2035 Z0.0 E0.013
G1 X-0.1612 Y0.2063 Z0.0 E0.013
G1 X-0.1576 Y0.2091 Z0.0 E0.013
G1 X-0.1539 Y0.2118 Z0.0 E0.013
G1 X-0.1502 Y0.2145 Z0.0 E0.013
G1 X-0.1464 Y0.217 Z0.0 E0.013
G1 X-0.1426 Y0.2196 Z0.0 E0.013
G1 X-0.1387 Y0.222 Z0.0 E0.013
G1 X-0.1348 Y0.2244 Z0.0 E0.013
G1 X-0.1309 Y0.2267 Z0.0 E0.013
G1 X-0.1269 Y0.229 Z0.0 E0.013
G1 X-0.1229 Y0.2312 Z0.0 E0.013
G1 X-0.1189 Y0.2333 Z0.0 E0.013
G1 X-0.1148 Y0.2353 Z0.0 E0.013
G1 X-0.1106 Y0.2373 Z0.0 E0.013
G1 X-0.1065 Y0.2392 Z0.0 E0.013
G1 X-0.1023 Y0.241 Z0.0 E0.013
G1 X-0.0981 Y0.2427 Z0.0 E0.013
G1 X-0.0938 Y0.2444 Z0.0 E0.013
G1 X-0.0895 Y0.246 Z0.0 E0.013
G1 X-0.0852 Y0.2475 Z0.0 E0.013
G1 X-0.0809 Y0.249 Z0.0 E0.013
G1 X-0.0765 Y0.2504 Z0.0 E0.013
G1 X-0.0722 Y0.2517 Z0.0 E0.013
G1 X-0.0678 Y0.2529 Z0.0 E0.013
G1 X-0.0633 Y0.254 Z0.0 E0.013
G1 X-0.0589 Y0.2551 Z0.0 E0.013
G1 X-0.0544 Y0.2561 Z0.0 E0.013
G1 X-0.05 Y0.257 Z0.0 E0.013
G1 X-0.0455 Y0.2578 Z0.0 E0.013
G1 X-0.041 Y0.2586 Z0.0 E0.013
G1 X-0.0364 Y0.2593 Z0.0 E0.013
G1 X-0.0319 Y0.2598 Z0.0 E0.013
G1 X-0.0274 Y0.2604 Z0.0 E0.013
G1 X-0.0228 Y0.2608 Z0.0 E0.013
G1 X-0.0183 Y0.2612 Z0.0 E0.013
G1 X-0.0137 Y0.2614 Z0.0 E0.013
G1 X-0.0091 Y0.2616 Z0.0 E0.013
G1 X-0.0046 Y0.2618 Z0.0 E0.013
G1 X-0.0 Y0.2618 Z0.0 E0.013
G1 X0.0046 Y0.2618 Z0.0 E0.013
G1 X0.0091 Y0.2616 Z0.0 E0.013
G1 X0.0137 Y0.2614 Z0.0 E0.013
G1 X0.0183 Y0.2612 Z0.0 E0.013
G1 X0.0228 Y0.2608 Z0.0 E0.013
G1 X0.0274 Y0.2604 Z0.0 E0.013
G1 X0.0319 Y0.2598 Z0.0 E0.013
G1 X0.0364 Y0.2593 Z0.0 E0.013
G1 X0.041 Y0.2586 Z0.0 E0.013
G1 X0.0455 Y0.2578 Z0.0 E0.013
G1 X0.05 Y0.257 Z0.0 E0.013
G1 X0.0544 Y0.2561 Z0.0 E0.013
G1 X0.0589 Y0.2551 Z0.0 E0.013
G1 X0.0633 Y0.254 Z0.0 E0.013
G1 X0.0678 Y0.2529 Z0.0 E0.013
G1 X0.0722 Y0.2517 Z0.0 E0.013
G1 X0.0765 Y0.2504 Z0.0 E0.013
G1 X0.0809 Y0.249 Z0.0 E0.013
G1 X0.0852 Y0.2475 Z0.0 E0.013
G1 X0.0895 Y0.246 Z0.0 E0.013
G1 X0.0938 Y0.2444 Z0.0 E0.013
G1 X0.0981 Y0.2427 Z0.0 E0.013
G1 X0.1023 Y0.241 Z0.0 E0.013
G1 X0.1065 Y0.2392 Z0.0 E0.013
G1 X0.1106 Y0.2373 Z0.0 E0.013
G1 X0.1148 Y0.2353 Z0.0 E0.013
G1 X0.1189 Y0.2333 Z0.0 E0.013
G1 X0.1229 Y0.2312 Z0.0 E0.013
G1 X0.1269 Y0.229 Z0.0 E0.013
G1 X0.1309 Y0.2267 Z0.0 E0.013
G1 X0.1348 Y0.2244 Z0.0 E0.013
G1 X0.1387 Y0.222 Z0.0 E0.013
G1 X0.1426 Y0.2196 Z0.0 E0.013
G1 X0.1464 Y0.217 Z0.0 E0.013
G1 X0.1502 Y0.2145 Z0.0 E0.013
G1 X0.1539 Y0.2118 Z0.0 E0.013
G1 X0.1576 Y0.2091 Z0.0 E0.013
G1 X0.1612 Y0.2063 Z0.0 E0.013
G1 X0.1648 Y0.2035 Z0.0 E0.013
G1 X0.1683 Y0.2005 Z0.0 E0.013
G1 X0.1718 Y0.1976 Z0.0 E0.013
G1 X0.1752 Y0.1946 Z0.0 E0.013
G1 X0.1785 Y0.1915 Z0.0 E0.013
G1 X0.1819 Y0.1883 Z0.0 E0.013
G1 X0.1851 Y0.1851 Z0.0 E0.013
G1 X0.1883 Y0.1819 Z0.0 E0.013
G1 X0.1915 Y0.1785 Z0.0 E0.013
G1 X0.1946 Y0.1752 Z0.0 E0.013
G1 X0.1976 Y0.1718 Z0.0 E0.013
G1 X0.2005 Y0.1683 Z0.0 E0.013
G1 X0.2035 Y0.1648 Z0.0 E0.013
G1 X0.2063 Y0.1612 Z0.0 E0.013
G1 X0.2091 Y0.1576 Z0.0 E0.013
G1 X0.2118 Y0.1539 Z0.0 E0.013
G1 X0.2145 Y0.1502 Z0.0 E0.013
G1 X0.217 Y0.1464 Z0.0 E0.013
G1 X0.2196 Y0.1426 Z0.0 E0.013
G1 X0.222 Y0.1387 Z0.0 E0.013
G1 X0.2244 Y0.1348 Z0.0 E0.013
G1 X0.2267 Y0.1309 Z0.0 E0.013
G1 X0.229 Y0.1269 Z0.0 E0.013
G1 X0.2312 Y0.1229 Z0.0 E0.013
G1 X0.2333 Y0.1189 Z0.0 E0.013
G1 X0.2353 Y0.1148 Z0.0 E0.013
G1 X0.2373 Y0.1106 Z0.0 E0.013
G1 X0.2392 Y0.1065 Z0.0 E0.013
G1 X0.241 Y0.1023 Z0.0 E0.013
G1 X0.2427 Y0.0981 Z0.0 E0.013
G1 X0.2444 Y0.0938 Z0.0 E0.013
G1 X0.246 Y0.0895 Z0.0 E0.013
G1 X0.2475 Y0.0852 Z0.0 E0.013
G1 X0.249 Y0.0809 Z0.0 E0.013
G1 X0.2504 Y0.0765 Z0.0 E0.013
G1 X0.2517 Y0.0722 Z0.0 E0.013
G1 X0.2529 Y0.0678 Z0.0 E0.013
G1 X0.254 Y0.0633 Z0.0 E0.013
G1 X0.2551 Y0.0589 Z0.0 E0.013
G1 X0.2561 Y0.0544 Z0.0 E0.013
G1 X0.257 Y0.05 Z0.0 E0.013
G1 X0.2578 Y0.0455 Z0.0 E0.013
G1 X0.2586 Y0.041 Z0.0 E0.013
G1 X0.2593 Y0.0364 Z0.0 E0.013
G1 X0.2598 Y0.0319 Z0.0 E0.013
G1 X0.2604 Y0.0274 Z0.0 E0.013
G1 X0.2608 Y0.0228 Z0.0 E0.013
G1 X0.2612 Y0.0183 Z0.0 E0.013
G1 X0.2614 Y0.0137 Z0.0 E0.013
G1 X0.2616 Y0.0091 Z0.0 E0.013
G1 X0.2618 Y0.0046 Z0.0 E0.013
G1 Z0.2
G1 X0.2618 Y0.0 Z0.0 E0.013
G1 X0.2618 Y-0.0046 Z0.0 E0.013
G1 X0.2616 Y-0.0091 Z0.0 E0.013
G1 X0.2614 Y-0.0137 Z0.0 E0.013
G1 X0.2612 Y-0.0183 Z0.0 E0.013
G1 X0.2608 Y-0.0228 Z0.0 E0.013
G1 X0.2604 Y-0.0274 Z0.0 E0.013
G1 X0.2598 Y-0.0319 Z0.0 E0.013
G1 X0.2593 Y-0.0364 Z0.0 E0.013
G1 X0.2586 Y-0.041 Z0.0 E0.013
G1 X0.2578 Y-0.0455 Z0.0 E0.013
G1 X0.257 Y-0.05 Z0.0 E0.013
G1 X0.2561 Y-0.0544 Z0.0 E0.013
G1 X0.2551 Y-0.0589 Z0.0 E0.013
G1 X0.254 Y-0.0633 Z0.0 E0.013
G1 X0.2529 Y-0.0678 Z0.0 E0.013
G1 X0.2517 Y-0.0722 Z0.0 E0.013
G1 X0.2504 Y-0.0765 Z0.0 E0.013
G1 X0.249 Y-0.0809 Z0.0 E0.013
G1 X0.2475 Y-0.0852 Z0.0 E0.013
G1 X0.246 Y-0.0895 Z0.0 E0.013
G1 X0.2444 Y-0.0938 Z0.0 E0.013
G1 X0.2427 Y-0.0981 Z0.0 E0.013
G1 X0.241 Y-0.1023 Z0.0 E0.013
G1 X0.2392 Y-0.1065 Z0.0 E0.013
G1 X0.2373 Y-0.1106 Z0.0 E0.013
G1 X0.2353 Y-0.1148 Z0.0 E0.013
G1 X0.2333 Y-0.1189 Z0.0 E0.013
G1 X0.2312 Y-0.1229 Z0.0 E0.013
G1 X0.229 Y-0.1269 Z0.0 E0.013
G1 X0.2267 Y-0.1309 Z0.0 E0.013
G1 X0.2244 Y-0.1348 Z0.0 E0.013
G1 X0.222 Y-0.1387 Z0.0 E0.013
G1 X0.2196 Y-0.1426 Z0.0 E0.013
G1 X0.217 Y-0.1464 Z0.0 E0.013
G1 X0.2145 Y-0.1502 Z0.0 E0.013
G1 X0.2118 Y-0.1539 Z0.0 E0.013
G1 X0.2091 Y-0.1576 Z0.0 E0.013
G1 X0.2063 Y-0.1612 Z0.0 E0.013
G1 X0.2035 Y-0.1648 Z0.0 E0.013
G1 X0.2005 Y-0.1683 Z0.0 E0.013
G1 X0.1976 Y-0.1718 Z0.0 E0.013
G1 X0.1946 Y-0.1752 Z0.0 E0.013
G1 X0.1915 Y-0.1785 Z0.0 E0.013
G1 X0.1883 Y-0.1819 Z0.0 E0.013
G1 X0.1851 Y-0.1851 Z0.0 E0.013
G1 X0.1819 Y-0.1883 Z0.0 E0.013
G1 X0.1785 Y-0.1915 Z0.0 E0.013
G1 X0.1752 Y-0.1946 Z0.0 E0.013
G1 X0.1718 Y-0.1976 Z0.0 E0.013
G1 X0.1683 Y-0.2005 Z0.0 E0.013
G1 X0.1648 Y-0.2035 Z0.0 E0.013
G1 X0.1612 Y-0.2063 Z0.0 E0.013
G1 X0.1576 Y-0.2091 Z0.0 E0.013
G1 X0.1539 Y-0.2118 Z0.0 E0.013
G1 X0.1502 Y-0.2145 Z0.0 E0.013
G1 X0.1464 Y-0.217 Z0.0 E0.013
G1 X0.1426 Y-0.2196 Z0.0 E0.013
G1 X0.1387 Y-0.222 Z0.0 E0.013
G1 X0.1348 Y-0.2244 Z0.0 E0.013
G1 X0.1309 Y-0.2267 Z0.0 E0.013
G1 X0.1269 Y-0.229 Z0.0 E0.013
G1 X0.1229 Y-0.2312 Z0.0 E0.013
G1 X0.1189 Y-0.2333 Z0.0 E0.013
G1 X0.1148 Y-0.2353 Z0.0 E0.013
G1 X0.1106 Y-0.2373 Z0.0 E0.013
G1 X0.1065 Y-0.2392 Z0.0 E0.013
G1 X0.1023 Y-0.241 Z0.0 E0.013
G1 X0.0981 Y-0.2427 Z0.0 E0.013
G1 X0.0938 Y-0.2444 Z0.0 E0.013
G1 X0.0895 Y-0.246 Z0.0 E0.013
G1 X0.0852 Y-0.2475 Z0.0 E0.013
G1 X0.0809 Y-0.249 Z0.0 E0.013
G1 X0.0765 Y-0.2504 Z0.0 E0.013
G1 X0.0722 Y-0.2517 Z0.0 E0.013
G1 X0.0678 Y-0.2529 Z0.0 E0.013
G1 X0.0633 Y-0.254 Z0.0 E0.013
G1 X0.0589 Y-0.2551 Z0.0 E0.013
G1 X0.0544 Y-0.2561 Z0.0 E0.013
G1 X0.05 Y-0.257 Z0.0 E0.013
G1 X0.0455 Y-0.2578 Z0.0 E0.013
G1 X0.041 Y-0.2586 Z0.0 E0.013
G1 X0.0364 Y-0.2593 Z0.0 E0.013
G1 X0.0319 Y-0.2598 Z0.0 E0.013
G1 X0.0274 Y-0.2604 Z0.0 E0.013
G1 X0.0228 Y-0.2608 Z0.0 E0.013
G1 X0.0183 Y-0.2612 Z0.0 E0.013
G1 X0.0137 Y-0.2614 Z0.0 E0.013
G1 X0.0091 Y-0.2616 Z0.0 E0.013
G1 X0.0046 Y-0.2618 Z0.0 E0.013
G1 X0.0 Y-0.2618 Z0.0 E0.013
G1 X-0.0046 Y-0.2618 Z0.0 E0.013
G1 X-0.0091 Y-0.2616 Z0.0 E0.013
G1 X-0.0137 Y-0.2614 Z0.0 E0.013
G1 X-0.0183 Y-0.2612 Z0.0 E0.013
G1 X-0.0228 Y-0.2608 Z0.0 E0.013
G1 X-0.0274 Y-0.2604 Z0.0 E0.013
G1 X-0.0319 Y-0.2598 Z0.0 E0.013
G1 X-0.0364 Y-0.2593 Z0.0 E0.013
G1 X-0.041 Y-0.2586 Z0.0 E0.013
G1 X-0.0455 Y-0.2578 Z0.0 E0.013
G1 X-0.05 Y-0.257 Z0.0 E0.013
G1 X-0.0544 Y-0.2561 Z0.0 E0.013
G1 X-0.0589 Y-0.2551 Z0.0 E0.013
G1 X-0.0633 Y-0.254 Z0.0 E0.013
G1 X-0.0678 Y-0.2529 Z0.0 E0.013
G1 X-0.0722 Y-0.2517 Z0.0 E0.013
G1 X-0.0765 Y-0.2504 Z0.0 E0.013
G1 X-0.0809 Y-0.249 Z0.0 E0.013
G1 X-0.0852 Y-0.2475 Z0.0 E0.013
G1 X-0.0895 Y-0.246 Z0.0 E0.013
G1 X-0.0938 Y-0.2444 Z0.0 E0.013
G1 X-0.0981 Y-0.2427 Z0.0 E0.013
G1 X-0.1023 Y-0.241 Z0.0 E0.013
G1 X-0.1065 Y-0.2392 Z0.0 E0.013
G1 X-0.1106 Y-0.2373 Z0.0 E0.013
G1 X-0.1148 Y-0.2353 Z0.0 E0.013
G1 X-0.1189 Y-0.2333 Z0.0 E0.013
G1 X-0.1229 Y-0.2312 Z0.0 E0.013
G1 X-0.1269 Y-0.229 Z0.0 E0.013
G1 X-0.1309 Y-0.2267 Z0.0 E0.013
G1 X-0.1348 Y-0.2244 Z0.0 E0.013
G1 X-0.1387 Y-0.222 Z0.0 E0.013
G1 X-0.1426 Y-0.2196 Z0.0 E0.013
G1 X-0.1464 Y-0.217 Z0.0 E0.013
G1 X-0.1502 Y-0.2145 Z0.0 E0.013
G1 X-0.1539 Y-0.2118 Z0.0 E0.013
G1 X-0.1576 Y-0.2091 Z0.0 E0.013
G1 X-0.1612 Y-0.2063 Z0.0 E0.013
G1 X-0.1648 Y-0.2035 Z0.0 E0.013
G1 X-0.1683 Y-0.2005 Z0.0 E0.013
G1 X-0.1718 Y-0.1976 Z0.0 E0.013
G1 X-0.1752 Y-0.1946 Z0.0 E0.013
G1 X-0.1785 Y-0.1915 Z0.0 E0.013
G1 X-0.1819 Y-0.1883 Z0.0 E0.013
G1 X-0.1851 Y-0.1851 Z0.0 E0.013
G1 X-0.1883 Y-0.1819 Z0.0 E0.013
G1 X-0.1915 Y-0.1785 Z0.0 E0.013
G1 X-0.1946 Y-0.1752 Z0.0 E0.013
G1 X-0.1976 Y-0.1718 Z0.0 E0.013
G1 X-0.2005 Y-0.1683 Z0.0 E0.013
G1 X-0.2035 Y-0.1648 Z0.0 E0.013
G1 X-0.2063 Y-0.1612 Z0.0 E0.013
G1 X-0.2091 Y-0.1576 Z0.0 E0.013
G1 X-0.2118 Y-0.1539 Z0.0 E0.013
G1 X-0.2145 Y-0.1502 Z0.0 E0.013
G1 X-0.217 Y-0.1464 Z0.0 E0.013
G1 X-0.2196 Y-0.1426 Z0.0 E0.013
G1 X-0.222 Y-0.1387 Z0.0 E0.013
G1 X-0.2244 Y-0.1348 Z0.0 E0.013
G1 X-0.2267 Y-0.1309 Z0.0 E0.013
G1 X-0.229 Y-0.1269 Z0.0 E0.013
G1 X-0.2312 Y-0.1229 Z0.0 E0.013
G1 X-0.2333 Y-0.1189 Z0.0 E0.013
G1 X-0.2353 Y-0.1148 Z0.0 E0.013
G1 X-0.2373 Y-0.1106 Z0.0 E0.013
G1 X-0.2392 Y-0.1065 Z0.0 E0.013
G1 X-0.241 Y-0.1023 Z0.0 E0.013
G1 X-0.2427 Y-0.0981 Z0.0 E0.013
G1 X-0.2444 Y-0.0938 Z0.0 E0.013
G1 X-0.246 Y-0.0895 Z0.0 E0.013
G1 X-0.2475 Y-0.0852 Z0.0 E0.013
G1 X-0.249 Y-0.0809 Z0.0 E0.013
G1 X-0.2504 Y-0.0765 Z0.0 E0.013
G1 X-0.2517 Y-0.0722 Z0.0 E0.013
G1 X-0.2529 Y-0.0678 Z0.0 E0.013
G1 X-0.254 Y-0.0633 Z0.0 E0.013
G1 X-0.2551 Y-0.0589 Z0.0 E0.013
G1 X-0.2561 Y-0.0544 Z0.0 E0.013
G1 X-0.257 Y-0.05 Z0.0 E0.013
G1 X-0.2578 Y-0.0455 Z0.0 E0.013
G1 X-0.2586 Y-0.041 Z0.0 E0.013
G1 X-0.2593 Y-0.0364 Z0.0 E0.013
G1 X-0.2598 Y-0.0319 Z0.0 E0.013
G1 X-0.2604 Y-0.0274 Z0.0 E0.013
G1 X-0.2608 Y-0.0228 Z0.0 E0.013
G1 X-0.2612 Y-0.0183 Z0.0 E0.013
G1 X-0.2614 Y-0.0137 Z0.0 E0.013
G1 X-0.2616 Y-0.0091 Z0.0 E0.013
G1 X-0.2618 Y-0.0046 Z0.0 E0.013
G1 X-0.2618 Y-0.0 Z0.0 E0.013
G1 X-0.2618 Y0.0046 Z0.0 E0.013
G1 X-0.2616 Y0.0091 Z0.0 E0.013
G1 X-0.2614 Y0.0137 Z0.0 E0.013
G1 X-0.2612 Y0.0183 Z0.0 E0.013
G1 X-0.2608 Y0.0228 Z0.0 E0.013
G1 X-0.2604 Y0.0274 Z0.0 E0.013
G1 X-0.2598 Y0.0319 Z0.0 E0.013
G1 X-0.2593 Y0.0364 Z0.0 E0.013
G1 X-0.2586 Y0.041 Z0.0 E0.013
G1 X-0.2578 Y0.0455 Z0.0 E0.013
G1 X-0.257 Y0.05 Z0.0 E0.013
G1 X-0.2561 Y0.0544 Z0.0 E0.013
G1 X-0.2551 Y0.0589 Z0.0 E0.013
G1 X-0.254 Y0.0633 Z0.0 E0.013
G1 X-0.2529 Y0.0678 Z0.0 E0.013
G1 X-0.2517 Y0.0722 Z0.0 E0.013
G1 X-0.2504 Y0.0765 Z0.0 E0.013
G1 X-0.249 Y0.0809 Z0.0 E0.013
G1 X-0.2475 Y0.0852 Z0.0 E0.013
G1 X-0.246 Y0.0895 Z0.0 E0.013
G1 X-0.2444 Y0.0938 Z0.0 E0.013
G1 X-0.2427 Y0.0981 Z0.0 E0.013
G1 X-0.241 Y0.1023 Z0.0 E0.013
G1 X-0.2392 Y0.1065 Z0.0 E0.013
G1 X-0.2373 Y0.1106 Z0.0 E0.013
G1 X-0.2353 Y0.1148 Z0.0 E0.013
G1 X-0.2333 Y0.1189 Z0.0 E0.013
G1 X-0.2312 Y0.1229 Z0.0 E0.013
G1 X-0.229 Y0.1269 Z0.0 E0.013
G1 X-0.2267 Y0.1309 Z0.0 E0.013
G1 X-0.2244 Y0.1348 Z0.0 E0.013
G1 X-0.222 Y0.1387 Z0.0 E0.013
G1 X-0.2196 Y0.1426 Z0.0 E0.013
G1 X-0.217 Y0.1464 Z0.0 E0.013
G1 X-0.2145 Y0.1502 Z0.0 E0.013
G1 X-0.2118 Y0.1539 Z0.0 E0.013
G1 X-0.2091 Y0.1576 Z0.0 E0.013
G1 X-0.2063 Y0.1612 Z0.0 E0.013
G1 X-0.2035 Y0.1648 Z0.0 E0.013
G1 X-0.2005 Y0.1683 Z0.0 E0.013
G1 X-0.1976 Y0.1718 Z0.0 E0.013
G1 X-0.1946 Y0.1752 Z0.0 E0.013
G1 X-0.1915 Y0.1785 Z0.0 E0.013
G1 X-0.1883 Y0.1819 Z0.0 E0.013
G1 X-0.1851 Y0.1851 Z0.0 E0.013
G1 X-0.1819 Y0.1883 Z0.0 E0.013
G1 X-0.1785 Y0.1915 Z0.0 E0.013
G1 X-0.1752 Y0.1946 Z0.0 E0.013
G1 X-0.1718 Y0.1976 Z0.0 E0.013
G1 X-0.1683 Y0.2005 Z0.0 E0.013
G1 X-0.1648 Y0.2035 Z0.0 E0.013
G1 X-0.1612 Y0.2063 Z0.0 E0.013
G1 X-0.1576 Y0.2091 Z0.0 E0.013
G1 X-0.1539 Y0.2118 Z0.0 E0.013
G1 X-0.1502 Y0.2145 Z0.0 E0.013
G1 X-0.1464 Y0.217 Z0.0 E0.013
G1 X-0.1426 Y0.2196 Z0.0 E0.013
G1 X-0.1387 Y0.222 Z0.0 E0.013
G1 X-0.1348 Y0.2244 Z0.0 E0.013
G1 X-0.1309 Y0.2267 Z0.0 E0.013
G1 X-0.1269 Y0.229 Z0.0 E0.013
G1 X-0.1229 Y0.2312 Z0.0 E0.013
G1 X-0.1189 Y0.2333 Z0.0 E0.013
G1 X-0.1148 Y0.2353 Z0.0 E0.013
G1 X-0.1106 Y0.2373 Z0.0 E0.013
G1 X-0.1065 Y0.2392 Z0.0 E0.013
G1 X-0.1023 Y0.241 Z0.0 E0.013
G1 X-0.0981 Y0.2427 Z0.0 E0.013
G1 X-0.0938 Y0.2444 Z0.0 E0.013
G1 X-0.0895 Y0.246 Z0.0 E0.013
G1 X-0.0852 Y0.2475 Z0.0 E0.013
G1 X-0.0809 Y0.249 Z0.0 E0.013
G1 X-0.0765 Y0.2504 Z0.0 E0.013
G1 X-0.0722 Y0.2517 Z0.0 E0.013
G1 X-0.0678 Y0.2529 Z0.0 E0.013
G1 X-0.0633 Y0.254 Z0.0 E0.013
G1 X-0.0589 Y0.2551 Z0.0 E0.013
G1 X-0.0544 Y0.2561 Z0.0 E0.013
G1 X-0.05 Y0.257 Z0.0 E0.013
G1 X-0.0455 Y0.2578 Z0.0 E0.013
G1 X-0.041 Y0.2586 Z0.0 E0.013
G1 X-0.0364 Y0.2593 Z0.0 E0.013
G1 X-0.0319 Y0.2598 Z0.0 E0.013
G1 X-0.0274 Y0.2604 Z0.0 E0.013
G1 X-0.0228 Y0.2608 Z0.0 E0.013
G1 X-0.0183 Y0.2612 Z0.0 E0.013
G1 X-0.0137 Y0.2614 Z0.0 E0.013
G1 X-0.0091 Y0.2616 Z0.0 E0.013
G1 X-0.0046 Y0.2618 Z0.0 E0.013
G1 X-0.0 Y0.2618 Z0.0 E0.013
G1 X0.0046 Y0.2618 Z0.0 E0.013
G1 X0.0091 Y0.2616 Z0.0 E0.013
G1 X0.0137 Y0.2614 Z0.0 E0.013
G1 X0.0183 Y0.2612 Z0.0 E0.013
G1 X0.0228 Y0.2608 Z0.0 E0.013
G1 X0.0274 Y0.2604 Z0.0 E0.013
G1 X0.0319 Y0.2598 Z0.0 E0.013
G1 X0.0364 Y0.2593 Z0.0 E0.013
G1 X0.041 Y0.2586 Z0.0 E0.013
G1 X0.0455 Y0.2578 Z0.0 E0.013
G1 X0.05 Y0.257 Z0.0 E0.013
G1 X0.0544 Y0.2561 Z0.0 E0.013
G1 X0.0589 Y0.2551 Z0.0 E0.013
G1 X0.0633 Y0.254 Z0.0 E0.013
G1 X0.0678 Y0.2529 Z0.0 E0.013
G1 X0.0722 Y0.2517 Z0.0 E0.013
G1 X0.0765 Y0.2504 Z0.0 E0.013
G1 X0.0809 Y0.249 Z0.0 E0.013
G1 X0.0852 Y0.2475 Z0.0 E0.013
G1 X0.0895 Y0.246 Z0.0 E0.013
G1 X0.0938 Y0.2444 Z0.0 E0.013
G1 X0.0981 Y0.2427 Z0.0 E0.013
G1 X0.1023 Y0.241 Z0.0 E0.013
G1 X0.1065 Y0.2392 Z0.0 E0.013
G1 X0.1106 Y0.2373 Z0.0 E0.013
G1 X0.1148 Y0.2353 Z0.0 E0.013
G1 X0.1189 Y0.2333 Z0.0 E0.013
G1 X0.1229 Y0.2312 Z0.0 E0.013
G1 X0.1269 Y0.229 Z0.0 E0.013
G1 X0.1309 Y0.2267 Z0.0 E0.013
G1 X0.1348 Y0.2244 Z0.0 E0.013
G1 X0.1387 Y0.222 Z0.0 E0.013
G1 X0.1426 Y0.2196 Z0.0 E0.013
G1 X0.1464 Y0.217 Z0.0 E0.013
G1 X0.1502 Y0.2145 Z0.0 E0.013
G1 X0.1539 Y0.2118 Z0.0 E0.013
G1 X0.1576 Y0.2091 Z0.0 E0.013
G1 X0.1612 Y0.2063 Z0.0 E0.013
G1 X0.1648 Y0.2035 Z0.0 E0.013
G1 X0.1683 Y0.2005 Z0.0 E0.013
G1 X0.1718 Y0.1976 Z0.0 E0.013
G1 X0.1752 Y0.1946 Z0.0 E0.013
G1 X0.1785 Y0.1915 Z0.0 E0.013
G1 X0.1819 Y0.1883 Z0.0 E0.013
G1 X0.1851 Y0.1851 Z0.0 E0.013
G1 X0.1883 Y0.1819 Z0.0 E0.013
G1 X0.1915 Y0.1785 Z0.0 E0.013
G1 X0.1946 Y0.1752 Z0.0 E0.013
G1 X0.1976 Y0.1718 Z0.0 E0.013
G1 X0.2005 Y0.1683 Z0.0 E0.013
G1 X0.2035 Y0.1648 Z0.0 E0.013
G1 X0.2063 Y0.1612 Z0.0 E0.013
G1 X0.2091 Y0.1576 Z0.0 E0.013
G1 X0.2118 Y0.1539 Z0.0 E0.013
G1 X0.2145 Y0.1502 Z0.0 E0.013
G1 X0.217 Y0.1464 Z0.0 E0.013
G1 X0.2196 Y0.1426 Z0.0 E0.013
G1 X0.222 Y0.1387 Z0.0 E0.013
G1 X0.2244 Y0.1348 Z0.0 E0.013
G1 X0.2267 Y0.1309 Z0.0 E0.013
G1 X0.229 Y0.1269 Z0.0 E0.013
G1 X0.2312 Y0.1229 Z0.0 E0.013
G1 X0.2333 Y0.1189 Z0.0 E0.013
G1 X0.2353 Y0.1148 Z0.0 E0.013
G1 X0.2373 Y0.1106 Z0.0 E0.013
G1 X0.2392 Y0.1065 Z0.0 E0.013
G1 X0.241 Y0.1023 Z0.0 E0.013
G1 X0.2427 Y0.0981 Z0.0 E0.013
G1 X0.2444 Y0.0938 Z0.0 E0.013
G1 X0.246 Y0.0895 Z0.0 E0.013
G1 X0.2475 Y0.0852 Z0.0 E0.013
G1 X0.249 Y0.0809 Z0.0 E0.013
G1 X0.2504 Y0.0765 Z0.0 E0.013
G1 X0.2517 Y0.0722 Z0.0 E0.013
G1 X0.2529 Y0.0678 Z0.0 E0.013
G1 X0.254 Y0.0633 Z0.0 E0.013
G1 X0.2551 Y0.0589 Z0.0 E0.013
G1 X0.2561 Y0.0544 Z0.0 E0.013
G1 X0.257 Y0.05 Z0.0 E0.013
G1 X0.2578 Y0.0455 Z0.0 E0.013
G1 X0.2586 Y0.041 Z0.0 E0.013
G1 X0.2593 Y0.0364 Z0.0 E0.013
G1 X0.2598 Y0.0319 Z0.0 E0.013
G1 X0.2604 Y0.0274 Z0.0 E0.013
G1 X0.2608 Y0.0228 Z0.0 E0.013
G1 X0.2612 Y0.0183 Z0.0 E0.013
G1 X0.2614 Y0.0137 Z0.0 E0.013
G1 X0.2616 Y0.0091 Z0.0 E0.013
G1 X0.2618 Y0.0046 Z0.0 E0.013
G1 Z0.2
G1 X0.2618 Y0.0 Z0.0 E0.013
G1 X0.2618 Y-0.0046 Z0.0 E0.013
G1 X0.2616 Y-0.0091 Z0.0 E0.013
G1 X0.2614 Y-0.0137 Z0.0 E0.013
G1 X0.2612 Y-0.0183 Z0.0 E0.013
G1 X0.2608 Y-0.0228 Z0.0 E0.013
G1 X0.2604 Y-0.0274 Z0.0 E0.013
G1 X0.2598 Y-0.0319 Z0.0 E0.013
G1 X0.2593 Y-0.0364 Z0.0 E0.013
G1 X0.2586 Y-0.041 Z0.0 E0.013
G1 X0.2578 Y-0.0455 Z0.0 E0.013
G1 X0.257 Y-0.05 Z0.0 E0.013
G1 X0.2561 Y-0.0544 Z0.0 E0.013
G1 X0.2551 Y-0.0589 Z0.0 E0.013
G1 X0.254 Y-0.0633 Z0.0 E0.013
G1 X0.2529 Y-0.0678 Z0.0 E0.013
G1 X0.2517 Y-0.0722 Z0.0 E0.013
G1 X0.2504 Y-0.0765 Z0.0 E0.013
G1 X0.249 Y-0.0809 Z0.0 E0.013
G1 X0.2475 Y-0.0852 Z0.0 E0.013
G1 X0.246 Y-0.0895 Z0.0 E0.013
G1 X0.2444 Y-0.0938 Z0.0 E0.013
G1 X0.2427 Y-0.0981 Z0.0 E0.013
G1 X0.241 Y-0.1023 Z0.0 E0.013
G1 X0.2392 Y-0.1065 Z0.0 E0.013
G1 X0.2373 Y-0.1106 Z0.0 E0.013
G1 X0.2353 Y-0.1148 Z0.0 E0.013
G1 X0.2333 Y-0.1189 Z0.0 E0.013
G1 X0.2312 Y-0.1229 Z0.0 E0.013
G1 X0.229 Y-0.1269 Z0.0 E0.013
G1 X0.2267 Y-0.1309 Z0.0 E0.013
G1 X0.2244 Y-0.1348 Z0.0 E0.013
G1 X0.222 Y-0.1387 Z0.0 E0.013
G1 X0.2196 Y-0.1426 Z0.0 E0.013
G1 X0.217 Y-0.1464 Z0.0 E0.013
G1 X0.2145 Y-0.1502 Z0.0 E0.013
G1 X0.2118 Y-0.1539 Z0.0 E0.013
G1 X0.2091 Y-0.1576 Z0.0 E0.013
G1 X0.2063 Y-0.1612 Z0.0 E0.013
G1 X0.2035 Y-0.1648 Z0.0 E0.013
G1 X0.2005 Y-0.1683 Z0.0 E0.013
G1 X0.1976 Y-0.1718 Z0.0 E0.013
G1 X0.1946 Y-0.1752 Z0.0 E0.013
G1 X0.1915 Y-0.1785 Z0.0 E0.013
G1 X0.1883 Y-0.1819 Z0.0 E0.013
G1 X0.1851 Y-0.1851 Z0.0 E0.013
G1 X0.1819 Y-0.1883 Z0.0 E0.013
G1 X0.1785 Y-0.1915 Z0.0 E0.013
G1 X0.1752 Y-0.1946 Z0.0 E0.013
G1 X0.1718 Y-0.1976 Z0.0 E0.013
G1 X0.1683 Y-0.2005 Z0.0 E0.013
G1 X0.1648 Y-0.2035 Z0.0 E0.013
G1 X0.1612 Y-0.2063 Z0.0 E0.013
G1 X0.1576 Y-0.2091 Z0.0 E0.013
G1 X0.1539 Y-0.2118 Z0.0 E0.013
G1 X0.1502 Y-0.2145 Z0.0 E0.013
G1 X0.1464 Y-0.217 Z0.0 E0.013
G1 X0.1426 Y-0.2196 Z0.0 E0.013
G1 X0.1387 Y-0.222 Z0.0 E0.013
G1 X0.1348 Y-0.2244 Z0.0 E0.013
G1 X0.1309 Y-0.2267 Z0.0 E0.013
G1 X0.1269 Y-0.229 Z0.0 E0.013
G1 X0.1229 Y-0.2312 Z0.0 E0.013
G1 X0.1189 Y-0.2333 Z0.0 E0.013
G1 X0.1148 Y-0.2353 Z0.0 E0.013
G1 X0.1106 Y-0.2373 Z0.0 E0.013
G1 X0.1065 Y-0.2392 Z0.0 E0.013
G1 X0.1023 Y-0.241 Z0.0 E0.013
G1 X0.0981 Y-0.2427 Z0.0 E0.013
G1 X0.0938 Y-0.2444 Z0.0 E0.013
G1 X0.0895 Y-0.246 Z0.0 E0.013
G1 X0.0852 Y-0.2475 Z0.0 E0.013
G1 X0.0809 Y-0.249 Z0.0 E0.013
G1 X0.0765 Y-0.2504 Z0.0 E0.013
G1 X0.0722 Y-0.2517 Z0.0 E0.013
G1 X0.0678 Y-0.2529 Z0.0 E0.013
G1 X0.0633 Y-0.254 Z0.0 E0.013
G1 X0.0589 Y-0.2551 Z0.0 E0.013
G1 X0.0544 Y-0.2561 Z0.0 E0.013
G1 X0.05 Y-0.257 Z0.0 E0.013
G1 X0.0455 Y-0.2578 Z0.0 E0.013
G1 X0.041 Y-0.2586 Z0.0 E0.013
G1 X0.0364 Y-0.2593 Z0.0 E0.013
G1 X0.0319 Y-0.2598 Z0.0 E0.013
G1 X0.0274 Y-0.2604 Z0.0 E0.013
G1 X0.0228 Y-0.2608 Z0.0 E0.013
G1 X0.0183 Y-0.2612 Z0.0 E0.013
G1 X0.0137 Y-0.2614 Z0.0 E0.013
G1 X0.0091 Y-0.2616 Z0.0 E0.013
G1 X0.0046 Y-0.2618 Z0.0 E0.013
G1 X0.0 Y-0.2618 Z0.0 E0.013
G1 X-0.0046 Y-0.2618 Z0.0 E0.013
G1 X-0.0091 Y-0.2616 Z0.0 E0.013
G1 X-0.0137 Y-0.2614 Z0.0 E0.013
G1 X-0.0183 Y-0.2612 Z0.0 E0.013
G1 X-0.0228 Y-0.2608 Z0.0 E0.013
G1 X-0.0274 Y-0.2604 Z0.0 E0.013
G1 X-0.0319 Y-0.2598 Z0.0 E0.013
G1 X-0.0364 Y-0.2593 Z0.0 E0.013
G1 X-0.041 Y-0.2586 Z0.0 E0.013
G1 X-0.0455 Y-0.2578 Z0.0 E0.013
G1 X-0.05 Y-0.257 Z0.0 E0.013
G1 X-0.0544 Y-0.2561 Z0.0 E0.013
G1 X-0.0589 Y-0.2551 Z0.0 E0.013
G1 X-0.0633 Y-0.254 Z0.0 E0.013
G1 X-0.0678 Y-0.2529 Z0.0 E0.013
G1 X-0.0722 Y-0.2517 Z0.0 E0.013
G1 X-0.0765 Y-0.2504 Z0.0 E0.013
G1 X-0.0809 Y-0.249 Z0.0 E0.013
G1 X-0.0852 Y-0.2475 Z0.0 E0.013
G1 X-0.0895 Y-0.246 Z0.0 E0.013
G1 X-0.0938 Y-0.2444 Z0.0 E0.013
G1 X-0.0981 Y-0.2427 Z0.0 E0.013
G1 X-0.1023 Y-0.241 Z0.0 E0.013
G1 X-0.1065 Y-0.2392 Z0.0 E0.013
G1 X-0.1106 Y-0.2373 Z0.0 E0.013
G1 X-0.1148 Y-0.2353 Z0.0 E0.013
G1 X-0.1189 Y-0.2333 Z0.0 E0.013
G1 X-0.1229 Y-0.2312 Z0.0 E0.013
G1 X-0.1269 Y-0.229 Z0.0 E0.013
G1 X-0.1309 Y-0.2267 Z0.0 E0.013
G1 X-0.1348 Y-0.2244 Z0.0 E0.013
G1 X-0.1387 Y-0.222 Z0.0 E0.013
G1 X-0.1426 Y-0.2196 Z0.0 E0.013
G1 X-0.1464 Y-0.217 Z0.0 E0.013
G1 X-0.1502 Y-0.2145 Z0.0 E0.013
G1 X-0.1539 Y-0.2118 Z0.0 E0.013
G1 X-0.1576 Y-0.2091 Z0.0 E0.013
G1 X-0.1612 Y-0.2063 Z0.0 E0.013
G1 X-0.1648 Y-0.2035 Z0.0 E0.013
G1 X-0.1683 Y-0.2005 Z0.0 E0.013
G1 X-0.1718 Y-0.1976 Z0.0 E0.013
G1 X-0.1752 Y-0.1946 Z0.0 E0.013
G1 X-0.1785 Y-0.1915 Z0.0 E0.013
G1 X-0.1819 Y-0.1883 Z0.0 E0.013
G1 X-0.1851 Y-0.1851 Z0.0 E0.013
G1 X-0.1883 Y-0.1819 Z0.0 E0.013
G1 X-0.1915 Y-0.1785 Z0.0 E0.013
G1 X-0.1946 Y-0.1752 Z0.0 E0.013
G1 X-0.1976 Y-0.1718 Z0.0 E0.013
G1 X-0.2005 Y-0.1683 Z0.0 E0.013
G1 X-0.2035 Y-0.1648 Z0.0 E0.013
G1 X-0.2063 Y-0.1612 Z0.0 E0.013
G1 X-0.2091 Y-0.1576 Z0.0 E0.013
G1 X-0.2118 Y-0.1539 Z0.0 E0.013
G1 X-0.2145 Y-0.1502 Z0.0 E0.013
G1 X-0.217 Y-0.1464 Z0.0 E0.013
G1 X-0.2196 Y-0.1426 Z0.0 E0.013
G1 X-0.222 Y-0.1387 Z0.0 E0.013
G1 X-0.2244 Y-0.1348 Z0.0 E0.013
G1 X-0.2267 Y-0.1309 Z0.0 E0.013
G1 X-0.229 Y-0.1269 Z0.0 E0.013
G1 X-0.2312 Y-0.1229 Z0.0 E0.013
G1 X-0.2333 Y-0.1189 Z0.0 E0.013
G1 X-0.2353 Y-0.1148 Z0.0 E0.013
G1 X-0.2373 Y-0.1106 Z0.0 E0.013
G1 X-0.2392 Y-0.1065 Z0.0 E0.013
G1 X-0.241 Y-0.1023 Z0.0 E0.013
G1 X-0.2427 Y-0.0981 Z0.0 E0.013
G1 X-0.2444 Y-0.0938 Z0.0 E0.013
G1 X-0.246 Y-0.0895 Z0.0 E0.013
G1 X-0.2475 Y-0.0852 Z0.0 E0.013
G1 X-0.249 Y-0.0809 Z0.0 E0.013
G1 X-0.2504 Y-0.0765 Z0.0 E0.013
G1 X-0.2517 Y-0.0722 Z0.0 E0.013
G1 X-0.2529 Y-0.0678 Z0.0 E0.013
G1 X-0.254 Y-0.0633 Z0.0 E0.013
G1 X-0.2551 Y-0.0589 Z0.0 E0.013
G1 X-0.2561 Y-0.0544 Z0.0 E0.013
G1 X-0.257 Y-0.05 Z0.0 E0.013
G1 X-0.2578 Y-0.0455 Z0.0 E0.013
G1 X-0.2586 Y-0.041 Z0.0 E0.013
G1 X-0.2593 Y-0.0364 Z0.0 E0.013
G1 X-0.2598 Y-0.0319 Z0.0 E0.013
G1 X-0.2604 Y-0.0274 Z0.0 E0.013
G1 X-0.2608 Y-0.0228 Z0.0 E0.013
G1 X-0.2612 Y-0.0183 Z0.0 E0.013
G1 X-0.2614 Y-0.0137 Z0.0 E0.013
G1 X-0.2616 Y-0.0091 Z0.0 E0.013
G1 X-0.2618 Y-0.0046 Z0.0 E0.013
G1 X-0.2618 Y-0.0 Z0.0 E0.013
G1 X-0.2618 Y0.0046 Z0.0 E0.013
G1 X-0.2616 Y0.0091 Z0.0 E0.013
G1 X-0.2614 Y0.0137 Z0.0 E0.013
G1 X-0.2612 Y0.0183 Z0.0 E0.013
G1 X-0.2608 Y0.0228 Z0.0 E0.013
G1 X-0.2604 Y0.0274 Z0.0 E0.013
G1 X-0.2598 Y0.0319 Z0.0 E0.013
G1 X-0.2593 Y0.0364 Z0.0 E0.013
G1 X-0.2586 Y0.041 Z0.0 E0.013
G1 X-0.2578 Y0.0455 Z0.0 E0.013
G1 X-0.257 Y0.05 Z0.0 E0.013
G1 X-0.2561 Y0.0544 Z0.0 E0.013
G1 X-0.2551 Y0.0589 Z0.0 E0.013
G1 X-0.254 Y0.0633 Z0.0 E0.013
G1 X-0.2529 Y0.0678 Z0.0 E0.013
G1 X-0.2517 Y0.0722 Z0.0 E0.013
G1 X-0.2504 Y0.0765 Z0.0 E0.013
G1 X-0.249 Y0.0809 Z0.0 E0.013
G1 X-0.2475 Y0.0852 Z0.0 E0.013
G1 X-0.246 Y0.0895 Z0.0 E0.013
G1 X-0.2444 Y0.0938 Z0.0 E0.013
G1 X-0.2427 Y0.0981 Z0.0 E0.013
G1 X-0.241 Y0.1023 Z0.0 E0.013
G1 X-0.2392 Y0.1065 Z0.0 E0.013
G1 X-0.2373 Y0.1106 Z0.0 E0.013
G1 X-0.2353 Y0.1148 Z0.0 E0.013
G1 X-0.2333 Y0.1189 Z0.0 E0.013
G1 X-0.2312 Y0.1229 Z0.0 E0.013
G1 X-0.229 Y0.1269 Z0.0 E0.013
G1 X-0.2267 Y0.1309 Z0.0 E0.013
G1 X-0.2244 Y0.1348 Z0.0 E0.013
G1 X-0.222 Y0.1387 Z0.0 E0.013
G1 X-0.2196 Y0.1426 Z0.0 E0.013
G1 X-0.217 Y0.1464 Z0.0 E0.013
G1 X-0.2145 Y0.1502 Z0.0 E0.013
G1 X-0.2118 Y0.1539 Z0.0 E0.013
G1 X-0.2091 Y0.1576 Z0.0 E0.013
G1 X-0.2063 Y0.1612 Z0.0 E0.013
G1 X-0.2035 Y0.1648 Z0.0 E0.013
G1 X-0.2005 Y0.1683 Z0.0 E0.013
G1 X-0.1976 Y0.1718 Z0.0 E0.013
G1 X-0.1946 Y0.1752 Z0.0 E0.013
G1 X-0.1915 Y0.1785 Z0.0 E0.013
G1 X-0.1883 Y0.1819 Z0.0 E0.013
G1 X-0.1851 Y0.1851 Z0.0 E0.013
G1 X-0.1819 Y0.1883 Z0.0 E0.013
G1 X-0.1785 Y0.1915 Z0.0 E0.013
G1 X-0.1752 Y0.1946 Z0.0 E0.013
G1 X-0.1718 Y0.1976 Z0.0 E0.013
G1 X-0.1683 Y0.2005 Z0.0 E0.013
G1 X-0.1648 Y0.2035 Z0.0 E0.013
G1 X-0.1612 Y0.2063 Z0.0 E0.013
G1 X-0.1576 Y0.2091 Z0.0 E0.013
G1 X-0.1539 Y0.2118 Z0.0 E0.013
G1 X-0.1502 Y0.2145 Z0.0 E0.013
G1 X-0.1464 Y0.217 Z0.0 E0.013
G1 X-0.1426 Y0.2196 Z0.0 E0.013
G1 X-0.1387 Y0.222 Z0.0 E0.013
G1 X-0.1348 Y0.2244 Z0.0 E0.013
G1 X-0.1309 Y0.2267 Z0.0 E0.013
G1 X-0.1269 Y0.229 Z0.0 E0.013
G1 X-0.1229 Y0.2312 Z0.0 E0.013
G1 X-0.1189 Y0.2333 Z0.0 E0.013
G1 X-0.1148 Y0.2353 Z0.0 E0.013
G1 X-0.1106 Y0.2373 Z0.0 E0.013
G1 X-0.1065 Y0.2392 Z0.0 E0.013
G1 X-0.1023 Y0.241 Z0.0 E0.013
G1 X-0.0981 Y0.2427 Z0.0 E0.013
G1 X-0.0938 Y0.2444 Z0.0 E0.013
G1 X-0.0895 Y0.246 Z0.0 E0.013
G1 X-0.0852 Y0.2475 Z0.0 E0.013
G1 X-0.0809 Y0.249 Z0.0 E0.013
G1 X-0.0765 Y0.2504 Z0.0 E0.013
G1 X-0.0722 Y0.2517 Z0.0 E0.013
G1 X-0.0678 Y0.2529 Z0.0 E0.013
G1 X-0.0633 Y0.254 Z0.0 E0.013
G1 X-0.0589 Y0.2551 Z0.0 E0.013
G1 X-0.0544 Y0.2561 Z0.0 E0.013
G1 X-0.05 Y0.257 Z0.0 E0.013
G1 X-0.0455 Y0.2578 Z0.0 E0.013
G1 X-0.041 Y0.2586 Z0.0 E0.013
G1 X-0.0364 Y0.2593 Z0.0 E0.013
G1 X-0.0319 Y0.2598 Z0.0 E0.013
G1 X-0.0274 Y0.2604 Z0.0 E0.013
G1 X-0.0228 Y0.2608 Z0.0 E0.013
G1 X-0.0183 Y0.2612 Z0.0 E0.013
G1 X-0.0137 Y0.2614 Z0.0 E0.013
G1 X-0.0091 Y0.2616 Z0.0 E0.013
G1 X-0.0046 Y0.2618 Z0.0 E0.013
G1 X-0.0 Y0.2618 Z0.0 E0.013
G1 X0.0046 Y0.2618 Z0.0 E0.013
G1 X0.0091 Y0.2616 Z0.0 E0.013
G1 X0.0137 Y0.2614 Z0.0 E0.013
G1 X0.0183 Y0.2612 Z0.0 E0.013
G1 X0.0228 Y0.2608 Z0.0 E0.013
G1 X0.0274 Y0.2604 Z0.0 E0.013
G1 X0.0319 Y0.2598 Z0.0 E0.013
G1 X0.0364 Y0.2593 Z0.0 E0.013
G1 X0.041 Y0.2586 Z0.0 E0.013
G1 X0.0455 Y0.2578 Z0.0 E0.013
G1 X0.05 Y0.257 Z0.0 E0.013
G1 X0.0544 Y0.2561 Z0.0 E0.013
G1 X0.0589 Y0.2551 Z0.0 E0.013
G1 X0.0633 Y0.254 Z0.0 E0.013
G1 X0.0678 Y0.2529 Z0.0 E0.013
G1 X0.0722 Y0.2517 Z0.0 E0.013
G1 X0.0765 Y0.2504 Z0.0 E0.013
G1 X0.0809 Y0.249 Z0.0 E0.013
G1 X0.0852 Y0.2475 Z0.0 E0.013
G1 X0.0895 Y0.246 Z0.0 E0.013
G1 X0.0938 Y0.2444 Z0.0 E0.013
G1 X0.0981 Y0.2427 Z0.0 E0.013
G1 X0.1023 Y0.241 Z0.0 E0.013
G1 X0.1065 Y0.2392 Z0.0 E0.013
G1 X0.1106 Y0.2373 Z0.0 E0.013
G1 X0.1148 Y0.2353 Z0.0 E0.013
G1 X0.1189 Y0.2333 Z0.0 E0.013
G1 X0.1229 Y0.2312 Z0.0 E0.013
G1 X0.1269 Y0.229 Z0.0 E0.013
G1 X0.1309 Y0.2267 Z0.0 E0.013
G1 X0.1348 Y0.2244 Z0.0 E0.013
G1 X0.1387 Y0.222 Z0.0 E0.013
G1 X0.1426 Y0.2196 Z0.0 E0.013
G1 X0.1464 Y0.217 Z0.0 E0.013
G1 X0.1502 Y0.2145 Z0.0 E0.013
G1 X0.1539 Y0.2118 Z0.0 E0.013
G1 X0.1576 Y0.2091 Z0.0 E0.013
G1 X0.1612 Y0.2063 Z0.0 E0.013
G1 X0.1648 Y0.2035 Z0.0 E0.013
G1 X0.1683 Y0.2005 Z0.0 E0.013
G1 X0.1718 Y0.1976 Z0.0 E0.013
G1 X0.1752 Y0.1946 Z0.0 E0.013
G1 X0.1785 Y0.1915 Z0.0 E0.013
G1 X0.1819 Y0.1883 Z0.0 E0.013
G1 X0.1851 Y0.1851 Z0.0 E0.013
G1 X0.1883 Y0.1819 Z0.0 E0.013
G1 X0.1915 Y0.1785 Z0.0 E0.013
G1 X0.1946 Y0.1752 Z0.0 E0.013
G1 X0.1976 Y0.1718 Z0.0 E0.013
G1 X0.2005 Y0.1683 Z0.0 E0.013
G1 X0.2035 Y0.1648 Z0.0 E0.013
G1 X0.2063 Y0.1612 Z0.0 E0.013
G1 X0.2091 Y0.1576 Z0.0 E0.013
G1 X0.2118 Y0.1539 Z0.0 E0.013
G1 X0.2145 Y0.1502 Z0.0 E0.013
G1 X0.217 Y0.1464 Z0.0 E0.013
G1 X0.2196 Y0.1426 Z0.0 E0.013
G1 X0.222 Y0.1387 Z0.0 E0.013
G1 X0.2244 Y0.1348 Z0.0 E0.013
G1 X0.2267 Y0.1309 Z0.0 E0.013
G1 X0.229 Y0.1269 Z0.0 E0.013
G1 X0.2312 Y0.1229 Z0.0 E0.013
G1 X0.2333 Y0.1189 Z0.0 E0.013
G1 X0.2353 Y0.1148 Z0.0 E0.013
G1 X0.2373 Y0.1106 Z0.0 E0.013
G1 X0.2392 Y0.1065 Z0.0 E0.013
G1 X0.241 Y0.1023 Z0.0 E0.013
G1 X0.2427 Y0.0981 Z0.0 E0.013
G1 X0.2444 Y0.0938 Z0.0 E0.013
G1 X0.246 Y0.0895 Z0.0 E0.013
G1 X0.2475 Y0.0852 Z0.0 E0.013
G1 X0.249 Y0.0809 Z0.0 E0.013
G1 X0.2504 Y0.0765 Z0.0 E0.013
G1 X0.2517 Y0.0722 Z0.0 E0.013
G1 X0.2529 Y0.0678 Z0.0 E0.013
G1 X0.254 Y0.0633 Z0.0 E0.013
G1 X0.2551 Y0.0589 Z0.0 E0.013
G1 X0.2561 Y0.0544 Z0.0 E0.013
G1 X0.257 Y0.05 Z0.0 E0.013
G1 X0.2578 Y0.0455 Z0.0 E0.013
G1 X0.2586 Y0.041 Z0.0 E0.013
G1 X0.2593 Y0.0364 Z0.0 E0.013
G1 X0.2598 Y0.0319 Z0.0 E0.013
G1 X0.2604 Y0.0274 Z0.0 E0.013
G1 X0.2608 Y0.0228 Z0.0 E0.013
G1 X0.2612 Y0.0183 Z0.0 E0.013
G1 X0.2614 Y0.0137 Z0.0 E0.013
G1 X0.2616 Y0.0091 Z0.0 E0.013
G1 X0.2618 Y0.0046 Z0.0 E0.013
G1 Z0.2
G1 X0.2618 Y0.0 Z0.0 E0.013
G1 X0.2618 Y-0.0046 Z0.0 E0.013
G1 X0.2616 Y-0.0091 Z0.0 E0.013
G1 X0.2614 Y-0.0137 Z0.0 E0.013
G1 X0.2612 Y-0.0183 Z0.0 E0.013
G1 X0.2608 Y-0.0228 Z0.0 E0.013
G1 X0.2604 Y-0.0274 Z0.0 E0.013
G1 X0.2598 Y-0.0319 Z0.0 E0.013
G1 X0.2593 Y-0.0364 Z0.0 E0.013
G1 X0.2586 Y-0.041 Z0.0 E0.013
G1 X0.2578 Y-0.0455 Z0.0 E0.013
G1 X0.257 Y-0.05 Z0.0 E0.013
G1 X0.2561 Y-0.0544 Z0.0 E0.013
G1 X0.2551 Y-0.0589 Z0.0 E0.013
G1 X0.254 Y-0.0633 Z0.0 E0.013
G1 X0.2529 Y-0.0678 Z0.0 E0.013
G1 X0.2517 Y-0.0722 Z0.0 E0.013
G1 X0.2504 Y-0.0765 Z0.0 E0.013
G1 X0.249 Y-0.0809 Z0.0 E0.013
G1 X0.2475 Y-0.0852 Z0.0 E0.013
G1 X0.246 Y-0.0895 Z0.0 E0.013
G1 X0.2444 Y-0.0938 Z0.0 E0.013
G1 X0.2427 Y-0.0981 Z0.0 E0.013
G1 X0.241 Y-0.1023 Z0.0 E0.013
G1 X0.2392 Y-0.1065 Z0.0 E0.013
G1 X0.2373 Y-0.1106 Z0.0 E0.013
G1 X0.2353 Y-0.1148 Z0.0 E0.013
G1 X0.2333 Y-0.1189 Z0.0 E0.013
G1 X0.2312 Y-0.1229 Z0.0 E0.013
G1 X0.229 Y-0.1269 Z0.0 E0.013
G1 X0.2267 Y-0.1309 Z0.0 E0.013
G1 X0.2244 Y-0.1348 Z0.0 E0.013
G1 X0.222 Y-0.1387 Z0.0 E0.013
G1 X0.2196 Y-0.1426 Z0.0 E0.013
G1 X0.217 Y-0.1464 Z0.0 E0.013
G1 X0.2145 Y-0.1502 Z0.0 E0.013
G1 X0.2118 Y-0.1539 Z0.0 E0.013
G1 X0.2091 Y-0.1576 Z0.0 E0.013
G1 X0.2063 Y-0.1612 Z0.0 E0.013
G1 X0.2035 Y-0.1648 Z0.0 E0.013
G1 X0.2005 Y-0.1683 Z0.0 E0.013
G1 X0.1976 Y-0.1718 Z0.0 E0.013
G1 X0.1946 Y-0.1752 Z0.0 E0.013
G1 X0.1915 Y-0.1785 Z0.0 E0.013
G1 X0.1883 Y-0.1819 Z0.0 E0.013
G1 X0.1851 Y-0.1851 Z0.0 E0.013
G1 X0.1819 Y-0.1883 Z0.0 E0.013
G1 X0.1785 Y-0.1915 Z0.0 E0.013
G1 X0.1752 Y-0.1946 Z0.0 E0.013
G1 X0.1718 Y-0.1976 Z0.0 E0.013
G1 X0.1683 Y-0.2005 Z0.0 E0.013
G1 X0.1648 Y-0.2035 Z0.0 E0.013
G1 X0.1612 Y-0.2063 Z0.0 E0.013
G1 X0.1576 Y-0.2091 Z0.0 E0.013
G1 X0.1539 Y-0.2118 Z0.0 E0.013
G1 X0.1502 Y-0.2145 Z0.0 E0.013
G1 X0.1464 Y-0.217 Z0.0 E0.013
G1 X0.1426 Y-0.2196 Z0.0 E0.013
G1 X0.1387 Y-0.222 Z0.0 E0.013
G1 X0.1348 Y-0.2244 Z0.0 E0.013
G1 X0.1309 Y-0.2267 Z0.0 E0.013
G1 X0.1269 Y-0.229 Z0.0 E0.013
G1 X0.1229 Y-0.2312 Z0.0 E0.013
G1 X0.1189 Y-0.2333 Z0.0 E0.013
G1 X0.1148 Y-0.2353 Z0.0 E0.013
G1 X0.1106 Y-0.2373 Z0.0 E0.013
G1 X0.1065 Y-0.2392 Z0.0 E0.013
G1 X0.1023 Y-0.241 Z0.0 E0.013
G1 X0.0981 Y-0.2427 Z0.0 E0.013
G1 X0.0938 Y-0.2444 Z0.0 E0.013
G1 X0.0895 Y-0.246 Z0.0 E0.013
G1 X0.0852 Y-0.2475 Z0.0 E0.013
G1 X0.0809 Y-0.249 Z0.0 E0.013
G1 X0.0765 Y-0.2504 Z0.0 E0.013
G1 X0.0722 Y-0.2517 Z0.0 E0.013
G1 X0.0678 Y-0.2529 Z0.0 E0.013
G1 X0.0633 Y-0.254 Z0.0 E0.013
G1 X0.0589 Y-0.2551 Z0.0 E0.013
G1 X0.0544 Y-0.2561 Z0.0 E0.013
G1 X0.05 Y-0.257 Z0.0 E0.013
G1 X0.0455 Y-0.2578 Z0.0 E0.013
G1 X0.041 Y-0.2586 Z0.0 E0.013
G1 X0.0364 Y-0.2593 Z0.0 E0.013
G1 X0.0319 Y-0.2598 Z0.0 E0.013
G1 X0.0274 Y-0.2604 Z0.0 E0.013
G1 X0.0228 Y-0.2608 Z0.0 E0.013
G1 X0.0183 Y-0.2612 Z0.0 E0.013
G1 X0.0137 Y-0.2614 Z0.0 E0.013
G1 X0.0091 Y-0.2616 Z0.0 E0.013
G1 X0.0046 Y-0.2618 Z0.0 E0.013
G1 X0.0 Y-0.2618 Z0.0 E0.013
G1 X-0.0046 Y-0.2618 Z0.0 E0.013
G1 X-0.0091 Y-0.2616 Z0.0 E0.013
G1 X-0.0137 Y-0.2614 Z0.0 E0.013
G1 X-0.0183 Y-0.2612 Z0.0 E0.013
G1 X-0.0228 Y-0.2608 Z0.0 E0.013
G1 X-0.0274 Y-0.2604 Z0.0 E0.013
G1 X-0.0319 Y-0.2598 Z0.0 E0.013
G1 X-0.0364 Y-0.2593 Z0.0 E0.013
G1 X-0.041 Y-0.2586 Z0.0 E0.013
G1 X-0.0455 Y-0.2578 Z0.0 E0.013
G1 X-0.05 Y-0.257 Z0.0 E0.013
G1 X-0.0544 Y-0.2561 Z0.0 E0.013
G1 X-0.0589 Y-0.2551 Z0.0 E0.013
G1 X-0.0633 Y-0.254 Z0.0 E0.013
G1 X-0.0678 Y-0.2529 Z0.0 E0.013
G1 X-0.0722 Y-0.2517 Z0.0 E0.013
G1 X-0.0765 Y-0.2504 Z0.0 E0.013
G1 X-0.0809 Y-0.249 Z0.0 E0.013
G1 X-0.0852 Y-0.2475 Z0.0 E0.013
G1 X-0.0895 Y-0.246 Z0.0 E0.013
G1 X-0.0938 Y-0.2444 Z0.0 E0.013
G1 X-0.0981 Y-0.2427 Z0.0 E0.013
G1 X-0.1023 Y-0.241 Z0.0 E0.013
G1 X-0.1065 Y-0.2392 Z0.0 E0.013
G1 X-0.1106 Y-0.2373 Z0.0 E0.013
G1 X-0.1148 Y-0.2353 Z0.0 E0.013
G1 X-0.1189 Y-0.2333 Z0.0 E0.013
G1 X-0.1229 Y-0.2312 Z0.0 E0.013
G1 X-0.1269 Y-0.229 Z0.0 E0.013
G1 X-0.1309 Y-0.2267 Z0.0 E0.013
G1 X-0.1348 Y-0.2244 Z0.0 E0.013
G1 X-0.1387 Y-0.222 Z0.0 E0.013
G1 X-0.1426 Y-0.2196 Z0.0 E0.013
G1 X-0.1464 Y-0.217 Z0.0 E0.013
G1 X-0.1502 Y-0.2145 Z0.0 E0.013
G1 X-0.1539 Y-0.2118 Z0.0 E0.013
G1 X-0.1576 Y-0.2091 Z0.0 E0.013
G1 X-0.1612 Y-0.2063 Z0.0 E0.013
G1 X-0.1648 Y-0.2035 Z0.0 E0.013
G1 X-0.1683 Y-0.2005 Z0.0 E0.013
G1 X-0.1718 Y-0.1976 Z0.0 E0.013
G1 X-0.1752 Y-0.1946 Z0.0 E0.013
G1 X-0.1785 Y-0.1915 Z0.0 E0.013
G1 X-0.1819 Y-0.1883 Z0.0 E0.013
G1 X-0.1851 Y-0.1851 Z0.0 E0.013
G1 X-0.1883 Y-0.1819 Z0.0 E0.013
G1 X-0.1915 Y-0.1785 Z0.0 E0.013
G1 X-0.1946 Y-0.1752 Z0.0 E0.013
G1 X-0.1976 Y-0.1718 Z0.0 E0.013
G1 X-0.2005 Y-0.1683 Z0.0 E0.013
G1 X-0.2035 Y-0.1648 Z0.0 E0.013
G1 X-0.2063 Y-0.1612 Z0.0 E0.013
G1 X-0.2091 Y-0.1576 Z0.0 E0.013
G1 X-0.2118 Y-0.1539 Z0.0 E0.013
G1 X-0.2145 Y-0.1502 Z0.0 E0.013
G1 X-0.217 Y-0.1464 Z0.0 E0.013
G1 X-0.2196 Y-0.1426 Z0.0 E0.013
G1 X-0.222 Y-0.1387 Z0.0 E0.013
G1 X-0.2244 Y-0.1348 Z0.0 E0.013
G1 X-0.2267 Y-0.1309 Z0.0 E0.013
G1 X-0.229 Y-0.1269 Z0.0 E0.013
G1 X-0.2312 Y-0.1229 Z0.0 E0.013
G1 X-0.2333 Y-0.1189 Z0.0 E0.013
G1 X-0.2353 Y-0.1148 Z0.0 E0.013
G1 X-0.2373 Y-0.1106 Z0.0 E0.013
G1 X-0.2392 Y-0.1065 Z0.0 E0.013
G1 X-0.241 Y-0.1023 Z0.0 E0.013
G1 X-0.2427 Y-0.0981 Z0.0 E0.013
G1 X-0.2444 Y-0.0938 Z0.0 E0.013
G1 X-0.246 Y-0.0895 Z0.0 E0.013
G1 X-0.2475 Y-0.0852 Z0.0 E0.013
G1 X-0.249 Y-0.0809 Z0.0 E0.013
G1 X-0.2504 Y-0.0765 Z0.0 E0.013
G1 X-0.2517 Y-0.0722 Z0.0 E0.013
G1 X-0.2529 Y-0.0678 Z0.0 E0.013
G1 X-0.254 Y-0.0633 Z0.0 E0.013
G1 X-0.2551 Y-0.0589 Z0.0 E0.013
G1 X-0.2561 Y-0.0544 Z0.0 E0.013
G1 X-0.257 Y-0.05 Z0.0 E0.013
G1 X-0.2578 Y-0.0455 Z0.0 E0.013
G1 X-0.2586 Y-0.041 Z0.0 E0.013
G1 X-0.2593 Y-0.0364 Z0.0 E0.013
G1 X-0.2598 Y-0.0319 Z0.0 E0.013
G1 X-0.2604 Y-0.0274 Z0.0 E0.013
G1 X-0.2608 Y-0.0228 Z0.0 E0.013
G1 X-0.2612 Y-0.0183 Z0.0 E0.013
G1 X-0.2614 Y-0.0137 Z0.0 E0.013
G1 X-0.2616 Y-0.0091 Z0.0 E0.013
G1 X-0.2618 Y-0.0046 Z0.0 E0.013
G1 X-0.2618 Y-0.0 Z0.0 E0.013
G1 X-0.2618 Y0.0046 Z0.0 E0.013
G1 X-0.2616 Y0.0091 Z0.0 E0.013
G1 X-0.2614 Y0.0137 Z0.0 E0.013
G1 X-0.2612 Y0.0183 Z0.0 E0.013
G1 X-0.2608 Y0.0228 Z0.0 E0.013
G1 X-0.2604 Y0.0274 Z0.0 E0.013
G1 X-0.2598 Y0.0319 Z0.0 E0.013
G1 X-0.2593 Y0.0364 Z0.0 E0.013
G1 X-0.2586 Y0.041 Z0.0 E0.013
G1 X-0.2578 Y0.0455 Z0.0 E0.013
G1 X-0.257 Y0.05 Z0.0 E0.013
G1 X-0.2561 Y0.0544 Z0.0 E0.013
G1 X-0.2551 Y0.0589 Z0.0 E0.013
G1 X-0.254 Y0.0633 Z0.0 E0.013
G1 X-0.2529 Y0.0678 Z0.0 E0.013
G1 X-0.2517 Y0.0722 Z0.0 E0.013
G1 X-0.2504 Y0.0765 Z0.0 E0.013
G1 X-0.249 Y0.0809 Z0.0 E0.013
G1 X-0.2475 Y0.0852 Z0.0 E0.013
G1 X-0.246 Y0.0895 Z0.0 E0.013
G1 X-0.2444 Y0.0938 Z0.0 E0.013
G1 X-0.2427 Y0.0981 Z0.0 E0.013
G1 X-0.241 Y0.1023 Z0.0 E0.013
G1 X-0.2392 Y0.1065 Z0.0 E0.013
G1 X-0.2373 Y0.1106 Z0.0 E0.013
G1 X-0.2353 Y0.1148 Z0.0 E0.013
G1 X-0.2333 Y0.1189 Z0.0 E0.013
G1 X-0.2312 Y0.1229 Z0.0 E0.013
G1 X-0.229 Y0.1269 Z0.0 E0.013
G1 X-0.2267 Y0.1309 Z0.0 E0.013
G1 X-0.2244 Y0.1348 Z0.0 E0.013
G1 X-0.222 Y0.1387 Z0.0 E0.013
G1 X-0.2196 Y0.1426 Z0.0 E0.013
G1 X-0.217 Y0.1464 Z0.0 E0.013
G1 X-0.2145 Y0.1502 Z0.0 E0.013
G1 X-0.2118 Y0.1539 Z0.0 E0.013
G1 X-0.2091 Y0.1576 Z0.0 E0.013
G1 X-0.2063 Y0.1612 Z0.0 E0.013
G1 X-0.2035 Y0.1648 Z0.0 E0.013
G1 X-0.2005 Y0.1683 Z0.0 E0.013
G1 X-0.1976 Y0.1718 Z0.0 E0.013
G1 X-0.1946 Y0.1752 Z0.0 E0.013
G1 X-0.1915 Y0.1785 Z0.0 E0.013
G1 X-0.1883 Y0.1819 Z0.0 E0.013
G1 X-0.1851 Y0.1851 Z0.0 E0.013
G1 X-0.1819 Y0.1883 Z0.0 E0.013
G1 X-0.1785 Y0.1915 Z0.0 E0.013
G1 X-0.1752 Y0.1946 Z0.0 E0.013
G1 X-0.1718 Y0.1976 Z0.0 E0.013
G1 X-0.1683 Y0.2005 Z0.0 E0.013
G1 X-0.1648 Y0.2035 Z0.0 E0.013
G1 X-0.1612 Y0.2063 Z0.0 E0.013
G1 X-0.1576 Y0.2091 Z0.0 E0.013
G1 X-0.1539 Y0.2118 Z0.0 E0.013
G1 X-0.1502 Y0.2145 Z0.0 E0.013
G1 X-0.1464 Y0.217 Z0.0 E0.013
G1 X-0.1426 Y0.2196 Z0.0 E0.013
G1 X-0.1387 Y0.222 Z0.0 E0.013
G1 X-0.1348 Y0.2244 Z0.0 E0.013
G1 X-0.1309 Y0.2267 Z0.0 E0.013
G1 X-0.1269 Y0.229 Z0.0 E0.013
G1 X-0.1229 Y0.2312 Z0.0 E0.013
G1 X-0.1189 Y0.2333 Z0.0 E0.013
G1 X-0.1148 Y0.2353 Z0.0 E0.013
G1 X-0.1106 Y0.2373 Z0.0 E0.013
G1 X-0.1065 Y0.2392 Z0.0 E0.013
G1 X-0.1023 Y0.241 Z0.0 E0.013
G1 X-0.0981 Y0.2427 Z0.0 E0.013
G1 X-0.0938 Y0.2444 Z0.0 E0.013
G1 X-0.0895 Y0.246 Z0.0 E0.013
G1 X-0.0852 Y0.2475 Z0.0 E0.013
G1 X-0.0809 Y0.249 Z0.0 E0.013
G1 X-0.0765 Y0.2504 Z0.0 E0.013
G1 X-0.0722 Y0.2517 Z0.0 E0.013
G1 X-0.0678 Y0.2529 Z0.0 E0.013
G1 X-0.0633 Y0.254 Z0.0 E0.013
G1 X-0.0589 Y0.2551 Z0.0 E0.013
G1 X-0.0544 Y0.2561 Z0.0 E0.013
G1 X-0.05 Y0.257 Z0.0 E0.013
G1 X-0.0455 Y0.2578 Z0.0 E0.013
G1 X-0.041 Y0.2586 Z0.0 E0.013
G1 X-0.0364 Y0.2593 Z0.0 E0.013
G1 X-0.0319 Y0.2598 Z0.0 E0.013
G1 X-0.0274 Y0.2604 Z0.0 E0.013
G1 X-0.0228 Y0.2608 Z0.0 E0.013
G1 X-0.0183 Y0.2612 Z0.0 E0.013
G1 X-0.0137 Y0.2614 Z0.0 E0.013
G1 X-0.0091 Y0.2616 Z0.0 E0.013
G1 X-0.0046 Y0.2618 Z0.0 E0.013
G1 X-0.0 Y0.2618 Z0.0 E0.013
G1 X0.0046 Y0.2618 Z0.0 E0.013
G1 X0.0091 Y0.2616 Z0.0 E0.013
G1 X0.0137 Y0.2614 Z0.0 E0.013
G1 X0.0183 Y0.2612 Z0.0 E0.013
G1 X0.0228 Y0.2608 Z0.0 E0.013
G1 X0.0274 Y0.2604 Z0.0 E0.013
G1 X0.0319 Y0.2598 Z0.0 E0.013
G1 X0.0364 Y0.2593 Z0.0 E0.013
G1 X0.041 Y0.2586 Z0.0 E0.013
G1 X0.0455 Y0.2578 Z0.0 E0.013
G1 X0.05 Y0.257 Z0.0 E0.013
G1 X0.0544 Y0.2561 Z0.0 E0.013
G1 X0.0589 Y0.2551 Z0.0 E0.013
G1 X0.0633 Y0.254 Z0.0 E0.013
G1 X0.0678 Y0.2529 Z0.0 E0.013
G1 X0.0722 Y0.2517 Z0.0 E0.013
G1 X0.0765 Y0.2504 Z0.0 E0.013
G1 X0.0809 Y0.249 Z0.0 E0.013
G1 X0.0852 Y0.2475 Z0.0 E0.013
G1 X0.0895 Y0.246 Z0.0 E0.013
G1 X0.0938 Y0.2444 Z0.0 E0.013
G1 X0.0981 Y0.2427 Z0.0 E0.013
G1 X0.1023 Y0.241 Z0.0 E0.013
G1 X0.1065 Y0.2392 Z0.0 E0.013
G1 X0.1106 Y0.2373 Z0.0 E0.013
G1 X0.1148 Y0.2353 Z0.0 E0.013
G1 X0.1189 Y0.2333 Z0.0 E0.013
G1 X0.1229 Y0.2312 Z0.0 E0.013
G1 X0.1269 Y0.229 Z0.0 E0.013
G1 X0.1309 Y0.2267 Z0.0 E0.013
G1 X0.1348 Y0.2244 Z0.0 E0.013
G1 X0.1387 Y0.222 Z0.0 E0.013
G1 X0.1426 Y0.2196 Z0.0 E0.013
G1 X0.1464 Y0.217 Z0.0 E0.013
G1 X0.1502 Y0.2145 Z0.0 E0.013
G1 X0.1539 Y0.2118 Z0.0 E0.013
G1 X0.1576 Y0.2091 Z0.0 E0.013
G1 X0.1612 Y0.2063 Z0.0 E0.013
G1 X0.1648 Y0.2035 Z0.0 E0.013
G1 X0.1683 Y0.2005 Z0.0 E0.013
G1 X0.1718 Y0.1976 Z0.0 E0.013
G1 X0.1752 Y0.1946 Z0.0 E0.013
G1 X0.1785 Y0.1915 Z0.0 E0.013
G1 X0.1819 Y0.1883 Z0.0 E0.013
G1 X0.1851 Y0.1851 Z0.0 E0.013
G1 X0.1883 Y0.1819 Z0.0 E0.013
G1 X0.1915 Y0.1785 Z0.0 E0.013
G1 X0.1946 Y0.1752 Z0.0 E0.013
G1 X0.1976 Y0.1718 Z0.0 E0.013
G1 X0.2005 Y0.1683 Z0.0 E0.013
G1 X0.2035 Y0.1648 Z0.0 E0.013
G1 X0.2063 Y0.1612 Z0.0 E0.013
G1 X0.2091 Y0.1576 Z0.0 E0.013
G1 X0.2118 Y0.1539 Z0.0 E0.013
G1 X0.2145 Y0.1502 Z0.0 E0.013
G1 X0.217 Y0.1464 Z0.0 E0.013
G1 X0.2196 Y0.1426 Z0.0 E0.013
G1 X0.222 Y0.1387 Z0.0 E0.013
G1 X0.2244 Y0.1348 Z0.0 E0.013
G1 X0.2267 Y0.1309 Z0.0 E0.013
G1 X0.229 Y0.1269 Z0.0 E0.013
G1 X0.2312 Y0.1229 Z0.0 E0.013
G1 X0.2333 Y0.1189 Z0.0 E0.013
G1 X0.2353 Y0.1148 Z0.0 E0.013
G1 X0.2373 Y0.1106 Z0.0 E0.013
G1 X0.2392 Y0.1065 Z0.0 E0.013
G1 X0.241 Y0.1023 Z0.0 E0.013
G1 X0.2427 Y0.0981 Z0.0 E0.013
G1 X0.2444 Y0.0938 Z0.0 E0.013
G1 X0.246 Y0.0895 Z0.0 E0.013
G1 X0.2475 Y0.0852 Z0.0 E0.013
G1 X0.249 Y0.0809 Z0.0 E0.013
G1 X0.2504 Y0.0765 Z0.0 E0.013
G1 X0.2517 Y0.0722 Z0.0 E0.013
G1 X0.2529 Y0.0678 Z0.0 E0.013
G1 X0.254 Y0.0633 Z0.0 E0.013
G1 X0.2551 Y0.0589 Z0.0 E0.013
G1 X0.2561 Y0.0544 Z0.0 E0.013
G1 X0.257 Y0.05 Z0.0 E0.013
G1 X0.2578 Y0.0455 Z0.0 E0.013
G1 X0.2586 Y0.041 Z0.0 E0.013
G1 X0.2593 Y0.0364 Z0.0 E0.013
G1 X0.2598 Y0.0319 Z0.0 E0.013
G1 X0.2604 Y0.0274 Z0.0 E0.013
G1 X0.2608 Y0.0228 Z0.0 E0.013
G1 X0.2612 Y0.0183 Z0.0 E0.013
G1 X0.2614 Y0.0137 Z0.0 E0.013
G1 X0.2616 Y0.0091 Z0.0 E0.013
G1 X0.2618 Y0.0046 Z0.0 E0.013
G1 Z0.2
G1 X0.2618 Y0.0 Z0.0 E0.013
G1 X0.2618 Y-0.0046 Z0.0 E0.013
G1 X0.2616 Y-0.0091 Z0.0 E0.013
G1 X0.2614 Y-0.0137 Z0.0 E0.013
G1 X0.2612 Y-0.0183 Z0.0 E0.013
G1 X0.2608 Y-0.0228 Z0.0 E0.013
G1 X0.2604 Y-0.0274 Z0.0 E0.013
G1 X0.2598 Y-0.0319 Z0.0 E0.013
G1 X0.2593 Y-0.0364 Z0.0 E0.013
G1 X0.2586 Y-0.041 Z0.0 E0.013
G1 X0.2578 Y-0.0455 Z0.0 E0.013
G1 X0.257 Y-0.05 Z0.0 E0.013
G1 X0.2561 Y-0.0544 Z0.0 E0.013
G1 X0.2551 Y-0.0589 Z0.0 E0.013
G1 X0.254 Y-0.0633 Z0.0 E0.013
G1 X0.2529 Y-0.0678 Z0.0 E0.013
G1 X0.2517 Y-0.0722 Z0.0 E0.013
G1 X0.2504 Y-0.0765 Z0.0 E0.013
G1 X0.249 Y-0.0809 Z0.0 E0.013
G1 X0.2475 Y-0.0852 Z0.0 E0.013
G1 X0.246 Y-0.0895 Z0.0 E0.013
G1 X0.2444 Y-0.0938 Z0.0 E0.013
G1 X0.2427 Y-0.0981 Z0.0 E0.013
G1 X0.241 Y-0.1023 Z0.0 E0.013
G1 X0.2392 Y-0.1065 Z0.0 E0.013
G1 X0.2373 Y-0.1106 Z0.0 E0.013
G1 X0.2353 Y-0.1148 Z0.0 E0.013
G1 X0.2333 Y-0.1189 Z0.0 E0.013
G1 X0.2312 Y-0.1229 Z0.0 E0.013
G1 X0.229 Y-0.1269 Z0.0 E0.013
G1 X0.2267 Y-0.1309 Z0.0 E0.013
G1 X0.2244 Y-0.1348 Z0.0 E0.013
G1 X0.222 Y-0.1387 Z0.0 E0.013
G1 X0.2196 Y-0.1426 Z0.0 E0.013
G1 X0.217 Y-0.1464 Z0.0 E0.013
G1 X0.2145 Y-0.1502 Z0.0 E0.013
G1 X0.2118 Y-0.1539 Z0.0 E0.013
G1 X0.2091 Y-0.1576 Z0.0 E0.013
G1 X0.2063 Y-0.1612 Z0.0 E0.013
G1 X0.2035 Y-0.1648 Z0.0 E0.013
G1 X0.2005 Y-0.1683 Z0.0 E0.013
G1 X0.1976 Y-0.1718 Z0.0 E0.013
G1 X0.1946 Y-0.1752 Z0.0 E0.013
G1 X0.1915 Y-0.1785 Z0.0 E0.013
G1 X0.1883 Y-0.1819 Z0.0 E0.013
G1 X0.1851 Y-0.1851 Z0.0 E0.013
G1 X0.1819 Y-0.1883 Z0.0 E0.013
G1 X0.1785 Y-0.1915 Z0.0 E0.013
G1 X0.1752 Y-0.1946 Z0.0 E0.013
G1 X0.1718 Y-0.1976 Z0.0 E0.013
G1 X0.1683 Y-0.2005 Z0.0 E0.013
G1 X0.1648 Y-0.2035 Z0.0 E0.013
G1 X0.1612 Y-0.2063 Z0.0 E0.013
G1 X0.1576 Y-0.2091 Z0.0 E0.013
G1 X0.1539 Y-0.2118 Z0.0 E0.013
G1 X0.1502 Y-0.2145 Z0.0 E0.013
G1 X0.1464 Y-0.217 Z0.0 E0.013
G1 X0.1426 Y-0.2196 Z0.0 E0.013
G1 X0.1387 Y-0.222 Z0.0 E0.013
G1 X0.1348 Y-0.2244 Z0.0 E0.013
G1 X0.1309 Y-0.2267 Z0.0 E0.013
G1 X0.1269 Y-0.229 Z0.0 E0.013
G1 X0.1229 Y-0.2312 Z0.0 E0.013
G1 X0.1189 Y-0.2333 Z0.0 E0.013
G1 X0.1148 Y-0.2353 Z0.0 E0.013
G1 X0.1106 Y-0.2373 Z0.0 E0.013
G1 X0.1065 Y-0.2392 Z0.0 E0.013
G1 X0.1023 Y-0.241 Z0.0 E0.013
G1 X0.0981 Y-0.2427 Z0.0 E0.013
G1 X0.0938 Y-0.2444 Z0.0 E0.013
G1 X0.0895 Y-0.246 Z0.0 E0.013
G1 X0.0852 Y-0.2475 Z0.0 E0.013
G1 X0.0809 Y-0.249 Z0.0 E0.013
G1 X0.0765 Y-0.2504 Z0.0 E0.013
G1 X0.0722 Y-0.2517 Z0.0 E0.013
G1 X0.0678 Y-0.2529 Z0.0 E0.013
G1 X0.0633 Y-0.254 Z0.0 E0.013
G1 X0.0589 Y-0.2551 Z0.0 E0.013
G1 X0.0544 Y-0.2561 Z0.0 E0.013
G1 X0.05 Y-0.257 Z0.0 E0.013
G1 X0.0455 Y-0.2578 Z0.0 E0.013
G1 X0.041 Y-0.2586 Z0.0 E0.013
G1 X0.0364 Y-0.2593 Z0.0 E0.013
G1 X0.0319 Y-0.2598 Z0.0 E0.013
G1 X0.0274 Y-0.2604 Z0.0 E0.013
G1 X0.0228 Y-0.2608 Z0.0 E0.013
G1 X0.0183 Y-0.2612 Z0.0 E0.013
G1 X0.0137 Y-0.2614 Z0.0 E0.013
G1 X0.0091 Y-0.2616 Z0.0 E0.013
G1 X0.0046 Y-0.2618 Z0.0 E0.013
G1 X0.0 Y-0.2618 Z0.0 E0.013
G1 X-0.0046 Y-0.2618 Z0.0 E0.013
G1 X-0.0091 Y-0.2616 Z0.0 E0.013
G1 X-0.0137 Y-0.2614 Z0.0 E0.013
G1 X-0.0183 Y-0.2612 Z0.0 E0.013
G1 X-0.0228 Y-0.2608 Z0.0 E0.013
G1 X-0.0274 Y-0.2604 Z0.0 E0.013
G1 X-0.0319 Y-0.2598 Z0.0 E0.013
G1 X-0.0364 Y-0.2593 Z0.0 E0.013
G1 X-0.041 Y-0.2586 Z0.0 E0.013
G1 X-0.0455 Y-0.2578 Z0.0 E0.013
G1 X-0.05 Y-0.257 Z0.0 E0.013
G1 X-0.0544 Y-0.2561 Z0.0 E0.013
G1 X-0.0589 Y-0.2551 Z0.0 E0.013
G1 X-0.0633 Y-0.254 Z0.0 E0.013
G1 X-0.0678 Y-0.2529 Z0.0 E0.013
G1 X-0.0722 Y-0.2517 Z0.0 E0.013
G1 X-0.0765 Y-0.2504 Z0.0 E0.013
G1 X-0.0809 Y-0.249 Z0.0 E0.013
G1 X-0.0852 Y-0.2475 Z0.0 E0.013
G1 X-0.0895 Y-0.246 Z0.0 E0.013
G1 X-0.0938 Y-0.2444 Z0.0 E0.013
G1 X-0.0981 Y-0.2427 Z0.0 E0.013
G1 X-0.1023 Y-0.241 Z0.0 E0.013
G1 X-0.1065 Y-0.2392 Z0.0 E0.013
G1 X-0.1106 Y-0.2373 Z0.0 E0.013
G1 X-0.1148 Y-0.2353 Z0.0 E0.013
G1 X-0.1189 Y-0.2333 Z0.0 E0.013
G1 X-0.1229 Y-0.2312 Z0.0 E0.013
G1 X-0.1269 Y-0.229 Z0.0 E0.013
G1 X-0.1309 Y-0.2267 Z0.0 E0.013
G1 X-0.1348 Y-0.2244 Z0.0 E0.013
G1 X-0.1387 Y-0.222 Z0.0 E0.013
G1 X-0.1426 Y-0.2196 Z0.0 E0.013
G1 X-0.1464 Y-0.217 Z0.0 E0.013
G1 X-0.1502 Y-0.2145 Z0.0 E0.013
G1 X-0.1539 Y-0.2118 Z0.0 E0.013
G1 X-0.1576 Y-0.2091 Z0.0 E0.013
G1 X-0.1612 Y-0.2063 Z0.0 E0.013
G1 X-0.1648 Y-0.2035 Z0.0 E0.013
G1 X-0.1683 Y-0.2005 Z0.0 E0.013
G1 X-0.1718 Y-0.1976 Z0.0 E0.013
G1 X-0.1752 Y-0.1946 Z0.0 E0.013
G1 X-0.1785 Y-0.1915 Z0.0 E0.013
G1 X-0.1819 Y-0.1883 Z0.0 E0.013
G1 X-0.1851 Y-0.1851 Z0.0 E0.013
G1 X-0.1883 Y-0.1819 Z0.0 E0.013
G1 X-0.1915 Y-0.1785 Z0.0 E0.013
G1 X-0.1946 Y-0.1752 Z0.0 E0.013
G1 X-0.1976 Y-0.1718 Z0.0 E0.013
G1 X-0.2005 Y-0.1683 Z0.0 E0.013
G1 X-0.2035 Y-0.1648 Z0.0 E0.013
G1 X-0.2063 Y-0.1612 Z0.0 E0.013
G1 X-0.2091 Y-0.1576 Z0.0 E0.013
G1 X-0.2118 Y-0.1539 Z0.0 E0.013
G1 X-0.2145 Y-0.1502 Z0.0 E0.013
G1 X-0.217 Y-0.1464 Z0.0 E0.013
G1 X-0.2196 Y-0.1426 Z0.0 E0.013
G1 X-0.222 Y-0.1387 Z0.0 E0.013
G1 X-0.2244 Y-0.1348 Z0.0 E0.013
G1 X-0.2267 Y-0.1309 Z0.0 E0.013
G1 X-0.229 Y-0.1269 Z0.0 E0.013
G1 X-0.2312 Y-0.1229 Z0.0 E0.013
G1 X-0.2333 Y-0.1189 Z0.0 E0.013
G1 X-0.2353 Y-0.1148 Z0.0 E0.013
G1 X-0.2373 Y-0.1106 Z0.0 E0.013
G1 X-0.2392 Y-0.1065 Z0.0 E0.013
G1 X-0.241 Y-0.1023 Z0.0 E0.013
G1 X-0.2427 Y-0.0981 Z0.0 E0.013
G1 X-0.2444 Y-0.0938 Z0.0 E0.013
G1 X-0.246 Y-0.0895 Z0.0 E0.013
G1 X-0.2475 Y-0.0852 Z0.0 E0.013
G1 X-0.249 Y-0.0809 Z0.0 E0.013
G1 X-0.2504 Y-0.0765 Z0.0 E0.013
G1 X-0.2517 Y-0.0722 Z0.0 E0.013
G1 X-0.2529 Y-0.0678 Z0.0 E0.013
G1 X-0.254 Y-0.0633 Z0.0 E0.013
G1 X-0.2551 Y-0.0589 Z0.0 E0.013
G1 X-0.2561 Y-0.0544 Z0.0 E0.013
G1 X-0.257 Y-0.05 Z0.0 E0.013
G1 X-0.2578 Y-0.0455 Z0.0 E0.013
G1 X-0.2586 Y-0.041 Z0.0 E0.013
G1 X-0.2593 Y-0.0364 Z0.0 E0.013
G1 X-0.2598 Y-0.0319 Z0.0 E0.013
G1 X-0.2604 Y-0.0274 Z0.0 E0.013
G1 X-0.2608 Y-0.0228 Z0.0 E0.013
G1 X-0.2612 Y-0.0183 Z0.0 E0.013
G1 X-0.2614 Y-0.0137 Z0.0 E0.013
G1 X-0.2616 Y-0.0091 Z0.0 E0.013
G1 X-0.2618 Y-0.0046 Z0.0 E0.013
G1 X-0.2618 Y-0.0 Z0.0 E0.013
G1 X-0.2618 Y0.0046 Z0.0 E0.013
G1 X-0.2616 Y0.0091 Z0.0 E0.013
G1 X-0.2614 Y0.0137 Z0.0 E0.013
G1 X-0.2612 Y0.0183 Z0.0 E0.013
G1 X-0.2608 Y0.0228 Z0.0 E0.013
G1 X-0.2604 Y0.0274 Z0.0 E0.013
G1 X-0.2598 Y0.0319 Z0.0 E0.013
G1 X-0.2593 Y0.0364 Z0.0 E0.013
G1 X-0.2586 Y0.041 Z0.0 E0.013
G1 X-0.2578 Y0.0455 Z0.0 E0.013
G1 X-0.257 Y0.05 Z0.0 E0.013
G1 X-0.2561 Y0.0544 Z0.0 E0.013
G1 X-0.2551 Y0.0589 Z0.0 E0.013
G1 X-0.254 Y0.0633 Z0.0 E0.013
G1 X-0.2529 Y0.0678 Z0.0 E0.013
G1 X-0.2517 Y0.0722 Z0.0 E0.013
G1 X-0.2504 Y0.0765 Z0.0 E0.013
G1 X-0.249 Y0.0809 Z0.0 E0.013
G1 X-0.2475 Y0.0852 Z0.0 E0.013
G1 X-0.246 Y0.0895 Z0.0 E0.013
G1 X-0.2444 Y0.0938 Z0.0 E0.013
G1 X-0.2427 Y0.0981 Z0.0 E0.013
G1 X-0.241 Y0.1023 Z0.0 E0.013
G1 X-0.2392 Y0.1065 Z0.0 E0.013
G1 X-0.2373 Y0.1106 Z0.0 E0.013
G1 X-0.2353 Y0.1148 Z0.0 E0.013
G1 X-0.2333 Y0.1189 Z0.0 E0.013
G1 X-0.2312 Y0.1229 Z0.0 E0.013
G1 X-0.229 Y0.1269 Z0.0 E0.013
G1 X-0.2267 Y0.1309 Z0.0 E0.013
G1 X-0.2244 Y0.1348 Z0.0 E0.013
G1 X-0.222 Y0.1387 Z0.0 E0.013
G1 X-0.2196 Y0.1426 Z0.0 E0.013
G1 X-0.217 Y0.1464 Z0.0 E0.013
G1 X-0.2145 Y0.1502 Z0.0 E0.013
G1 X-0.2118 Y0.1539 Z0.0 E0.013
G1 X-0.2091 Y0.1576 Z0.0 E0.013
G1 X-0.2063 Y0.1612 Z0.0 E0.013
G1 X-0.2035 Y0.1648 Z0.0 E0.013
G1 X-0.2005 Y0.1683 Z0.0 E0.013
G1 X-0.1976 Y0.1718 Z0.0 E0.013
G1 X-0.1946 Y0.1752 Z0.0 E0.013
G1 X-0.1915 Y0.1785 Z0.0 E0.013
G1 X-0.1883 Y0.1819 Z0.0 E0.013
G1 X-0.1851 Y0.1851 Z0.0 E0.013
G1 X-0.1819 Y0.1883 Z0.0 E0.013
G1 X-0.1785 Y0.1915 Z0.0 E0.013
G1 X-0.1752 Y0.1946 Z0.0 E0.013
G1 X-0.1718 Y0.1976 Z0.0 E0.013
G1 X-0.1683 Y0.2005 Z0.0 E0.013
G1 X-0.1648 Y0.2035 Z0.0 E0.013
G1 X-0.1612 Y0.2063 Z0.0 E0.013
G1 X-0.1576 Y0.2091 Z0.0 E0.013
G1 X-0.1539 Y0.2118 Z0.0 E0.013
G1 X-0.1502 Y0.2145 Z0.0 E0.013
G1 X-0.1464 Y0.217 Z0.0 E0.013
G1 X-0.1426 Y0.2196 Z0.0 E0.013
G1 X-0.1387 Y0.222 Z0.0 E0.013
G1 X-0.1348 Y0.2244 Z0.0 E0.013
G1 X-0.1309 Y0.2267 Z0.0 E0.013
G1 X-0.1269 Y0.229 Z0.0 E0.013
G1 X-0.1229 Y0.2312 Z0.0 E0.013
G1 X-0.1189 Y0.2333 Z0.0 E0.013
G1 X-0.1148 Y0.2353 Z0.0 E0.013
G1 X-0.1106 Y0.2373 Z0.0 E0.013
G1 X-0.1065 Y0.2392 Z0.0 E0.013
G1 X-0.1023 Y0.241 Z0.0 E0.013
G1 X-0.0981 Y0.2427 Z0.0 E0.013
G1 X-0.0938 Y0.2444 Z0.0 E0.013
G1 X-0.0895 Y0.246 Z0.0 E0.013
G1 X-0.0852 Y0.2475 Z0.0 E0.013
G1 X-0.0809 Y0.249 Z0.0 E0.013
G1 X-0.0765 Y0.2504 Z0.0 E0.013
G1 X-0.0722 Y0.2517 Z0.0 E0.013
G1 X-0.0678 Y0.2529 Z0.0 E0.013
G1 X-0.0633 Y0.254 Z0.0 E0.013
G1 X-0.0589 Y0.2551 Z0.0 E0.013
G1 X-0.0544 Y0.2561 Z0.0 E0.013
G1 X-0.05 Y0.257 Z0.0 E0.013
G1 X-0.0455 Y0.2578 Z0.0 E0.013
G1 X-0.041 Y0.2586 Z0.0 E0.013
G1 X-0.0364 Y0.2593 Z0.0 E0.013
G1 X-0.0319 Y0.2598 Z0.0 E0.013
G1 X-0.0274 Y0.2604 Z0.0 E0.013
G1 X-0.0228 Y0.2608 Z0.0 E0.013
G1 X-0.0183 Y0.2612 Z0.0 E0.013
G1 X-0.0137 Y0.2614 Z0.0 E0.013
G1 X-0.0091 Y0.2616 Z0.0 E0.013
G1 X-0.0046 Y0.2618 Z0.0 E0.013
G1 X-0.0 Y0.2618 Z0.0 E0.013
G1 X0.0046 Y0.2618 Z0.0 E0.013
G1 X0.0091 Y0.2616 Z0.0 E0.013
G1 X0.0137 Y0.2614 Z0.0 E0.013
G1 X0.0183 Y0.2612 Z0.0 E0.013
G1 X0.0228 Y0.2608 Z0.0 E0.013
G1 X0.0274 Y0.2604 Z0.0 E0.013
G1 X0.0319 Y0.2598 Z0.0 E0.013
G1 X0.0364 Y0.2593 Z0.0 E0.013
G1 X0.041 Y0.2586 Z0.0 E0.013
G1 X0.0455 Y0.2578 Z0.0 E0.013
G1 X0.05 Y0.257 Z0.0 E0.013
G1 X0.0544 Y0.2561 Z0.0 E0.013
G1 X0.0589 Y0.2551 Z0.0 E0.013
G1 X0.0633 Y0.254 Z0.0 E0.013
G1 X0.0678 Y0.2529 Z0.0 E0.013
G1 X0.0722 Y0.2517 Z0.0 E0.013
G1 X0.0765 Y0.2504 Z0.0 E0.013
G1 X0.0809 Y0.249 Z0.0 E0.013
G1 X0.0852 Y0.2475 Z0.0 E0.013
G1 X0.0895 Y0.246 Z0.0 E0.013
G1 X0.0938 Y0.2444 Z0.0 E0.013
G1 X0.0981 Y0.2427 Z0.0 E0.013
G1 X0.1023 Y0.241 Z0.0 E0.013
G1 X0.1065 Y0.2392 Z0.0 E0.013
G1 X0.1106 Y0.2373 Z0.0 E0.013
G1 X0.1148 Y0.2353 Z0.0 E0.013
G1 X0.1189 Y0.2333 Z0.0 E0.013
G1 X0.1229 Y0.2312 Z0.0 E0.013
G1 X0.1269 Y0.229 Z0.0 E0.013
G1 X0.1309 Y0.2267 Z0.0 E0.013
G1 X0.1348 Y0.2244 Z0.0 E0.013
G1 X0.1387 Y0.222 Z0.0 E0.013
G1 X0.1426 Y0.2196 Z0.0 E0.013
G1 X0.1464 Y0.217 Z0.0 E0.013
G1 X0.1502 Y0.2145 Z0.0 E0.013
G1 X0.1539 Y0.2118 Z0.0 E0.013
G1 X0.1576 Y0.2091 Z0.0 E0.013
G1 X0.1612 Y0.2063 Z0.0 E0.013
G1 X0.1648 Y0.2035 Z0.0 E0.013
G1 X0.1683 Y0.2005 Z0.0 E0.013
G1 X0.1718 Y0.1976 Z0.0 E0.013
G1 X0.1752 Y0.1946 Z0.0 E0.013
G1 X0.1785 Y0.1915 Z0.0 E0.013
G1 X0.1819 Y0.1883 Z0.0 E0.013
G1 X0.1851 Y0.1851 Z0.0 E0.013
G1 X0.1883 Y0.1819 Z0.0 E0.013
G1 X0.1915 Y0.1785 Z0.0 E0.013
G1 X0.1946 Y0.1752 Z0.0 E0.013
G1 X0.1976 Y0.1718 Z0.0 E0.013
G1 X0.2005 Y0.1683 Z0.0 E0.013
G1 X0.2035 Y0.1648 Z0.0 E0.013
G1 X0.2063 Y0.1612 Z0.0 E0.013
G1 X0.2091 Y0.1576 Z0.0 E0.013
G1 X0.2118 Y0.1539 Z0.0 E0.013
G1 X0.2145 Y0.1502 Z0.0 E0.013
G1 X0.217 Y0.1464 Z0.0 E0.013
G1 X0.2196 Y0.1426 Z0.0 E0.013
G1 X0.222 Y0.1387 Z0.0 E0.013
G1 X0.2244 Y0.1348 Z0.0 E0.013
G1 X0.2267 Y0.1309 Z0.0 E0.013
G1 X0.229 Y0.1269 Z0.0 E0.013
G1 X0.2312 Y0.1229 Z0.0 E0.013
G1 X0.2333 Y0.1189 Z0.0 E0.013
G1 X0.2353 Y0.1148 Z0.0 E0.013
G1 X0.2373 Y0.1106 Z0.0 E0.013
G1 X0.2392 Y0.1065 Z0.0 E0.013
G1 X0.241 Y0.1023 Z0.0 E0.013
G1 X0.2427 Y0.0981 Z0.0 E0.013
G1 X0.2444 Y0.0938 Z0.0 E0.013
G1 X0.246 Y0.0895 Z0.0 E0.013
G1 X0.2475 Y0.0852 Z0.0 E0.013
G1 X0.249 Y0.0809 Z0.0 E0.013
G1 X0.2504 Y0.0765 Z0.0 E0.013
G1 X0.2517 Y0.0722 Z0.0 E0.013
G1 X0.2529 Y0.0678 Z0.0 E0.013
G1 X0.254 Y0.0633 Z0.0 E0.013
G1 X0.2551 Y0.0589 Z0.0 E0.013
G1 X0.2561 Y0.0544 Z0.0 E0.013
G1 X0.257 Y0.05 Z0.0 E0.013
G1 X0.2578 Y0.0455 Z0.0 E0.013
G1 X0.2586 Y0.041 Z0.0 E0.013
G1 X0.2593 Y0.0364 Z0.0 E0.013
G1 X0.2598 Y0.0319 Z0.0 E0.013
G1 X0.2604 Y0.0274 Z0.0 E0.013
G1 X0.2608 Y0.0228 Z0.0 E0.013
G1 X0.2612 Y0.0183 Z0.0 E0.013
G1 X0.2614 Y0.0137 Z0.0 E0.013
G1 X0.2616 Y0.0091 Z0.0 E0.013
G1 X0.2618 Y0.0046 Z0.0 E0.013
G1 Z0.2
G1 X0.2618 Y0.0 Z0.0 E0.013
G1 X0.2618 Y-0.0046 Z0.0 E0.013
G1 X0.2616 Y-0.0091 Z0.0 E0.013
G1 X0.2614 Y-0.0137 Z0.0 E0.013
G1 X0.2612 Y-0.0183 Z0.0 E0.013
G1 X0.2608 Y-0.0228 Z0.0 E0.013
G1 X0.2604 Y-0.0274 Z0.0 E0.013
G1 X0.2598 Y-0.0319 Z0.0 E0.013
G1 X0.2593 Y-0.0364 Z0.0 E0.013
G1 X0.2586 Y-0.041 Z0.0 E0.013
G1 X0.2578 Y-0.0455 Z0.0 E0.013
G1 X0.257 Y-0.05 Z0.0 E0.013
G1 X0.2561 Y-0.0544 Z0.0 E0.013
G1 X0.2551 Y-0.0589 Z0.0 E0.013
G1 X0.254 Y-0.0633 Z0.0 E0.013
G1 X0.2529 Y-0.0678 Z0.0 E0.013
G1 X0.2517 Y-0.0722 Z0.0 E0.013
G1 X0.2504 Y-0.0765 Z0.0 E0.013
G1 X0.249 Y-0.0809 Z0.0 E0.013
G1 X0.2475 Y-0.0852 Z0.0 E0.013
G1 X0.246 Y-0.0895 Z0.0 E0.013
G1 X0.2444 Y-0.0938 Z0.0 E0.013
G1 X0.2427 Y-0.0981 Z0.0 E0.013
G1 X0.241 Y-0.1023 Z0.0 E0.013
G1 X0.2392 Y-0.1065 Z0.0 E0.013
G1 X0.2373 Y-0.1106 Z0.0 E0.013
G1 X0.2353 Y-0.1148 Z0.0 E0.013
G1 X0.2333 Y-0.1189 Z0.0 E0.013
G1 X0.2312 Y-0.1229 Z0.0 E0.013
G1 X0.229 Y-0.1269 Z0.0 E0.013
G1 X0.2267 Y-0.1309 Z0.0 E0.013
G1 X0.2244 Y-0.1348 Z0.0 E0.013
G1 X0.222 Y-0.1387 Z0.0 E0.013
G1 X0.2196 Y-0.1426 Z0.0 E0.013
G1 X0.217 Y-0.1464 Z0.0 E0.013
G1 X0.2145 Y-0.1502 Z0.0 E0.013
G1 X0.2118 Y-0.1539 Z0.0 E0.013
G1 X0.2091 Y-0.1576 Z0.0 E0.013
G1 X0.2063 Y-0.1612 Z0.0 E0.013
G1 X0.2035 Y-0.1648 Z0.0 E0.013
G1 X0.2005 Y-0.1683 Z0.0 E0.013
G1 X0.1976 Y-0.1718 Z0.0 E0.013
G1 X0.1946 Y-0.1752 Z0.0 E0.013
G1 X0.1915 Y-0.1785 Z0.0 E0.013
G1 X0.1883 Y-0.1819 Z0.0 E0.013
G1 X0.1851 Y-0.1851 Z0.0 E0.013
G1 X0.1819 Y-0.1883 Z0.0 E0.013
G1 X0.1785 Y-0.1915 Z0.0 E0.013
G1 X0.1752 Y-0.1946 Z0.0 E0.013
G1 X0.1718 Y-0.1976 Z0.0 E0.013
G1 X0.1683 Y-0.2005 Z0.0 E0.013
G1 X0.1648 Y-0.2035 Z0.0 E0.013
G1 X0.1612 Y-0.2063 Z0.0 E0.013
G1 X0.1576 Y-0.2091 Z0.0 E0.013
G1 X0.1539 Y-0.2118 Z0.0 E0.013
G1 X0.1502 Y-0.2145 Z0.0 E0.013
G1 X0.1464 Y-0.217 Z0.0 E0.013
G1 X0.1426 Y-0.2196 Z0.0 E0.013
G1 X0.1387 Y-0.222 Z0.0 E0.013
G1 X0.1348 Y-0.2244 Z0.0 E0.013
G1 X0.1309 Y-0.2267 Z0.0 E0.013
G1 X0.1269 Y-0.229 Z0.0 E0.013
G1 X0.1229 Y-0.2312 Z0.0 E0.013
G1 X0.1189 Y-0.2333 Z0.0 E0.013
G1 X0.1148 Y-0.2353 Z0.0 E0.013
G1 X0.1106 Y-0.2373 Z0.0 E0.013
G1 X0.1065 Y-0.2392 Z0.0 E0.013
G1 X0.1023 Y-0.241 Z0.0 E0.013
G1 X0.0981 Y-0.2427 Z0.0 E0.013
G1 X0.0938 Y-0.2444 Z0.0 E0.013
G1 X0.0895 Y-0.246 Z0.0 E0.013
G1 X0.0852 Y-0.2475 Z0.0 E0.013
G1 X0.0809 Y-0.249 Z0.0 E0.013
G1 X0.0765 Y-0.2504 Z0.0 E0.013
G1 X0.0722 Y-0.2517 Z0.0 E0.013
G1 X0.0678 Y-0.2529 Z0.0 E0.013
G1 X0.0633 Y-0.254 Z0.0 E0.013
G1 X0.0589 Y-0.2551 Z0.0 E0.013
G1 X0.0544 Y-0.2561 Z0.0 E0.013
G1 X0.05 Y-0.257 Z0.0 E0.013
G1 X0.0455 Y-0.2578 Z0.0 E0.013
G1 X0.041 Y-0.2586 Z0.0 E0.013
G1 X0.0364 Y-0.2593 Z0.0 E0.013
G1 X0.0319 Y-0.2598 Z0.0 E0.013
G1 X0.0274 Y-0.2604 Z0.0 E0.013
G1 X0.0228 Y-0.2608 Z0.0 E0.013
G1 X0.0183 Y-0.2612 Z0.0 E0.013
G1 X0.0137 Y-0.2614 Z0.0 E0.013
G1 X0.0091 Y-0.2616 Z0.0 E0.013
G1 X0.0046 Y-0.2618 Z0.0 E0.013
G1 X0.0 Y-0.2618 Z0.0 E0.013
G1 X-0.0046 Y-0.2618 Z0.0 E0.013
G1 X-0.0091 Y-0.2616 Z0.0 E0.013
G1 X-0.0137 Y-0.2614 Z0.0 E0.013
G1 X-0.0183 Y-0.2612 Z0.0 E0.013
G1 X-0.0228 Y-0.2608 Z0.0 E0.013
G1 X-0.0274 Y-0.2604 Z0.0 E0.013
G1 X-0.0319 Y-0.2598 Z0.0 E0.013
G1 X-0.0364 Y-0.2593 Z0.0 E0.013
G1 X-0.041 Y-0.2586 Z0.0 E0.013
G1 X-0.0455 Y-0.2578 Z0.0 E0.013
G1 X-0.05 Y-0.257 Z0.0 E0.013
G1 X-0.0544 Y-0.2561 Z0.0 E0.013
G1 X-0.0589 Y-0.2551 Z0.0 E0.013
G1 X-0.0633 Y-0.254 Z0.0 E0.013
G1 X-0.0678 Y-0.2529 Z0.0 E0.013
G1 X-0.0722 Y-0.2517 Z0.0 E0.013
G1 X-0.0765 Y-0.2504 Z0.0 E0.013
G1 X-0.0809 Y-0.249 Z0.0 E0.013
G1 X-0.0852 Y-0.2475 Z0.0 E0.013
G1 X-0.0895 Y-0.246 Z0.0 E0.013
G1 X-0.0938 Y-0.2444 Z0.0 E0.013
G1 X-0.0981 Y-0.2427 Z0.0 E0.013
G1 X-0.1023 Y-0.241 Z0.0 E0.013
G1 X-0.1065 Y-0.2392 Z0.0 E0.013
G1 X-0.1106 Y-0.2373 Z0.0 E0.013
G1 X-0.1148 Y-0.2353 Z0.0 E0.013
G1 X-0.1189 Y-0.2333 Z0.0 E0.013
G1 X-0.1229 Y-0.2312 Z0.0 E0.013
G1 X-0.1269 Y-0.229 Z0.0 E0.013
G1 X-0.1309 Y-0.2267 Z0.0 E0.013
G1 X-0.1348 Y-0.2244 Z0.0 E0.013
G1 X-0.1387 Y-0.222 Z0.0 E0.013
G1 X-0.1426 Y-0.2196 Z0.0 E0.013
G1 X-0.1464 Y-0.217 Z0.0 E0.013
G1 X-0.1502 Y-0.2145 Z0.0 E0.013
G1 X-0.1539 Y-0.2118 Z0.0 E0.013
G1 X-0.1576 Y-0.2091 Z0.0 E0.013
G1 X-0.1612 Y-0.2063 Z0.0 E0.013
G1 X-0.1648 Y-0.2035 Z0.0 E0.013
G1 X-0.1683 Y-0.2005 Z0.0 E0.013
G1 X-0.1718 Y-0.1976 Z0.0 E0.013
G1 X-0.1752 Y-0.1946 Z0.0 E0.013
G1 X-0.1785 Y-0.1915 Z0.0 E0.013
G1 X-0.1819 Y-0.1883 Z0.0 E0.013
G1 X-0.1851 Y-0.1851 Z0.0 E0.013
G1 X-0.1883 Y-0.1819 Z0.0 E0.013
G1 X-0.1915 Y-0.1785 Z0.0 E0.013
G1 X-0.1946 Y-0.1752 Z0.0 E0.013
G1 X-0.1976 Y-0.1718 Z0.0 E0.013
G1 X-0.2005 Y-0.1683 Z0.0 E0.013
G1 X-0.2035 Y-0.1648 Z0.0 E0.013
G1 X-0.2063 Y-0.1612 Z0.0 E0.013
G1 X-0.2091 Y-0.1576 Z0.0 E0.013
G1 X-0.2118 Y-0.1539 Z0.0 E0.013
G1 X-0.2145 Y-0.1502 Z0.0 E0.013
G1 X-0.217 Y-0.1464 Z0.0 E0.013
G1 X-0.2196 Y-0.1426 Z0.0 E0.013
G1 X-0.222 Y-0.1387 Z0.0 E0.013
G1 X-0.2244 Y-0.1348 Z0.0 E0.013
G1 X-0.2267 Y-0.1309 Z0.0 E0.013
G1 X-0.229 Y-0.1269 Z0.0 E0.013
G1 X-0.2312 Y-0.1229 Z0.0 E0.013
G1 X-0.2333 Y-0.1189 Z0.0 E0.013
G1 X-0.2353 Y-0.1148 Z0.0 E0.013
G1 X-0.2373 Y-0.1106 Z0.0 E0.013
G1 X-0.2392 Y-0.1065 Z0.0 E0.013
G1 X-0.241 Y-0.1023 Z0.0 E0.013
G1 X-0.2427 Y-0.0981 Z0.0 E0.013
G1 X-0.2444 Y-0.0938 Z0.0 E0.013
G1 X-0.246 Y-0.0895 Z0.0 E0.013
G1 X-0.2475 Y-0.0852 Z0.0 E0.013
G1 X-0.249 Y-0.0809 Z0.0 E0.013
G1 X-0.2504 Y-0.0765 Z0.0 E0.013
G1 X-0.2517 Y-0.0722 Z0.0 E0.013
G1 X-0.2529 Y-0.0678 Z0.0 E0.013
G1 X-0.254 Y-0.0633 Z0.0 E0.013
G1 X-0.2551 Y-0.0589 Z0.0 E0.013
G1 X-0.2561 Y-0.0544 Z0.0 E0.013
G1 X-0.257 Y-0.05 Z0.0 E0.013
G1 X-0.2578 Y-0.0455 Z0.0 E0.013
G1 X-0.2586 Y-0.041 Z0.0 E0.013
G1 X-0.2593 Y-0.0364 Z0.0 E0.013
G1 X-0.2598 Y-0.0319 Z0.0 E0.013
G1 X-0.2604 Y-0.0274 Z0.0 E0.013
G1 X-0.2608 Y-0.0228 Z0.0 E0.013
G1 X-0.2612 Y-0.0183 Z0.0 E0.013
G1 X-0.2614 Y-0.0137 Z0.0 E0.013
G1 X-0.2616 Y-0.0091 Z0.0 E0.013
G1 X-0.2618 Y-0.0046 Z0.0 E0.013
G1 X-0.2618 Y-0.0 Z0.0 E0.013
G1 X-0.2618 Y0.0046 Z0.0 E0.013
G1 X-0.2616 Y0.0091 Z0.0 E0.013
G1 X-0.2614 Y0.0137 Z0.0 E0.013
G1 X-0.2612 Y0.0183 Z0.0 E0.013
G1 X-0.2608 Y0.0228 Z0.0 E0.013
G1 X-0.2604 Y0.0274 Z0.0 E0.013
G1 X-0.2598 Y0.0319 Z0.0 E0.013
G1 X-0.2593 Y0.0364 Z0.0 E0.013
G1 X-0.2586 Y0.041 Z0.0 E0.013
G1 X-0.2578 Y0.0455 Z0.0 E0.013
G1 X-0.257 Y0.05 Z0.0 E0.013
G1 X-0.2561 Y0.0544 Z0.0 E0.013
G1 X-0.2551 Y0.0589 Z0.0 E0.013
G1 X-0.254 Y0.0633 Z0.0 E0.013
G1 X-0.2529 Y0.0678 Z0.0 E0.013
G1 X-0.2517 Y0.0722 Z0.0 E0.013
G1 X-0.2504 Y0.0765 Z0.0 E0.013
G1 X-0.249 Y0.0809 Z0.0 E0.013
G1 X-0.2475 Y0.0852 Z0.0 E0.013
G1 X-0.246 Y0.0895 Z0.0 E0.013
G1 X-0.2444 Y0.0938 Z0.0 E0.013
G1 X-0.2427 Y0.0981 Z0.0 E0.013
G1 X-0.241 Y0.1023 Z0.0 E0.013
G1 X-0.2392 Y0.1065 Z0.0 E0.013
G1 X-0.2373 Y0.1106 Z0.0 E0.013
G1 X-0.2353 Y0.1148 Z0.0 E0.013
G1 X-0.2333 Y0.1189 Z0.0 E0.013
G1 X-0.2312 Y0.1229 Z0.0 E0.013
G1 X-0.229 Y0.1269 Z0.0 E0.013
G1 X-0.2267 Y0.1309 Z0.0 E0.013
G1 X-0.2244 Y0.1348 Z0.0 E0.013
G1 X-0.222 Y0.1387 Z0.0 E0.013
G1 X-0.2196 Y0.1426 Z0.0 E0.013
G1 X-0.217 Y0.1464 Z0.0 E0.013
G1 X-0.2145 Y0.1502 Z0.0 E0.013
G1 X-0.2118 Y0.1539 Z0.0 E0.013
G1 X-0.2091 Y0.1576 Z0.0 E0.013
G1 X-0.2063 Y0.1612 Z0.0 E0.013
G1 X-0.2035 Y0.1648 Z0.0 E0.013
G1 X-0.2005 Y0.1683 Z0.0 E0.013
G1 X-0.1976 Y0.1718 Z0.0 E0.013
G1 X-0.1946 Y0.1752 Z0.0 E0.013
G1 X-0.1915 Y0.1785 Z0.0 E0.013
G1 X-0.1883 Y0.1819 Z0.0 E0.013
G1 X-0.1851 Y0.1851 Z0.0 E0.013
G1 X-0.1819 Y0.1883 Z0.0 E0.013
G1 X-0.1785 Y0.1915 Z0.0 E0.013
G1 X-0.1752 Y0.1946 Z0.0 E0.013
G1 X-0.1718 Y0.1976 Z0.0 E0.013
G1 X-0.1683 Y0.2005 Z0.0 E0.013
G1 X-0.1648 Y0.2035 Z0.0 E0.013
G1 X-0.1612 Y0.2063 Z0.0 E0.013
G1 X-0.1576 Y0.2091 Z0.0 E0.013
G1 X-0.1539 Y0.2118 Z0.0 E0.013
G1 X-0.1502 Y0.2145 Z0.0 E0.013
G1 X-0.1464 Y0.217 Z0.0 E0.013
G1 X-0.1426 Y0.2196 Z0.0 E0.013
G1 X-0.1387 Y0.222 Z0.0 E0.013
G1 X-0.1348 Y0.2244 Z0.0 E0.013
G1 X-0.1309 Y0.2267 Z0.0 E0.013
G1 X-0.1269 Y0.229 Z0.0 E0.013
G1 X-0.1229 Y0.2312 Z0.0 E0.013
G1 X-0.1189 Y0.2333 Z0.0 E0.013
G1 X-0.1148 Y0.2353 Z0.0 E0.013
G1 X-0.1106 Y0.2373 Z0.0 E0.013
G1 X-0.1065 Y0.2392 Z0.0 E0.013
G1 X-0.1023 Y0.241 Z0.0 E0.013
G1 X-0.0981 Y0.2427 Z0.0 E0.013
G1 X-0.0938 Y0.2444 Z0.0 E0.013
G1 X-0.0895 Y0.246 Z0.0 E0.013
G1 X-0.0852 Y0.2475 Z0.0 E0.013
G1 X-0.0809 Y0.249 Z0.0 E0.013
G1 X-0.0765 Y0.2504 Z0.0 E0.013
G1 X-0.0722 Y0.2517 Z0.0 E0.013
G1 X-0.0678 Y0.2529 Z0.0 E0.013
G1 X-0.0633 Y0.254 Z0.0 E0.013
G1 X-0.0589 Y0.2551 Z0.0 E0.013
G1 X-0.0544 Y0.2561 Z0.0 E0.013
G1 X-0.05 Y0.257 Z0.0 E0.013
G1 X-0.0455 Y0.2578 Z0.0 E0.013
G1 X-0.041 Y0.2586 Z0.0 E0.013
G1 X-0.0364 Y0.2593 Z0.0 E0.013
G1 X-0.0319 Y0.2598 Z0.0 E0.013
G1 X-0.0274 Y0.2604 Z0.0 E0.013
G1 X-0.0228 Y0.2608 Z0.0 E0.013
G1 X-0.0183 Y0.2612 Z0.0 E0.013
G1 X-0.0137 Y0.2614 Z0.0 E0.013
G1 X-0.0091 Y0.2616 Z0.0 E0.013
G1 X-0.0046 Y0.2618 Z0.0 E0.013
G1 X-0.0 Y0.2618 Z0.0 E0.013
G1 X0.0046 Y0.2618 Z0.0 E0.013
G1 X0.0091 Y0.2616 Z0.0 E0.013
G1 X0.0137 Y0.2614 Z0.0 E0.013
G1 X0.0183 Y0.2612 Z0.0 E0.013
G1 X0.0228 Y0.2608 Z0.0 E0.013
G1 X0.0274 Y0.2604 Z0.0 E0.013
G1 X0.0319 Y0.2598 Z0.0 E0.013
G1 X0.0364 Y0.2593 Z0.0 E0.013
G1 X0.041 Y0.2586 Z0.0 E0.013
G1 X0.0455 Y0.2578 Z0.0 E0.013
G1 X0.05 Y0.257 Z0.0 E0.013
G1 X0.0544 Y0.2561 Z0.0 E0.013
G1 X0.0589 Y0.2551 Z0.0 E0.013
G1 X0.0633 Y0.254 Z0.0 E0.013
G1 X0.0678 Y0.2529 Z0.0 E0.013
G1 X0.0722 Y0.2517 Z0.0 E0.013
G1 X0.0765 Y0.2504 Z0.0 E0.013
G1 X0.0809 Y0.249 Z0.0 E0.013
G1 X0.0852 Y0.2475 Z0.0 E0.013
G1 X0.0895 Y0.246 Z0.0 E0.013
G1 X0.0938 Y0.2444 Z0.0 E0.013
G1 X0.0981 Y0.2427 Z0.0 E0.013
G1 X0.1023 Y0.241 Z0.0 E0.013
G1 X0.1065 Y0.2392 Z0.0 E0.013
G1 X0.1106 Y0.2373 Z0.0 E0.013
G1 X0.1148 Y0.2353 Z0.0 E0.013
G1 X0.1189 Y0.2333 Z0.0 E0.013
G1 X0.1229 Y0.2312 Z0.0 E0.013
G1 X0.1269 Y0.229 Z0.0 E0.013
G1 X0.1309 Y0.2267 Z0.0 E0.013
G1 X0.1348 Y0.2244 Z0.0 E0.013
G1 X0.1387 Y0.222 Z0.0 E0.013
G1 X0.1426 Y0.2196 Z0.0 E0.013
G1 X0.1464 Y0.217 Z0.0 E0.013
G1 X0.1502 Y0.2145 Z0.0 E0.013
G1 X0.1539 Y0.2118 Z0.0 E0.013
G1 X0.1576 Y0.2091 Z0.0 E0.013
G1 X0.1612 Y0.2063 Z0.0 E0.013
G1 X0.1648 Y0.2035 Z0.0 E0.013
G1 X0.1683 Y0.2005 Z0.0 E0.013
G1 X0.1718 Y0.1976 Z0.0 E0.013
G1 X0.1752 Y0.1946 Z0.0 E0.013
G1 X0.1785 Y0.1915 Z0.0 E0.013
G1 X0.1819 Y0.1883 Z0.0 E0.013
G1 X0.1851 Y0.1851 Z0.0 E0.013
G1 X0.1883 Y0.1819 Z0.0 E0.013
G1 X0.1915 Y0.1785 Z0.0 E0.013
G1 X0.1946 Y0.1752 Z0.0 E0.013
G1 X0.1976 Y0.1718 Z0.0 E0.013
G1 X0.2005 Y0.1683 Z0.0 E0.013
G1 X0.2035 Y0.1648 Z0.0 E0.013
G1 X0.2063 Y0.1612 Z0.0 E0.013
G1 X0.2091 Y0.1576 Z0.0 E0.013
G1 X0.2118 Y0.1539 Z0.0 E0.013
G1 X0.2145 Y0.1502 Z0.0 E0.013
G1 X0.217 Y0.1464 Z0.0 E0.013
G1 X0.2196 Y0.1426 Z0.0 E0.013
G1 X0.222 Y0.1387 Z0.0 E0.013
G1 X0.2244 Y0.1348 Z0.0 E0.013
G1 X0.2267 Y0.1309 Z0.0 E0.013
G1 X0.229 Y0.1269 Z0.0 E0.013
G1 X0.2312 Y0.1229 Z0.0 E0.013
G1 X0.2333 Y0.1189 Z0.0 E0.013
G1 X0.2353 Y0.1148 Z0.0 E0.013
G1 X0.2373 Y0.1106 Z0.0 E0.013
G1 X0.2392 Y0.1065 Z0.0 E0.013
G1 X0.241 Y0.1023 Z0.0 E0.013
G1 X0.2427 Y0.0981 Z0.0 E0.013
G1 X0.2444 Y0.0938 Z0.0 E0.013
G1 X0.246 Y0.0895 Z0.0 E0.013
G1 X0.2475 Y0.0852 Z0.0 E0.013
G1 X0.249 Y0.0809 Z0.0 E0.013
G1 X0.2504 Y0.0765 Z0.0 E0.013
G1 X0.2517 Y0.0722 Z0.0 E0.013
G1 X0.2529 Y0.0678 Z0.0 E0.013
G1 X0.254 Y0.0633 Z0.0 E0.013
G1 X0.2551 Y0.0589 Z0.0 E0.013
G1 X0.2561 Y0.0544 Z0.0 E0.013
G1 X0.257 Y0.05 Z0.0 E0.013
G1 X0.2578 Y0.0455 Z0.0 E0.013
G1 X0.2586 Y0.041 Z0.0 E0.013
G1 X0.2593 Y0.0364 Z0.0 E0.013
G1 X0.2598 Y0.0319 Z0.0 E0.013
G1 X0.2604 Y0.0274 Z0.0 E0.013
G1 X0.2608 Y0.0228 Z0.0 E0.013
G1 X0.2612 Y0.0183 Z0.0 E0.013
G1 X0.2614 Y0.0137 Z0.0 E0.013
G1 X0.2616 Y0.0091 Z0.0 E0.013
G1 X0.2618 Y0.0046 Z0.0 E0.013
G1 Z0.2
G1 X0.2618 Y0.0 Z0.0 E0.013
G1 X0.2618 Y-0.0046 Z0.0 E0.013
G1 X0.2616 Y-0.0091 Z0.0 E0.013
G1 X0.2614 Y-0.0137 Z0.0 E0.013
G1 X0.2612 Y-0.0183 Z0.0 E0.013
G1 X0.2608 Y-0.0228 Z0.0 E0.013
G1 X0.2604 Y-0.0274 Z0.0 E0.013
G1 X0.2598 Y-0.0319 Z0.0 E0.013
G1 X0.2593 Y-0.0364 Z0.0 E0.013
G1 X0.2586 Y-0.041 Z0.0 E0.013
G1 X0.2578 Y-0.0455 Z0.0 E0.013
G1 X0.257 Y-0.05 Z0.0 E0.013
G1 X0.2561 Y-0.0544 Z0.0 E0.013
G1 X0.2551 Y-0.0589 Z0.0 E0.013
G1 X0.254 Y-0.0633 Z0.0 E0.013
G1 X0.2529 Y-0.0678 Z0.0 E0.013
G1 X0.2517 Y-0.0722 Z0.0 E0.013
G1 X0.2504 Y-0.0765 Z0.0 E0.013
G1 X0.249 Y-0.0809 Z0.0 E0.013
G1 X0.2475 Y-0.0852 Z0.0 E0.013
G1 X0.246 Y-0.0895 Z0.0 E0.013
G1 X0.2444 Y-0.0938 Z0.0 E0.013
G1 X0.2427 Y-0.0981 Z0.0 E0.013
G1 X0.241 Y-0.1023 Z0.0 E0.013
G1 X0.2392 Y-0.1065 Z0.0 E0.013
G1 X0.2373 Y-0.1106 Z0.0 E0.013
G1 X0.2353 Y-0.1148 Z0.0 E0.013
G1 X0.2333 Y-0.1189 Z0.0 E0.013
G1 X0.2312 Y-0.1229 Z0.0 E0.013
G1 X0.229 Y-0.1269 Z0.0 E0.013
G1 X0.2267 Y-0.1309 Z0.0 E0.013
G1 X0.2244 Y-0.1348 Z0.0 E0.013
G1 X0.222 Y-0.1387 Z0.0 E0.013
G1 X0.2196 Y-0.1426 Z0.0 E0.013
G1 X0.217 Y-0.1464 Z0.0 E0.013
G1 X0.2145 Y-0.1502 Z0.0 E0.013
G1 X0.2118 Y-0.1539 Z0.0 E0.013
G1 X0.2091 Y-0.1576 Z0.0 E0.013
G1 X0.2063 Y-0.1612 Z0.0 E0.013
G1 X0.2035 Y-0.1648 Z0.0 E0.013
G1 X0.2005 Y-0.1683 Z0.0 E0.013
G1 X0.1976 Y-0.1718 Z0.0 E0.013
G1 X0.1946 Y-0.1752 Z0.0 E0.013
G1 X0.1915 Y-0.1785 Z0.0 E0.013
G1 X0.1883 Y-0.1819 Z0.0 E0.013
G1 X0.1851 Y-0.1851 Z0.0 E0.013
G1 X0.1819 Y-0.1883 Z0.0 E0.013
G1 X0.1785 Y-0.1915 Z0.0 E0.013
G1 X0.1752 Y-0.1946 Z0.0 E0.013
G1 X0.1718 Y-0.1976 Z0.0 E0.013
G1 X0.1683 Y-0.2005 Z0.0 E0.013
G1 X0.1648 Y-0.2035 Z0.0 E0.013
G1 X0.1612 Y-0.2063 Z0.0 E0.013
G1 X0.1576 Y-0.2091 Z0.0 E0.013
G1 X0.1539 Y-0.2118 Z0.0 E0.013
G1 X0.1502 Y-0.2145 Z0.0 E0.013
G1 X0.1464 Y-0.217 Z0.0 E0.013
G1 X0.1426 Y-0.2196 Z0.0 E0.013
G1 X0.1387 Y-0.222 Z0.0 E0.013
G1 X0.1348 Y-0.2244 Z0.0 E0.013
G1 X0.1309 Y-0.2267 Z0.0 E0.013
G1 X0.1269 Y-0.229 Z0.0 E0.013
G1 X0.1229 Y-0.2312 Z0.0 E0.013
G1 X0.1189 Y-0.2333 Z0.0 E0.013
G1 X0.1148 Y-0.2353 Z0.0 E0.013
G1 X0.1106 Y-0.2373 Z0.0 E0.013
G1 X0.1065 Y-0.2392 Z0.0 E0.013
G1 X0.1023 Y-0.241 Z0.0 E0.013
G1 X0.0981 Y-0.2427 Z0.0 E0.013
G1 X0.0938 Y-0.2444 Z0.0 E0.013
G1 X0.0895 Y-0.246 Z0.0 E0.013
G1 X0.0852 Y-0.2475 Z0.0 E0.013
G1 X0.0809 Y-0.249 Z0.0 E0.013
G1 X0.0765 Y-0.2504 Z0.0 E0.013
G1 X0.0722 Y-0.2517 Z0.0 E0.013
G1 X0.0678 Y-0.2529 Z0.0 E0.013
G1 X0.0633 Y-0.254 Z0.0 E0.013
G1 X0.0589 Y-0.2551 Z0.0 E0.013
G1 X0.0544 Y-0.2561 Z0.0 E0.013
G1 X0.05 Y-0.257 Z0.0 E0.013
G1 X0.0455 Y-0.2578 Z0.0 E0.013
G1 X0.041 Y-0.2586 Z0.0 E0.013
G1 X0.0364 Y-0.2593 Z0.0 E0.013
G1 X0.0319 Y-0.2598 Z0.0 E0.013
G1 X0.0274 Y-0.2604 Z0.0 E0.013
G1 X0.0228 Y-0.2608 Z0.0 E0.013
G1 X0.0183 Y-0.2612 Z0.0 E0.013
G1 X0.0137 Y-0.2614 Z0.0 E0.013
G1 X0.0091 Y-0.2616 Z0.0 E0.013
G1 X0.0046 Y-0.2618 Z0.0 E0.013
G1 X0.0 Y-0.2618 Z0.0 E0.013
G1 X-0.0046 Y-0.2618 Z0.0 E0.013
G1 X-0.0091 Y-0.2616 Z0.0 E0.013
G1 X-0.0137 Y-0.2614 Z0.0 E0.013
G1 X-0.0183 Y-0.2612 Z0.0 E0.013
G1 X-0.0228 Y-0.2608 Z0.0 E0.013
G1 X-0.0274 Y-0.2604 Z0.0 E0.013
G1 X-0.0319 Y-0.2598 Z0.0 E0.013
G1 X-0.0364 Y-0.2593 Z0.0 E0.013
G1 X-0.041 Y-0.2586 Z0.0 E0.013
G1 X-0.0455 Y-0.2578 Z0.0 E0.013
G1 X-0.05 Y-0.257 Z0.0 E0.013
G1 X-0.0544 Y-0.2561 Z0.0 E0.013
G1 X-0.0589 Y-0.2551 Z0.0 E0.013
G1 X-0.0633 Y-0.254 Z0.0 E0.013
G1 X-0.0678 Y-0.2529 Z0.0 E0.013
G1 X-0.0722 Y-0.2517 Z0.0 E0.013
G1 X-0.0765 Y-0.2504 Z0.0 E0.013
G1 X-0.0809 Y-0.249 Z0.0 E0.013
G1 X-0.0852 Y-0.2475 Z0.0 E0.013
G1 X-0.0895 Y-0.246 Z0.0 E0.013
G1 X-0.0938 Y-0.2444 Z0.0 E0.013
G1 X-0.0981 Y-0.2427 Z0.0 E0.013
G1 X-0.1023 Y-0.241 Z0.0 E0.013
G1 X-0.1065 Y-0.2392 Z0.0 E0.013
G1 X-0.1106 Y-0.2373 Z0.0 E0.013
G1 X-0.1148 Y-0.2353 Z0.0 E0.013
G1 X-0.1189 Y-0.2333 Z0.0 E0.013
G1 X-0.1229 Y-0.2312 Z0.0 E0.013
G1 X-0.1269 Y-0.229 Z0.0 E0.013
G1 X-0.1309 Y-0.2267 Z0.0 E0.013
G1 X-0.1348 Y-0.2244 Z0.0 E0.013
G1 X-0.1387 Y-0.222 Z0.0 E0.013
G1 X-0.1426 Y-0.2196 Z0.0 E0.013
G1 X-0.1464 Y-0.217 Z0.0 E0.013
G1 X-0.1502 Y-0.2145 Z0.0 E0.013
G1 X-0.1539 Y-0.2118 Z0.0 E0.013
G1 X-0.1576 Y-0.2091 Z0.0 E0.013
G1 X-0.1612 Y-0.2063 Z0.0 E0.013
G1 X-0.1648 Y-0.2035 Z0.0 E0.013
G1 X-0.1683 Y-0.2005 Z0.0 E0.013
G1 X-0.1718 Y-0.1976 Z0.0 E0.013
G1 X-0.1752 Y-0.1946 Z0.0 E0.013
G1 X-0.1785 Y-0.1915 Z0.0 E0.013
G1 X-0.1819 Y-0.1883 Z0.0 E0.013
G1 X-0.1851 Y-0.1851 Z0.0 E0.013
G1 X-0.1883 Y-0.1819 Z0.0 E0.013
G1 X-0.1915 Y-0.1785 Z0.0 E0.013
G1 X-0.1946 Y-0.1752 Z0.0 E0.013
G1 X-0.1976 Y-0.1718 Z0.0 E0.013
G1 X-0.2005 Y-0.1683 Z0.0 E0.013
G1 X-0.2035 Y-0.1648 Z0.0 E0.013
G1 X-0.2063 Y-0.1612 Z0.0 E0.013
G1 X-0.2091 Y-0.1576 Z0.0 E0.013
G1 X-0.2118 Y-0.1539 Z0.0 E0.013
G1 X-0.2145 Y-0.1502 Z0.0 E0.013
G1 X-0.217 Y-0.1464 Z0.0 E0.013
G1 X-0.2196 Y-0.1426 Z0.0 E0.013
G1 X-0.222 Y-0.1387 Z0.0 E0.013
G1 X-0.2244 Y-0.1348 Z0.0 E0.013
G1 X-0.2267 Y-0.1309 Z0.0 E0.013
G1 X-0.229 Y-0.1269 Z0.0 E0.013
G1 X-0.2312 Y-0.1229 Z0.0 E0.013
G1 X-0.2333 Y-0.1189 Z0.0 E0.013
G1 X-0.2353 Y-0.1148 Z0.0 E0.013
G1 X-0.2373 Y-0.1106 Z0.0 E0.013
G1 X-0.2392 Y-0.1065 Z0.0 E0.013
G1 X-0.241 Y-0.1023 Z0.0 E0.013
G1 X-0.2427 Y-0.0981 Z0.0 E0.013
G1 X-0.2444 Y-0.0938 Z0.0 E0.013
G1 X-0.246 Y-0.0895 Z0.0 E0.013
G1 X-0.2475 Y-0.0852 Z0.0 E0.013
G1 X-0.249 Y-0.0809 Z0.0 E0.013
G1 X-0.2504 Y-0.0765 Z0.0 E0.013
G1 X-0.2517 Y-0.0722 Z0.0 E0.013
G1 X-0.2529 Y-0.0678 Z0.0 E0.013
G1 X-0.254 Y-0.0633 Z0.0 E0.013
G1 X-0.2551 Y-0.0589 Z0.0 E0.013
G1 X-0.2561 Y-0.0544 Z0.0 E0.013
G1 X-0.257 Y-0.05 Z0.0 E0.013
G1 X-0.2578 Y-0.0455 Z0.0 E0.013
G1 X-0.2586 Y-0.041 Z0.0 E0.013
G1 X-0.2593 Y-0.0364 Z0.0 E0.013
G1 X-0.2598 Y-0.0319 Z0.0 E0.013
G1 X-0.2604 Y-0.0274 Z0.0 E0.013
G1 X-0.2608 Y-0.0228 Z0.0 E0.013
G1 X-0.2612 Y-0.0183 Z0.0 E0.013
G1 X-0.2614 Y-0.0137 Z0.0 E0.013
G1 X-0.2616 Y-0.0091 Z0.0 E0.013
G1 X-0.2618 Y-0.0046 Z0.0 E0.013
G1 X-0.2618 Y-0.0 Z0.0 E0.013
G1 X-0.2618 Y0.0046 Z0.0 E0.013
G1 X-0.2616 Y0.0091 Z0.0 E0.013
G1 X-0.2614 Y0.0137 Z0.0 E0.013
G1 X-0.2612 Y0.0183 Z0.0 E0.013
G1 X-0.2608 Y0.0228 Z0.0 E0.013
G1 X-0.2604 Y0.0274 Z0.0 E0.013
G1 X-0.2598 Y0.0319 Z0.0 E0.013
G1 X-0.2593 Y0.0364 Z0.0 E0.013
G1 X-0.2586 Y0.041 Z0.0 E0.013
G1 X-0.2578 Y0.0455 Z0.0 E0.013
G1 X-0.257 Y0.05 Z0.0 E0.013
G1 X-0.2561 Y0.0544 Z0.0 E0.013
G1 X-0.2551 Y0.0589 Z0.0 E0.013
G1 X-0.254 Y0.0633 Z0.0 E0.013
G1 X-0.2529 Y0.0678 Z0.0 E0.013
G1 X-0.2517 Y0.0722 Z0.0 E0.013
G1 X-0.2504 Y0.0765 Z0.0 E0.013
G1 X-0.249 Y0.0809 Z0.0 E0.013
G1 X-0.2475 Y0.0852 Z0.0 E0.013
G1 X-0.246 Y0.0895 Z0.0 E0.013
G1 X-0.2444 Y0.0938 Z0.0 E0.013
G1 X-0.2427 Y0.0981 Z0.0 E0.013
G1 X-0.241 Y0.1023 Z0.0 E0.013
G1 X-0.2392 Y0.1065 Z0.0 E0.013
G1 X-0.2373 Y0.1106 Z0.0 E0.013
G1 X-0.2353 Y0.1148 Z0.0 E0.013
G1 X-0.2333 Y0.1189 Z0.0 E0.013
G1 X-0.2312 Y0.1229 Z0.0 E0.013
G1 X-0.229 Y0.1269 Z0.0 E0.013
G1 X-0.2267 Y0.1309 Z0.0 E0.013
G1 X-0.2244 Y0.1348 Z0.0 E0.013
G1 X-0.222 Y0.1387 Z0.0 E0.013
